This is an example about how to output file.
; G-code for laser engraving
; Generated by lotmax
2019-11-13 16:36:08

G90
G21
G28 XY
; G-code START <<<
G0 F2500
G1 F500
G0 X87.4 Y89.8
M3
G1 X87.7 Y89.9
M5
G0 X93.9 Y89.8
M3
G1 X94.4 Y89.9
M5
G0 X96.7 Y89.8
M3
G1 X97.1 Y89.9
M5
G0 X97 Y89.9
M3
G1 X96.5 Y90
M5
G0 X94.3 Y89.9
M3
G1 X93.8 Y90
M5
G0 X87.6 Y89.9
M3
G1 X87.3 Y90
M5
G0 X87.4 Y90
M3
G1 X87.7 Y90.1
M5
G0 X93.9 Y90
M3
G1 X94.4 Y90.1
M5
G0 X96.6 Y90
M3
G1 X97.1 Y90.1
M5
G0 X97 Y90.1
M3
G1 X96.4 Y90.2
M5
G0 X94.4 Y90.1
M3
G1 X93.8 Y90.2
M5
G0 X92.5 Y90.1
M3
G1 X92.3 Y90.2
M5
G0 X87.6 Y90.1
M3
G1 X87.3 Y90.2
M5
G0 X87.4 Y90.2
M3
G1 X87.7 Y90.3
M5
G0 X92.4 Y90.2
M3
G1 X92.6 Y90.3
M5
G0 X93.9 Y90.2
M3
G1 X94.1 Y90.3
M5
G0 X94.3 Y90.2
M3
G1 X94.5 Y90.3
M5
G0 X96.5 Y90.2
M3
G1 X96.7 Y90.3
M5
G0 X96.9 Y90.2
M3
G1 X97.1 Y90.3
M5
G0 X97 Y90.3
M3
G1 X96.8 Y90.4
M5
G0 X96.6 Y90.3
M3
G1 X96.3 Y90.4
M5
G0 X94.5 Y90.3
M3
G1 X94.2 Y90.4
M5
G0 X94 Y90.3
M3
G1 X93.8 Y90.4
M5
G0 X92.5 Y90.3
M3
G1 X92.3 Y90.4
M5
G0 X87.6 Y90.3
M3
G1 X87.3 Y90.4
M5
G0 X87.4 Y90.4
M3
G1 X87.7 Y90.5
M5
G0 X92.4 Y90.4
M3
G1 X92.6 Y90.5
M5
G0 X93.9 Y90.4
M3
G1 X94.1 Y90.5
M5
G0 X94.3 Y90.4
M3
G1 X94.6 Y90.5
M5
G0 X96.4 Y90.4
M3
G1 X96.6 Y90.5
M5
G0 X96.9 Y90.4
M3
G1 X97.1 Y90.5
M5
G0 X97 Y90.5
M3
G1 X96.7 Y90.6
M5
G0 X96.5 Y90.5
M3
G1 X96.3 Y90.6
M5
G0 X94.6 Y90.5
M3
G1 X94.3 Y90.6
M5
G0 X94 Y90.5
M3
G1 X93.8 Y90.6
M5
G0 X92.5 Y90.5
M3
G1 X92.3 Y90.6
M5
G0 X87.6 Y90.5
M3
G1 X87.3 Y90.6
M5
G0 X87.4 Y90.6
M3
G1 X87.7 Y90.7
M5
G0 X92.4 Y90.6
M3
G1 X92.6 Y90.7
M5
G0 X93.9 Y90.6
M3
G1 X94.1 Y90.7
M5
G0 X94.4 Y90.6
M3
G1 X94.7 Y90.7
M5
G0 X96.3 Y90.6
M3
G1 X96.6 Y90.7
M5
G0 X96.8 Y90.6
M3
G1 X97.1 Y90.7
M5
G0 X101.8 Y90.7
M3
G1 X101.5 Y90.8
M5
G0 X100.3 Y90.7
M3
G1 X100 Y90.8
M5
G0 X99 Y90.7
M3
G1 X98.1 Y90.8
M5
G0 X97 Y90.7
M3
G1 X96.7 Y90.8
M5
G0 X96.4 Y90.7
M3
G1 X96.2 Y90.8
M5
G0 X94.6 Y90.7
M3
G1 X94.4 Y90.8
M5
G0 X94 Y90.7
M3
G1 X93.8 Y90.8
M5
G0 X93.1 Y90.7
M3
G1 X91.9 Y90.8
M5
G0 X90.9 Y90.7
M3
G1 X89.9 Y90.8
M5
G0 X87.6 Y90.7
M3
G1 X87.3 Y90.8
M5
G0 X87.4 Y90.8
M3
G1 X87.7 Y90.9
M5
G0 X89.9 Y90.8
M3
G1 X91.1 Y90.9
M5
G0 X92 Y90.8
M3
G1 X93.2 Y90.9
M5
G0 X93.9 Y90.8
M3
G1 X94.1 Y90.9
M5
G0 X94.5 Y90.8
M3
G1 X94.8 Y90.9
M5
G0 X96.2 Y90.8
M3
G1 X96.5 Y90.9
M5
G0 X96.8 Y90.8
M3
G1 X97.1 Y90.9
M5
G0 X98 Y90.8
M3
G1 X99.3 Y90.9
M5
G0 X100.2 Y90.8
M3
G1 X100.5 Y90.9
M5
G0 X101.5 Y90.8
M3
G1 X101.8 Y90.9
M5
G0 X101.7 Y90.9
M3
G1 X101.4 Y91
M5
G0 X100.4 Y90.9
M3
G1 X100.1 Y91
M5
G0 X99.3 Y90.9
M3
G1 X98.8 Y91
M5
G0 X98.3 Y90.9
M3
G1 X97.9 Y91
M5
G0 X97 Y90.9
M3
G1 X96.7 Y91
M5
G0 X96.3 Y90.9
M3
G1 X96.1 Y91
M5
G0 X94.7 Y90.9
M3
G1 X94.5 Y91
M5
G0 X94 Y90.9
M3
G1 X93.8 Y91
M5
G0 X93.1 Y90.9
M3
G1 X91.9 Y91
M5
G0 X91.2 Y90.9
M3
G1 X90.6 Y91
M5
G0 X90.2 Y90.9
M3
G1 X89.6 Y91
M5
G0 X87.6 Y90.9
M3
G1 X87.3 Y91
M5
G0 X87.4 Y91
M3
G1 X87.7 Y91.1
M5
G0 X89.6 Y91
M3
G1 X90 Y91.1
M5
G0 X91 Y91
M3
G1 X91.3 Y91.1
M5
G0 X92.4 Y91
M3
G1 X92.6 Y91.1
M5
G0 X93.9 Y91
M3
G1 X94.1 Y91.1
M5
G0 X94.6 Y91
M3
G1 X94.9 Y91.1
M5
G0 X96.1 Y91
M3
G1 X96.4 Y91.1
M5
G0 X96.8 Y91
M3
G1 X97.1 Y91.1
M5
G0 X98 Y91
M3
G1 X98.1 Y91.1
M5
G0 X99.1 Y91
M3
G1 X99.4 Y91.1
M5
G0 X100.3 Y91
M3
G1 X100.6 Y91.1
M5
G0 X101.4 Y91
M3
G1 X101.7 Y91.1
M5
G0 X101.5 Y91.1
M3
G1 X101.3 Y91.2
M5
G0 X100.6 Y91.1
M3
G1 X100.3 Y91.2
M5
G0 X99.3 Y91.1
M3
G1 X99 Y91.2
M5
G0 X97 Y91.1
M3
G1 X96.7 Y91.2
M5
G0 X96.2 Y91.1
M3
G1 X96 Y91.2
M5
G0 X94.8 Y91.1
M3
G1 X94.5 Y91.2
M5
G0 X94 Y91.1
M3
G1 X93.8 Y91.2
M5
G0 X92.5 Y91.1
M3
G1 X92.3 Y91.2
M5
G0 X91.3 Y91.1
M3
G1 X91 Y91.2
M5
G0 X89.8 Y91.1
M3
G1 X89.5 Y91.2
M5
G0 X87.6 Y91.1
M3
G1 X87.3 Y91.2
M5
G0 X87.4 Y91.2
M3
G1 X87.7 Y91.3
M5
G0 X89.5 Y91.2
M3
G1 X89.8 Y91.3
M5
G0 X91.1 Y91.2
M3
G1 X91.4 Y91.3
M5
G0 X92.4 Y91.2
M3
G1 X92.6 Y91.3
M5
G0 X93.9 Y91.2
M3
G1 X94.1 Y91.3
M5
G0 X94.7 Y91.2
M3
G1 X95 Y91.3
M5
G0 X96.1 Y91.2
M3
G1 X96.3 Y91.3
M5
G0 X96.8 Y91.2
M3
G1 X97.1 Y91.3
M5
G0 X99.2 Y91.2
M3
G1 X99.5 Y91.3
M5
G0 X100.4 Y91.2
M3
G1 X100.7 Y91.3
M5
G0 X101.3 Y91.2
M3
G1 X101.6 Y91.3
M5
G0 X101.4 Y91.3
M3
G1 X101.2 Y91.4
M5
G0 X100.7 Y91.3
M3
G1 X100.4 Y91.4
M5
G0 X99.4 Y91.3
M3
G1 X99.1 Y91.4
M5
G0 X97 Y91.3
M3
G1 X96.7 Y91.4
M5
G0 X96.2 Y91.3
M3
G1 X95.9 Y91.4
M5
G0 X94.9 Y91.3
M3
G1 X94.6 Y91.4
M5
G0 X94 Y91.3
M3
G1 X93.8 Y91.4
M5
G0 X92.5 Y91.3
M3
G1 X92.3 Y91.4
M5
G0 X91.4 Y91.3
M3
G1 X91.1 Y91.4
M5
G0 X89.7 Y91.3
M3
G1 X89.4 Y91.4
M5
G0 X87.6 Y91.3
M3
G1 X87.3 Y91.4
M5
G0 X87.4 Y91.4
M3
G1 X87.7 Y91.5
M5
G0 X89.4 Y91.4
M3
G1 X89.7 Y91.5
M5
G0 X91.2 Y91.4
M3
G1 X91.5 Y91.5
M5
G0 X92.4 Y91.4
M3
G1 X92.6 Y91.5
M5
G0 X93.9 Y91.4
M3
G1 X94.1 Y91.5
M5
G0 X94.8 Y91.4
M3
G1 X95 Y91.5
M5
G0 X96 Y91.4
M3
G1 X96.2 Y91.5
M5
G0 X96.8 Y91.4
M3
G1 X97.1 Y91.5
M5
G0 X99.2 Y91.4
M3
G1 X99.5 Y91.5
M5
G0 X100.6 Y91.4
M3
G1 X100.8 Y91.5
M5
G0 X101.2 Y91.4
M3
G1 X101.4 Y91.5
M5
G0 X101.3 Y91.5
M3
G1 X101 Y91.6
M5
G0 X100.8 Y91.5
M3
G1 X100.5 Y91.6
M5
G0 X99.4 Y91.5
M3
G1 X99.1 Y91.6
M5
G0 X97 Y91.5
M3
G1 X96.7 Y91.6
M5
G0 X96.1 Y91.5
M3
G1 X95.8 Y91.6
M5
G0 X95 Y91.5
M3
G1 X94.7 Y91.6
M5
G0 X94 Y91.5
M3
G1 X93.8 Y91.6
M5
G0 X92.5 Y91.5
M3
G1 X92.3 Y91.6
M5
G0 X91.4 Y91.5
M3
G1 X91.2 Y91.6
M5
G0 X89.6 Y91.5
M3
G1 X89.3 Y91.6
M5
G0 X87.6 Y91.5
M3
G1 X87.3 Y91.6
M5
G0 X87.4 Y91.6
M3
G1 X87.7 Y91.7
M5
G0 X89.4 Y91.6
M3
G1 X89.7 Y91.7
M5
G0 X91.3 Y91.6
M3
G1 X91.5 Y91.7
M5
G0 X92.4 Y91.6
M3
G1 X92.6 Y91.7
M5
G0 X93.9 Y91.6
M3
G1 X94.1 Y91.7
M5
G0 X94.9 Y91.6
M3
G1 X95.1 Y91.7
M5
G0 X95.9 Y91.6
M3
G1 X96.1 Y91.7
M5
G0 X96.8 Y91.6
M3
G1 X97.1 Y91.7
M5
G0 X98.5 Y91.6
M3
G1 X99.5 Y91.7
M5
G0 X100.7 Y91.6
M3
G1 X100.9 Y91.7
M5
G0 X101.1 Y91.6
M3
G1 X101.3 Y91.7
M5
G0 X101.1 Y91.7
M3
G1 X100.6 Y91.8
M5
G0 X99.4 Y91.7
M3
G1 X98.1 Y91.8
M5
G0 X97 Y91.7
M3
G1 X96.7 Y91.8
M5
G0 X96 Y91.7
M3
G1 X95.7 Y91.8
M5
G0 X95.1 Y91.7
M3
G1 X94.8 Y91.8
M5
G0 X94 Y91.7
M3
G1 X93.8 Y91.8
M5
G0 X92.5 Y91.7
M3
G1 X92.3 Y91.8
M5
G0 X91.4 Y91.7
M3
G1 X91.2 Y91.8
M5
G0 X89.6 Y91.7
M3
G1 X89.3 Y91.8
M5
G0 X87.6 Y91.7
M3
G1 X87.3 Y91.8
M5
G0 X87.4 Y91.8
M3
G1 X87.7 Y91.9
M5
G0 X89.4 Y91.8
M3
G1 X89.7 Y91.9
M5
G0 X91.3 Y91.8
M3
G1 X91.5 Y91.9
M5
G0 X92.4 Y91.8
M3
G1 X92.6 Y91.9
M5
G0 X93.9 Y91.8
M3
G1 X94.1 Y91.9
M5
G0 X95 Y91.8
M3
G1 X95.2 Y91.9
M5
G0 X95.8 Y91.8
M3
G1 X96 Y91.9
M5
G0 X96.8 Y91.8
M3
G1 X97.1 Y91.9
M5
G0 X98 Y91.8
M3
G1 X98.7 Y91.9
M5
G0 X99.2 Y91.8
M3
G1 X99.5 Y91.9
M5
G0 X100.8 Y91.8
M3
G1 X101.2 Y91.9
M5
G0 X101.1 Y91.9
M3
G1 X100.7 Y92
M5
G0 X99.4 Y91.9
M3
G1 X99.1 Y92
M5
G0 X98.2 Y91.9
M3
G1 X97.8 Y92
M5
G0 X97 Y91.9
M3
G1 X96.7 Y92
M5
G0 X95.9 Y91.9
M3
G1 X95.6 Y92
M5
G0 X95.2 Y91.9
M3
G1 X94.9 Y92
M5
G0 X94 Y91.9
M3
G1 X93.8 Y92
M5
G0 X92.5 Y91.9
M3
G1 X92.3 Y92
M5
G0 X91.4 Y91.9
M3
G1 X91.2 Y92
M5
G0 X89.6 Y91.9
M3
G1 X89.3 Y92
M5
G0 X87.6 Y91.9
M3
G1 X87.3 Y92
M5
G0 X87.4 Y92
M3
G1 X87.7 Y92.1
M5
G0 X89.4 Y92
M3
G1 X89.7 Y92.1
M5
G0 X91.3 Y92
M3
G1 X91.5 Y92.1
M5
G0 X92.4 Y92
M3
G1 X92.6 Y92.1
M5
G0 X93.9 Y92
M3
G1 X94.1 Y92.1
M5
G0 X95 Y92
M3
G1 X95.3 Y92.1
M5
G0 X95.7 Y92
M3
G1 X96 Y92.1
M5
G0 X96.8 Y92
M3
G1 X97.1 Y92.1
M5
G0 X97.8 Y92
M3
G1 X98.1 Y92.1
M5
G0 X99.2 Y92
M3
G1 X99.5 Y92.1
M5
G0 X100.7 Y92
M3
G1 X101.3 Y92.1
G1 X101 Y92.2
M5
G0 X100.8 Y92.1
M3
G1 X100.5 Y92.2
M5
G0 X99.4 Y92.1
M3
G1 X99.1 Y92.2
M5
G0 X98 Y92.1
M3
G1 X97.7 Y92.2
M5
G0 X97 Y92.1
M3
G1 X96.7 Y92.2
M5
G0 X95.8 Y92.1
M3
G1 X95.6 Y92.2
M5
G0 X95.2 Y92.1
M3
G1 X95 Y92.2
M5
G0 X94 Y92.1
M3
G1 X93.8 Y92.2
M5
G0 X92.5 Y92.1
M3
G1 X92.3 Y92.2
M5
G0 X91.4 Y92.1
M3
G1 X91.1 Y92.2
M5
G0 X89.6 Y92.1
M3
G1 X89.3 Y92.2
M5
G0 X87.6 Y92.1
M3
G1 X87.3 Y92.2
M5
G0 X87.4 Y92.2
M3
G1 X87.7 Y92.3
M5
G0 X89.4 Y92.2
M3
G1 X89.7 Y92.3
M5
G0 X91.2 Y92.2
M3
G1 X91.5 Y92.3
M5
G0 X92.4 Y92.2
M3
G1 X92.6 Y92.3
M5
G0 X93.9 Y92.2
M3
G1 X94.1 Y92.3
M5
G0 X95.1 Y92.2
M3
G1 X95.4 Y92.3
M5
G0 X95.6 Y92.2
M3
G1 X95.9 Y92.3
M5
G0 X96.8 Y92.2
M3
G1 X97.1 Y92.3
M5
G0 X97.8 Y92.2
M3
G1 X98 Y92.3
M5
G0 X99.2 Y92.2
M3
G1 X99.5 Y92.3
M5
G0 X100.5 Y92.2
M3
G1 X100.8 Y92.3
M5
G0 X101.2 Y92.2
M3
G1 X101.4 Y92.3
G1 X101.1 Y92.4
M5
G0 X100.6 Y92.3
M3
G1 X100.4 Y92.4
M5
G0 X99.4 Y92.3
M3
G1 X99.1 Y92.4
M5
G0 X97.9 Y92.3
M3
G1 X97.7 Y92.4
M5
G0 X97 Y92.3
M3
G1 X96.7 Y92.4
M5
G0 X95.7 Y92.3
M3
G1 X95.5 Y92.4
M5
G0 X95.3 Y92.3
M3
G1 X95.1 Y92.4
M5
G0 X94 Y92.3
M3
G1 X93.8 Y92.4
M5
G0 X92.5 Y92.3
M3
G1 X92.3 Y92.4
M5
G0 X91.4 Y92.3
M3
G1 X91.1 Y92.4
M5
G0 X89.7 Y92.3
M3
G1 X89.4 Y92.4
M5
G0 X87.6 Y92.3
M3
G1 X87.3 Y92.4
M5
G0 X87.4 Y92.4
M3
G1 X87.7 Y92.5
M5
G0 X89.5 Y92.4
M3
G1 X89.8 Y92.5
M5
G0 X91.1 Y92.4
M3
G1 X91.4 Y92.5
M5
G0 X92.4 Y92.4
M3
G1 X92.6 Y92.5
M5
G0 X93.9 Y92.4
M3
G1 X94.1 Y92.5
M5
G0 X95.2 Y92.4
M3
G1 X95.8 Y92.5
M5
G0 X96.8 Y92.4
M3
G1 X97.1 Y92.5
M5
G0 X97.8 Y92.4
M3
G1 X98 Y92.5
M5
G0 X99.1 Y92.4
M3
G1 X99.5 Y92.5
M5
G0 X100.4 Y92.4
M3
G1 X100.7 Y92.5
M5
G0 X101.3 Y92.4
M3
G1 X101.6 Y92.5
M5
G0 X101.5 Y92.5
M3
G1 X101.2 Y92.6
M5
G0 X100.5 Y92.5
M3
G1 X100.2 Y92.6
M5
G0 X99.4 Y92.5
M3
G1 X98.9 Y92.6
M5
G0 X98 Y92.5
M3
G1 X97.7 Y92.6
M5
G0 X97 Y92.5
M3
G1 X96.7 Y92.6
M5
G0 X95.6 Y92.5
M3
G1 X95.2 Y92.6
M5
G0 X94 Y92.5
M3
G1 X93.8 Y92.6
M5
G0 X92.6 Y92.5
M3
G1 X92.3 Y92.6
M5
G0 X91.3 Y92.5
M3
G1 X90.9 Y92.6
M5
G0 X89.8 Y92.5
M3
G1 X89.5 Y92.6
M5
G0 X87.6 Y92.5
M3
G1 X87.3 Y92.6
M5
G0 X87.4 Y92.6
M3
G1 X87.7 Y92.7
M5
G0 X89.6 Y92.6
M3
G1 X90 Y92.7
M5
G0 X90.9 Y92.6
M3
G1 X91.3 Y92.7
M5
G0 X92.4 Y92.6
M3
G1 X92.7 Y92.7
M5
G0 X93.9 Y92.6
M3
G1 X94.1 Y92.7
M5
G0 X95.3 Y92.6
M3
G1 X95.7 Y92.7
M5
G0 X96.8 Y92.6
M3
G1 X97.1 Y92.7
M5
G0 X97.8 Y92.6
M3
G1 X98.2 Y92.7
M5
G0 X98.9 Y92.6
M3
G1 X99.1 Y92.7
M5
G0 X99.2 Y92.6
M3
G1 X99.5 Y92.7
M5
G0 X100.3 Y92.6
M3
G1 X100.6 Y92.7
M5
G0 X101.4 Y92.6
M3
G1 X101.7 Y92.7
G1 X101.4 Y92.8
M5
G0 X100.4 Y92.7
M3
G1 X100.1 Y92.8
M5
G0 X99.4 Y92.7
M3
G1 X99.1 Y92.8
M5
G0 X98.9 Y92.7
M3
G1 X98.6 Y92.8
M5
G0 X98.3 Y92.7
M3
G1 X97.8 Y92.8
M5
G0 X97 Y92.7
M3
G1 X96.7 Y92.8
M5
G0 X95.5 Y92.7
M3
G1 X95.2 Y92.8
M5
G0 X94 Y92.7
M3
G1 X93.8 Y92.8
M5
G0 X93.1 Y92.7
M3
G1 X93 Y92.8
M5
G0 X92.9 Y92.7
M3
G1 X92.3 Y92.8
M5
G0 X91.1 Y92.7
M3
G1 X90.5 Y92.8
M5
G0 X90.3 Y92.7
M3
G1 X89.6 Y92.8
M5
G0 X88.9 Y92.7
M3
G1 X87.3 Y92.8
M5
G0 X87.4 Y92.8
M3
G1 X89 Y92.9
M5
G0 X89.9 Y92.8
M3
G1 X91.1 Y92.9
M5
G0 X92.5 Y92.8
M3
G1 X93.2 Y92.9
M5
G0 X93.9 Y92.8
M3
G1 X94.1 Y92.9
M5
G0 X95.4 Y92.8
M3
G1 X95.6 Y92.9
M5
G0 X96.8 Y92.8
M3
G1 X97.1 Y92.9
M5
G0 X98 Y92.8
M3
G1 X98.9 Y92.9
M5
G0 X99.2 Y92.8
M3
G1 X99.5 Y92.9
M5
G0 X100.1 Y92.8
M3
G1 X100.4 Y92.9
M5
G0 X101.5 Y92.8
M3
G1 X101.8 Y92.9
G1 X101.5 Y93
M5
G0 X100.3 Y92.9
M3
G1 X100 Y93
M5
G0 X99.4 Y92.9
M3
G1 X99.1 Y93
M5
G0 X98.6 Y92.9
M3
G1 X98 Y93
M5
G0 X97 Y92.9
M3
G1 X96.7 Y93
M5
G0 X95.5 Y92.9
M3
G1 X95.3 Y93
M5
G0 X94 Y92.9
M3
G1 X93.8 Y93
M5
G0 X93.1 Y92.9
M3
G1 X92.5 Y93
M5
G0 X90.8 Y92.9
M3
G1 X90 Y93
M5
G0 X88.9 Y92.9
M3
G1 X87.3 Y93
M5

; G-code END <<<
