This is an example about how to output file.
; G-code for laser engraving
; Generated by lotmax
2019-12-26 11:09:52

G90
G21
G28 XY
; G-code START <<<
G0 F2500
M2 5
G1 F500
G0 X568 Y236
M3
G1 X560 Y236
M5
G0 X514 Y236
M3
G1 X487 Y236
M5
G0 X426 Y236
M3
G1 X414 Y236
M5
G0 X383 Y236
M3
G1 X311 Y236
M5
G0 X298 Y236
M3
G1 X291 Y236
M5
G0 X568 Y238
M3
G1 X561 Y238
M5
G0 X514 Y238
M3
G1 X485 Y238
M5
G0 X426 Y238
M3
G1 X413 Y238
M5
G0 X383 Y238
M3
G1 X310 Y238
M5
G0 X298 Y238
M3
G1 X291 Y238
M5
G0 X568 Y240
M3
G1 X561 Y240
M5
G0 X514 Y240
M3
G1 X476 Y240
M5
G0 X425 Y240
M3
G1 X412 Y240
M5
G0 X385 Y240
M3
G1 X308 Y240
M5
G0 X299 Y240
M3
G1 X291 Y240
M5
G0 X567 Y242
M3
G1 X562 Y242
M5
G0 X513 Y242
M3
G1 X465 Y242
M5
G0 X425 Y242
M3
G1 X410 Y242
M5
G0 X386 Y242
M3
G1 X305 Y242
M5
G0 X300 Y242
M3
G1 X292 Y242
M5
G0 X513 Y244
M3
G1 X458 Y244
M5
G0 X424 Y244
M3
G1 X407 Y244
M5
G0 X388 Y244
M3
G1 X365 Y244
M5
G0 X353 Y244
M3
G1 X293 Y244
M5
G0 X514 Y246
M3
G1 X451 Y246
M5
G0 X423 Y246
M3
G1 X403 Y246
M5
G0 X390 Y246
M3
G1 X373 Y246
M5
G0 X338 Y246
M3
G1 X293 Y246
M5
G0 X514 Y248
M3
G1 X447 Y248
M5
G0 X423 Y248
M3
G1 X375 Y248
M5
G0 X327 Y248
M3
G1 X294 Y248
M5
G0 X514 Y250
M3
G1 X502 Y250
M5
G0 X497 Y250
M3
G1 X445 Y250
M5
G0 X423 Y250
M3
G1 X376 Y250
M5
G0 X318 Y250
M3
G1 X294 Y250
M5
G0 X514 Y252
M3
G1 X503 Y252
M5
G0 X494 Y252
M3
G1 X445 Y252
M5
G0 X423 Y252
M3
G1 X377 Y252
M5
G0 X310 Y252
M3
G1 X294 Y252
M5
G0 X514 Y254
M3
G1 X503 Y254
M5
G0 X489 Y254
M3
G1 X449 Y254
M5
G0 X423 Y254
M3
G1 X377 Y254
M5
G0 X307 Y254
M3
G1 X293 Y254
M5
G0 X514 Y256
M3
G1 X504 Y256
M5
G0 X483 Y256
M3
G1 X455 Y256
M5
G0 X423 Y256
M3
G1 X376 Y256
M5
G0 X306 Y256
M3
G1 X292 Y256
M5
G0 X514 Y258
M3
G1 X504 Y258
M5
G0 X473 Y258
M3
G1 X458 Y258
M5
G0 X423 Y258
M3
G1 X374 Y258
M5
G0 X305 Y258
M3
G1 X291 Y258
M5
G0 X514 Y260
M3
G1 X504 Y260
M5
G0 X423 Y260
M3
G1 X413 Y260
M5
G0 X394 Y260
M3
G1 X367 Y260
M5
G0 X304 Y260
M3
G1 X291 Y260
M5
G0 X513 Y262
M3
G1 X504 Y262
M5
G0 X423 Y262
M3
G1 X414 Y262
M5
G0 X392 Y262
M3
G1 X358 Y262
M5
G0 X304 Y262
M3
G1 X290 Y262
M5
G0 X573 Y264
M3
G1 X571 Y264
M5
G0 X513 Y264
M3
G1 X504 Y264
M5
G0 X423 Y264
M3
G1 X415 Y264
M5
G0 X391 Y264
M3
G1 X349 Y264
M5
G0 X304 Y264
M3
G1 X291 Y264
M5
G0 X576 Y266
M3
G1 X568 Y266
M5
G0 X512 Y266
M3
G1 X504 Y266
M5
G0 X423 Y266
M3
G1 X416 Y266
M5
G0 X391 Y266
M3
G1 X333 Y266
M5
G0 X304 Y266
M3
G1 X292 Y266
M5
G0 X576 Y268
M3
G1 X567 Y268
M5
G0 X511 Y268
M3
G1 X504 Y268
M5
G0 X424 Y268
M3
G1 X417 Y268
M5
G0 X391 Y268
M3
G1 X378 Y268
M5
G0 X377 Y268
M3
G1 X327 Y268
M5
G0 X304 Y268
M3
G1 X293 Y268
M5
G0 X576 Y270
M3
G1 X566 Y270
M5
G0 X511 Y270
M3
G1 X504 Y270
M5
G0 X424 Y270
M3
G1 X418 Y270
M5
G0 X391 Y270
M3
G1 X380 Y270
M5
G0 X375 Y270
M3
G1 X325 Y270
M5
G0 X305 Y270
M3
G1 X294 Y270
M5
G0 X575 Y272
M3
G1 X565 Y272
M5
G0 X510 Y272
M3
G1 X504 Y272
M5
G0 X424 Y272
M3
G1 X419 Y272
M5
G0 X391 Y272
M3
G1 X381 Y272
M5
G0 X373 Y272
M3
G1 X325 Y272
M5
G0 X305 Y272
M3
G1 X295 Y272
M5
G0 X574 Y274
M3
G1 X565 Y274
M5
G0 X510 Y274
M3
G1 X504 Y274
M5
G0 X424 Y274
M3
G1 X421 Y274
M5
G0 X391 Y274
M3
G1 X381 Y274
M5
G0 X370 Y274
M3
G1 X327 Y274
M5
G0 X305 Y274
M3
G1 X296 Y274
M5
G0 X572 Y276
M3
G1 X564 Y276
M5
G0 X509 Y276
M3
G1 X504 Y276
M5
G0 X425 Y276
M3
G1 X422 Y276
M5
G0 X391 Y276
M3
G1 X382 Y276
M5
G0 X367 Y276
M3
G1 X334 Y276
M5
G0 X305 Y276
M3
G1 X297 Y276
M5
G0 X570 Y278
M3
G1 X564 Y278
M5
G0 X507 Y278
M3
G1 X503 Y278
M5
G0 X426 Y278
M3
G1 X422 Y278
M5
G0 X391 Y278
M3
G1 X382 Y278
M5
G0 X358 Y278
M3
G1 X339 Y278
M5
G0 X305 Y278
M3
G1 X297 Y278
M5
G0 X567 Y280
M3
G1 X565 Y280
M5
G0 X505 Y280
M3
G1 X503 Y280
M5
G0 X427 Y280
M3
G1 X423 Y280
M5
G0 X391 Y280
M3
G1 X382 Y280
M5
G0 X305 Y280
M3
G1 X298 Y280
M5
G0 X428 Y282
M3
G1 X424 Y282
M5
G0 X391 Y282
M3
G1 X382 Y282
M5
G0 X305 Y282
M3
G1 X299 Y282
M5
G0 X429 Y284
M3
G1 X425 Y284
M5
G0 X391 Y284
M3
G1 X383 Y284
M5
G0 X305 Y284
M3
G1 X300 Y284
M5
G0 X430 Y286
M3
G1 X427 Y286
M5
G0 X391 Y286
M3
G1 X383 Y286
M5
G0 X305 Y286
M3
G1 X301 Y286
M5
G0 X433 Y288
M3
G1 X428 Y288
M5
G0 X391 Y288
M3
G1 X383 Y288
M5
G0 X306 Y288
M3
G1 X303 Y288
M5
G0 X434 Y290
M3
G1 X430 Y290
M5
G0 X390 Y290
M3
G1 X383 Y290
M5
G0 X307 Y290
M3
G1 X304 Y290
M5
G0 X389 Y292
M3
G1 X384 Y292
M5
G0 X308 Y292
M3
G1 X304 Y292
M5
G0 X388 Y294
M3
G1 X384 Y294
M5
G0 X309 Y294
M3
G1 X304 Y294
M5
G0 X386 Y296
M3
G1 X384 Y296
M5
G0 X310 Y296
M3
G1 X305 Y296
M5
G0 X311 Y298
M3
G1 X306 Y298
M5
G0 X312 Y300
M3
G1 X307 Y300
M5
G0 X313 Y302
M3
G1 X309 Y302
M5
G0 X612 Y336
M3
G1 X607 Y336
M5
G0 X662 Y342
M3
G1 X659 Y342
M5
G0 X662 Y344
M3
G1 X656 Y344
M5
G0 X662 Y346
M3
G1 X655 Y346
M5
G0 X662 Y348
M3
G1 X654 Y348
M5
G0 X662 Y350
M3
G1 X652 Y350
M5
G0 X662 Y352
M3
G1 X649 Y352
M5
G0 X662 Y354
M3
G1 X648 Y354
M5
G0 X662 Y356
M3
G1 X648 Y356
M5
G0 X662 Y358
M3
G1 X648 Y358
M5
G0 X854 Y360
M3
G1 X853 Y360
M5
G0 X742 Y360
M3
G1 X734 Y360
M5
G0 X662 Y360
M3
G1 X648 Y360
M5
G0 X856 Y362
M3
G1 X852 Y362
M5
G0 X794 Y362
M3
G1 X791 Y362
M5
G0 X743 Y362
M3
G1 X733 Y362
M5
G0 X714 Y362
M3
G1 X711 Y362
M5
G0 X662 Y362
M3
G1 X648 Y362
M5
G0 X508 Y362
M3
G1 X504 Y362
M5
G0 X857 Y364
M3
G1 X851 Y364
M5
G0 X799 Y364
M3
G1 X786 Y364
M5
G0 X743 Y364
M3
G1 X735 Y364
M5
G0 X716 Y364
M3
G1 X710 Y364
M5
G0 X657 Y364
M3
G1 X648 Y364
M5
G0 X510 Y364
M3
G1 X499 Y364
M5
G0 X858 Y366
M3
G1 X852 Y366
M5
G0 X801 Y366
M3
G1 X784 Y366
M5
G0 X742 Y366
M3
G1 X736 Y366
M5
G0 X717 Y366
M3
G1 X709 Y366
M5
G0 X655 Y366
M3
G1 X647 Y366
M5
G0 X510 Y366
M3
G1 X497 Y366
M5
G0 X858 Y368
M3
G1 X853 Y368
M5
G0 X817 Y368
M3
G1 X810 Y368
M5
G0 X803 Y368
M3
G1 X784 Y368
M5
G0 X741 Y368
M3
G1 X739 Y368
M5
G0 X719 Y368
M3
G1 X709 Y368
M5
G0 X511 Y368
M3
G1 X494 Y368
M5
G0 X816 Y370
M3
G1 X786 Y370
M5
G0 X721 Y370
M3
G1 X709 Y370
M5
G0 X512 Y370
M3
G1 X492 Y370
M5
G0 X815 Y372
M3
G1 X790 Y372
M5
G0 X723 Y372
M3
G1 X708 Y372
M5
G0 X513 Y372
M3
G1 X490 Y372
M5
G0 X814 Y374
M3
G1 X792 Y374
M5
G0 X722 Y374
M3
G1 X708 Y374
M5
G0 X515 Y374
M3
G1 X489 Y374
M5
G0 X814 Y376
M3
G1 X803 Y376
M5
G0 X798 Y376
M3
G1 X793 Y376
M5
G0 X712 Y376
M3
G1 X707 Y376
M5
G0 X517 Y376
M3
G1 X488 Y376
M5
G0 X813 Y378
M3
G1 X804 Y378
M5
G0 X796 Y378
M3
G1 X794 Y378
M5
G0 X520 Y378
M3
G1 X487 Y378
M5
G0 X403 Y378
M3
G1 X395 Y378
M5
G0 X811 Y380
M3
G1 X805 Y380
M5
G0 X523 Y380
M3
G1 X486 Y380
M5
G0 X408 Y380
M3
G1 X393 Y380
M5
G0 X526 Y382
M3
G1 X486 Y382
M5
G0 X411 Y382
M3
G1 X392 Y382
M5
G0 X536 Y384
M3
G1 X485 Y384
M5
G0 X414 Y384
M3
G1 X391 Y384
M5
G0 X552 Y386
M3
G1 X484 Y386
M5
G0 X416 Y386
M3
G1 X388 Y386
M5
G0 X563 Y388
M3
G1 X484 Y388
M5
G0 X418 Y388
M3
G1 X384 Y388
M5
G0 X575 Y390
M3
G1 X483 Y390
M5
G0 X418 Y390
M3
G1 X377 Y390
M5
G0 X584 Y392
M3
G1 X483 Y392
M5
G0 X433 Y392
M3
G1 X429 Y392
M5
G0 X417 Y392
M3
G1 X372 Y392
M5
G0 X591 Y394
M3
G1 X482 Y394
M5
G0 X434 Y394
M3
G1 X429 Y394
M5
G0 X416 Y394
M3
G1 X368 Y394
M5
G0 X596 Y396
M3
G1 X482 Y396
M5
G0 X416 Y396
M3
G1 X364 Y396
M5
G0 X598 Y398
M3
G1 X481 Y398
M5
G0 X417 Y398
M3
G1 X359 Y398
M5
G0 X599 Y400
M3
G1 X480 Y400
M5
G0 X417 Y400
M3
G1 X355 Y400
M5
G0 X600 Y402
M3
G1 X479 Y402
M5
G0 X417 Y402
M3
G1 X351 Y402
M5
G0 X600 Y404
M3
G1 X478 Y404
M5
G0 X418 Y404
M3
G1 X348 Y404
M5
G0 X600 Y406
M3
G1 X477 Y406
M5
G0 X418 Y406
M3
G1 X344 Y406
M5
G0 X600 Y408
M3
G1 X476 Y408
M5
G0 X419 Y408
M3
G1 X341 Y408
M5
G0 X601 Y410
M3
G1 X475 Y410
M5
G0 X420 Y410
M3
G1 X338 Y410
M5
G0 X601 Y412
M3
G1 X474 Y412
M5
G0 X420 Y412
M3
G1 X336 Y412
M5
G0 X601 Y414
M3
G1 X473 Y414
M5
G0 X421 Y414
M3
G1 X335 Y414
M5
G0 X601 Y416
M3
G1 X472 Y416
M5
G0 X422 Y416
M3
G1 X334 Y416
M5
G0 X601 Y418
M3
G1 X471 Y418
M5
G0 X422 Y418
M3
G1 X334 Y418
M5
G0 X601 Y420
M3
G1 X469 Y420
M5
G0 X423 Y420
M3
G1 X333 Y420
M5
G0 X601 Y422
M3
G1 X467 Y422
M5
G0 X425 Y422
M3
G1 X333 Y422
M5
G0 X602 Y424
M3
G1 X465 Y424
M5
G0 X426 Y424
M3
G1 X332 Y424
M5
G0 X602 Y426
M3
G1 X463 Y426
M5
G0 X427 Y426
M3
G1 X332 Y426
M5
G0 X602 Y428
M3
G1 X462 Y428
M5
G0 X428 Y428
M3
G1 X331 Y428
M5
G0 X602 Y430
M3
G1 X461 Y430
M5
G0 X429 Y430
M3
G1 X331 Y430
M5
G0 X602 Y432
M3
G1 X460 Y432
M5
G0 X429 Y432
M3
G1 X331 Y432
M5
G0 X602 Y434
M3
G1 X460 Y434
M5
G0 X430 Y434
M3
G1 X330 Y434
M5
G0 X603 Y436
M3
G1 X460 Y436
M5
G0 X431 Y436
M3
G1 X330 Y436
M5
G0 X603 Y438
M3
G1 X459 Y438
M5
G0 X433 Y438
M3
G1 X330 Y438
M5
G0 X603 Y440
M3
G1 X458 Y440
M5
G0 X434 Y440
M3
G1 X330 Y440
M5
G0 X603 Y442
M3
G1 X457 Y442
M5
G0 X435 Y442
M3
G1 X329 Y442
M5
G0 X603 Y444
M3
G1 X456 Y444
M5
G0 X437 Y444
M3
G1 X329 Y444
M5
G0 X603 Y446
M3
G1 X455 Y446
M5
G0 X439 Y446
M3
G1 X329 Y446
M5
G0 X604 Y448
M3
G1 X454 Y448
M5
G0 X440 Y448
M3
G1 X329 Y448
M5
G0 X604 Y450
M3
G1 X453 Y450
M5
G0 X441 Y450
M3
G1 X329 Y450
M5
G0 X604 Y452
M3
G1 X451 Y452
M5
G0 X443 Y452
M3
G1 X328 Y452
M5
G0 X604 Y454
M3
G1 X328 Y454
M5
G0 X604 Y456
M3
G1 X328 Y456
M5
G0 X604 Y458
M3
G1 X328 Y458
M5
G0 X604 Y460
M3
G1 X327 Y460
M5
G0 X604 Y462
M3
G1 X327 Y462
M5
G0 X604 Y464
M3
G1 X327 Y464
M5
G0 X604 Y466
M3
G1 X327 Y466
M5
G0 X604 Y468
M3
G1 X326 Y468
M5
G0 X605 Y470
M3
G1 X326 Y470
M5
G0 X605 Y472
M3
G1 X326 Y472
M5
G0 X605 Y474
M3
G1 X326 Y474
M5
G0 X605 Y476
M3
G1 X325 Y476
M5
G0 X605 Y478
M3
G1 X325 Y478
M5
G0 X605 Y480
M3
G1 X325 Y480
M5
G0 X605 Y482
M3
G1 X325 Y482
M5
G0 X605 Y484
M3
G1 X325 Y484
M5
G0 X606 Y486
M3
G1 X324 Y486
M5
G0 X606 Y488
M3
G1 X324 Y488
M5
G0 X606 Y490
M3
G1 X324 Y490
M5
G0 X606 Y492
M3
G1 X324 Y492
M5
G0 X606 Y494
M3
G1 X324 Y494
M5
G0 X606 Y496
M3
G1 X324 Y496
M5
G0 X607 Y498
M3
G1 X323 Y498
M5
G0 X607 Y500
M3
G1 X323 Y500
M5
G0 X607 Y502
M3
G1 X323 Y502
M5
G0 X607 Y504
M3
G1 X323 Y504
M5
G0 X607 Y506
M3
G1 X323 Y506
M5
G0 X608 Y508
M3
G1 X323 Y508
M5
G0 X608 Y510
M3
G1 X323 Y510
M5
G0 X608 Y512
M3
G1 X323 Y512
M5
G0 X608 Y514
M3
G1 X323 Y514
M5
G0 X608 Y516
M3
G1 X323 Y516
M5
G0 X608 Y518
M3
G1 X323 Y518
M5
G0 X608 Y520
M3
G1 X323 Y520
M5
G0 X608 Y522
M3
G1 X322 Y522
M5
G0 X608 Y524
M3
G1 X322 Y524
M5
G0 X608 Y526
M3
G1 X322 Y526
M5
G0 X609 Y528
M3
G1 X322 Y528
M5
G0 X609 Y530
M3
G1 X322 Y530
M5
G0 X609 Y532
M3
G1 X322 Y532
M5
G0 X609 Y534
M3
G1 X322 Y534
M5
G0 X609 Y536
M3
G1 X322 Y536
M5
G0 X609 Y538
M3
G1 X322 Y538
M5
G0 X610 Y540
M3
G1 X322 Y540
M5
G0 X610 Y542
M3
G1 X322 Y542
M5
G0 X610 Y544
M3
G1 X322 Y544
M5
G0 X611 Y546
M3
G1 X322 Y546
M5
G0 X611 Y548
M3
G1 X322 Y548
M5
G0 X612 Y550
M3
G1 X322 Y550
M5
G0 X612 Y552
M3
G1 X321 Y552
M5
G0 X613 Y554
M3
G1 X321 Y554
M5
G0 X613 Y556
M3
G1 X321 Y556
M5
G0 X614 Y558
M3
G1 X321 Y558
M5
G0 X614 Y560
M3
G1 X321 Y560
M5
G0 X615 Y562
M3
G1 X321 Y562
M5
G0 X615 Y564
M3
G1 X321 Y564
M5
G0 X616 Y566
M3
G1 X321 Y566
M5
G0 X616 Y568
M3
G1 X321 Y568
M5
G0 X617 Y570
M3
G1 X321 Y570
M5
G0 X617 Y572
M3
G1 X320 Y572
M5
G0 X618 Y574
M3
G1 X320 Y574
M5
G0 X618 Y576
M3
G1 X320 Y576
M5
G0 X618 Y578
M3
G1 X320 Y578
M5
G0 X618 Y580
M3
G1 X319 Y580
M5
G0 X619 Y582
M3
G1 X319 Y582
M5
G0 X619 Y584
M3
G1 X319 Y584
M5
G0 X619 Y586
M3
G1 X319 Y586
M5
G0 X620 Y588
M3
G1 X318 Y588
M5
G0 X620 Y590
M3
G1 X318 Y590
M5
G0 X621 Y592
M3
G1 X317 Y592
M5
G0 X621 Y594
M3
G1 X317 Y594
M5
G0 X622 Y596
M3
G1 X316 Y596
M5
G0 X622 Y598
M3
G1 X315 Y598
M5
G0 X622 Y600
M3
G1 X314 Y600
M5
G0 X622 Y602
M3
G1 X314 Y602
M5
G0 X622 Y604
M3
G1 X313 Y604
M5
G0 X621 Y606
M3
G1 X312 Y606
M5
G0 X620 Y608
M3
G1 X312 Y608
M5
G0 X620 Y610
M3
G1 X312 Y610
M5
G0 X619 Y612
M3
G1 X311 Y612
M5
G0 X619 Y614
M3
G1 X311 Y614
M5
G0 X618 Y616
M3
G1 X310 Y616
M5
G0 X618 Y618
M3
G1 X309 Y618
M5
G0 X618 Y620
M3
G1 X308 Y620
M5
G0 X618 Y622
M3
G1 X308 Y622
M5
G0 X618 Y624
M3
G1 X308 Y624
M5
G0 X618 Y626
M3
G1 X308 Y626
M5
G0 X618 Y628
M3
G1 X309 Y628
M5
G0 X619 Y630
M3
G1 X310 Y630
M5
G0 X619 Y632
M3
G1 X310 Y632
M5
G0 X619 Y634
M3
G1 X311 Y634
M5
G0 X618 Y636
M3
G1 X311 Y636
M5
G0 X618 Y638
M3
G1 X345 Y638
M5
G0 X337 Y638
M3
G1 X311 Y638
M5
G0 X618 Y640
M3
G1 X353 Y640
M5
G0 X332 Y640
M3
G1 X311 Y640
M5
G0 X618 Y642
M3
G1 X587 Y642
M5
G0 X578 Y642
M3
G1 X358 Y642
M5
G0 X329 Y642
M3
G1 X311 Y642
M5
G0 X618 Y644
M3
G1 X593 Y644
M5
G0 X568 Y644
M3
G1 X360 Y644
M5
G0 X327 Y644
M3
G1 X311 Y644
M5
G0 X618 Y646
M3
G1 X596 Y646
M5
G0 X564 Y646
M3
G1 X361 Y646
M5
G0 X326 Y646
M3
G1 X312 Y646
M5
G0 X618 Y648
M3
G1 X597 Y648
M5
G0 X563 Y648
M3
G1 X361 Y648
M5
G0 X325 Y648
M3
G1 X313 Y648
M5
G0 X618 Y650
M3
G1 X597 Y650
M5
G0 X563 Y650
M3
G1 X361 Y650
M5
G0 X324 Y650
M3
G1 X314 Y650
M5
G0 X617 Y652
M3
G1 X598 Y652
M5
G0 X563 Y652
M3
G1 X361 Y652
M5
G0 X322 Y652
M3
G1 X317 Y652
M5
G0 X616 Y654
M3
G1 X598 Y654
M5
G0 X563 Y654
M3
G1 X361 Y654
M5
G0 X615 Y656
M3
G1 X598 Y656
M5
G0 X563 Y656
M3
G1 X361 Y656
M5
G0 X613 Y658
M3
G1 X598 Y658
M5
G0 X563 Y658
M3
G1 X360 Y658
M5
G0 X609 Y660
M3
G1 X599 Y660
M5
G0 X563 Y660
M3
G1 X360 Y660
M5
G0 X563 Y662
M3
G1 X360 Y662
M5
G0 X563 Y664
M3
G1 X360 Y664
M5
G0 X563 Y666
M3
G1 X360 Y666
M5
G0 X563 Y668
M3
G1 X360 Y668
M5
G0 X563 Y670
M3
G1 X360 Y670
M5
G0 X563 Y672
M3
G1 X360 Y672
M5
G0 X563 Y674
M3
G1 X359 Y674
M5
G0 X563 Y676
M3
G1 X359 Y676
M5
G0 X563 Y678
M3
G1 X359 Y678
M5
G0 X563 Y680
M3
G1 X359 Y680
M5
G0 X563 Y682
M3
G1 X359 Y682
M5
G0 X563 Y684
M3
G1 X359 Y684
M5
G0 X563 Y686
M3
G1 X359 Y686
M5
G0 X563 Y688
M3
G1 X358 Y688
M5
G0 X563 Y690
M3
G1 X358 Y690
M5
G0 X563 Y692
M3
G1 X358 Y692
M5
G0 X563 Y694
M3
G1 X357 Y694
M5
G0 X563 Y696
M3
G1 X356 Y696
M5
G0 X564 Y698
M3
G1 X356 Y698
M5
G0 X566 Y700
M3
G1 X355 Y700
M5
G0 X567 Y702
M3
G1 X355 Y702
M5
G0 X565 Y704
M3
G1 X354 Y704
M5
G0 X594 Y706
M3
G1 X589 Y706
M5
G0 X564 Y706
M3
G1 X354 Y706
M5
G0 X595 Y708
M3
G1 X589 Y708
M5
G0 X562 Y708
M3
G1 X354 Y708
M5
G0 X595 Y710
M3
G1 X591 Y710
M5
G0 X562 Y710
M3
G1 X354 Y710
M5
G0 X561 Y712
M3
G1 X355 Y712
M5
G0 X561 Y714
M3
G1 X355 Y714
M5
G0 X560 Y716
M3
G1 X356 Y716
M5
G0 X559 Y718
M3
G1 X357 Y718
M5
G0 X558 Y720
M3
G1 X357 Y720
M5
G0 X557 Y722
M3
G1 X357 Y722
M5
G0 X557 Y724
M3
G1 X356 Y724
M5
G0 X556 Y726
M3
G1 X356 Y726
M5
G0 X557 Y728
M3
G1 X355 Y728
M5
G0 X557 Y730
M3
G1 X355 Y730
M5
G0 X558 Y732
M3
G1 X354 Y732
M5
G0 X560 Y734
M3
G1 X354 Y734
M5
G0 X562 Y736
M3
G1 X353 Y736
M5
G0 X565 Y738
M3
G1 X353 Y738
M5
G0 X568 Y740
M3
G1 X352 Y740
M5
G0 X571 Y742
M3
G1 X351 Y742
M5
G0 X572 Y744
M3
G1 X351 Y744
M5
G0 X574 Y746
M3
G1 X559 Y746
M5
G0 X556 Y746
M3
G1 X350 Y746
M5
G0 X576 Y748
M3
G1 X562 Y748
M5
G0 X556 Y748
M3
G1 X350 Y748
M5
G0 X580 Y750
M3
G1 X564 Y750
M5
G0 X557 Y750
M3
G1 X350 Y750
M5
G0 X584 Y752
M3
G1 X567 Y752
M5
