This is an example about how to output file.
; G-code for laser engraving
; Generated by lotmax
2019-11-14 17:46:14

G90
G21
G28 XY
; G-code START <<<
G0 F2500
G1 F500
G0 X93.4 Y82.2
M3
G1 X94.9 Y82.3
M5
G0 X95.3 Y82.3
M3
G1 X92.7 Y82.4
M5
G0 X92.4 Y82.4
M3
G1 X95.9 Y82.5
M5
G0 X96.1 Y82.5
M3
G1 X92 Y82.6
M5
G0 X91.8 Y82.6
M3
G1 X96.5 Y82.7
M5
G0 X96.7 Y82.7
M3
G1 X91.5 Y82.8
M5
G0 X91.4 Y82.8
M3
G1 X97 Y82.9
M5
G0 X97.1 Y82.9
M3
G1 X91.2 Y83
M5
G0 X91.1 Y83
M3
G1 X97.4 Y83.1
M5
G0 X97.6 Y83.1
M3
G1 X90.9 Y83.2
G1 X93.9 Y83.3
M5
G0 X94.8 Y83.2
M3
G1 X97.9 Y83.3
G1 X95.2 Y83.4
M5
G0 X93.9 Y83.3
M3
G1 X90.7 Y83.4
G1 X94.1 Y83.5
M5
G0 X95.7 Y83.4
M3
G1 X98.2 Y83.5
M5
G0 X98.3 Y83.5
M3
G1 X95.9 Y83.6
M5
G0 X94.1 Y83.5
M3
G1 X92.3 Y83.6
M5
G0 X92.1 Y83.5
M3
G1 X90.5 Y83.6
M5
G0 X90.6 Y83.6
M3
G1 X92 Y83.7
M5
G0 X92.3 Y83.6
M3
G1 X94.2 Y83.7
M5
G0 X96.3 Y83.6
M3
G1 X98.5 Y83.7
M5
G0 X98.6 Y83.7
M3
G1 X96.4 Y83.8
M5
G0 X94.2 Y83.7
M3
G1 X92.2 Y83.8
M5
G0 X91.7 Y83.7
M3
G1 X90.4 Y83.8
G1 X91.7 Y83.9
M5
G0 X92.2 Y83.8
M3
G1 X94.3 Y83.9
M5
G0 X96.8 Y83.8
M3
G1 X98.8 Y83.9
M5
G0 X98.9 Y83.9
M3
G1 X96.9 Y84
M5
G0 X94.2 Y83.9
M3
G1 X92.1 Y84
M5
G0 X91.5 Y83.9
M3
G1 X90.3 Y84
M5
G0 X90.4 Y84
M3
G1 X91.6 Y84.1
M5
G0 X92.2 Y84
M3
G1 X93.5 Y84.1
M5
G0 X93.6 Y84
M3
G1 X94.4 Y84.1
M5
G0 X97.2 Y84
M3
G1 X99.1 Y84.1
G1 X97.3 Y84.2
M5
G0 X94.3 Y84.1
M3
G1 X93.5 Y84.2
M5
G0 X93.4 Y84.1
M3
G1 X92 Y84.2
M5
G0 X91.7 Y84.1
M3
G1 X90.2 Y84.2
M5
G0 X90.3 Y84.2
M3
G1 X94.4 Y84.3
M5
G0 X97.6 Y84.2
M3
G1 X99.4 Y84.3
G1 X97.6 Y84.4
M5
G0 X94.3 Y84.3
M3
G1 X90 Y84.4
M5
G0 X88.5 Y84.3
M3
G1 X87.7 Y84.4
G1 X88.8 Y84.5
M5
G0 X89.9 Y84.4
M3
G1 X94.3 Y84.5
M5
G0 X97.9 Y84.4
M3
G1 X99.6 Y84.5
M5
G0 X99.7 Y84.5
M3
G1 X97.9 Y84.6
M5
G0 X94.2 Y84.5
M3
G1 X89.2 Y84.6
M5
G0 X89.1 Y84.5
M3
G1 X87.5 Y84.6
G1 X94.3 Y84.7
M5
G0 X98.2 Y84.6
M3
G1 X99.9 Y84.7
G1 X98.2 Y84.8
M5
G0 X94.1 Y84.7
M3
G1 X87.4 Y84.8
M5
G0 X87.5 Y84.8
M3
G1 X94.1 Y84.9
M5
G0 X98.5 Y84.8
M3
G1 X100.1 Y84.9
G1 X98.5 Y85
M5
G0 X93.9 Y84.9
M3
G1 X87.4 Y85
M5
G0 X87.5 Y85
M3
G1 X93.9 Y85.1
M5
G0 X98.8 Y85
M3
G1 X100.3 Y85.1
G1 X98.8 Y85.2
M5
G0 X93.8 Y85.1
M3
G1 X87.4 Y85.2
M5
G0 X87.5 Y85.2
M3
G1 X93.9 Y85.3
M5
G0 X99 Y85.2
M3
G1 X100.5 Y85.3
G1 X99 Y85.4
M5
G0 X93.9 Y85.3
M3
G1 X87.5 Y85.4
M5
G0 X87.6 Y85.4
M3
G1 X94.1 Y85.5
M5
G0 X99.2 Y85.4
M3
G1 X100.7 Y85.5
G1 X99.2 Y85.6
M5
G0 X94.1 Y85.5
M3
G1 X87.5 Y85.6
M5
G0 X87.7 Y85.6
M3
G1 X94.3 Y85.7
M5
G0 X99.4 Y85.6
M3
G1 X100.9 Y85.7
M5
G0 X100.8 Y85.7
M3
G1 X99.4 Y85.8
M5
G0 X94.2 Y85.7
M3
G1 X87.7 Y85.8
M5
G0 X87.9 Y85.8
M3
G1 X94.3 Y85.9
M5
G0 X99.6 Y85.8
M3
G1 X101 Y85.9
G1 X99.6 Y86
M5
G0 X96.9 Y85.9
M3
G1 X96.4 Y86
M5
G0 X94.2 Y85.9
M3
G1 X87.9 Y86
M5
G0 X88.1 Y86
M3
G1 X94.3 Y86.1
M5
G0 X96.3 Y86
M3
G1 X97 Y86.1
M5
G0 X99.8 Y86
M3
G1 X101.2 Y86.1
M5
G0 X101.1 Y86.1
M3
G1 X99.8 Y86.2
M5
G0 X96.9 Y86.1
M3
G1 X96 Y86.2
M5
G0 X94.2 Y86.1
M3
G1 X88.2 Y86.2
M5
G0 X88.4 Y86.2
M3
G1 X94.3 Y86.3
M5
G0 X95.9 Y86.2
M3
G1 X97 Y86.3
M5
G0 X100 Y86.2
M3
G1 X101.3 Y86.3
G1 X100 Y86.4
M5
G0 X97 Y86.3
M3
G1 X95.4 Y86.4
M5
G0 X94.2 Y86.3
M3
G1 X88.6 Y86.4
M5
G0 X88.9 Y86.4
M3
G1 X97.2 Y86.5
M5
G0 X100.2 Y86.4
M3
G1 X101.5 Y86.5
M5
G0 X101.4 Y86.5
M3
G1 X100.1 Y86.6
M5
G0 X97.2 Y86.5
M3
G1 X89.2 Y86.6
M5
G0 X89.8 Y86.6
M3
G1 X97.4 Y86.7
M5
G0 X100.3 Y86.6
M3
G1 X101.6 Y86.7
G1 X100.3 Y86.8
M5
G0 X97.5 Y86.7
M3
G1 X90 Y86.8
M5
G0 X90.1 Y86.8
M3
G1 X97.7 Y86.9
M5
G0 X100.5 Y86.8
M3
G1 X101.7 Y86.9
G1 X100.4 Y87
M5
G0 X97.7 Y86.9
M3
G1 X90.1 Y87
M5
G0 X90.2 Y87
M3
G1 X95.9 Y87.1
M5
G0 X96.5 Y87
M3
G1 X97.9 Y87.1
M5
G0 X100.6 Y87
M3
G1 X101.9 Y87.1
M5
G0 X101.8 Y87.1
M3
G1 X100.6 Y87.2
M5
G0 X97.9 Y87.1
M3
G1 X96.5 Y87.2
M5
G0 X95.4 Y87.1
M3
G1 X90.1 Y87.2
M5
G0 X90.3 Y87.2
M3
G1 X92.7 Y87.3
M5
G0 X94.2 Y87.2
M3
G1 X94.7 Y87.3
M5
G0 X96.7 Y87.2
M3
G1 X98.1 Y87.3
M5
G0 X100.7 Y87.2
M3
G1 X102 Y87.3
M5
G0 X101.9 Y87.3
M3
G1 X100.7 Y87.4
M5
G0 X98.1 Y87.3
M3
G1 X96.7 Y87.4
M5
G0 X92.4 Y87.3
M3
G1 X90.3 Y87.4
M5
G0 X90.4 Y87.4
M3
G1 X92.3 Y87.5
M5
G0 X96.9 Y87.4
M3
G1 X98.3 Y87.5
M5
G0 X100.8 Y87.4
M3
G1 X102.1 Y87.5
M5
G0 X102 Y87.5
M3
G1 X100.8 Y87.6
M5
G0 X98.2 Y87.5
M3
G1 X96.9 Y87.6
M5
G0 X92.1 Y87.5
M3
G1 X90.4 Y87.6
M5
G0 X90.7 Y87.6
M3
G1 X92 Y87.7
M5
G0 X97.1 Y87.6
M3
G1 X98.4 Y87.7
M5
G0 X100.9 Y87.6
M3
G1 X102.2 Y87.7
M5
G0 X102.1 Y87.7
M3
G1 X100.9 Y87.8
M5
G0 X98.4 Y87.7
M3
G1 X97.1 Y87.8
M5
G0 X91.5 Y87.7
M3
G1 X90.9 Y87.8
M5
G0 X97.3 Y87.8
M3
G1 X98.6 Y87.9
M5
G0 X101 Y87.8
M3
G1 X102.2 Y87.9
G1 X101 Y88
M5
G0 X98.5 Y87.9
M3
G1 X97.3 Y88
M5
G0 X97.5 Y88
M3
G1 X98.7 Y88.1
M5
G0 X101.1 Y88
M3
G1 X102.3 Y88.1
G1 X101.1 Y88.2
M5
G0 X98.6 Y88.1
M3
G1 X97.4 Y88.2
M5
G0 X97.6 Y88.2
M3
G1 X98.8 Y88.3
M5
G0 X101.2 Y88.2
M3
G1 X102.4 Y88.3
M5
G0 X102.3 Y88.3
M3
G1 X101.1 Y88.4
M5
G0 X98.7 Y88.3
M3
G1 X97.6 Y88.4
M5
G0 X97.7 Y88.4
M3
G1 X98.9 Y88.5
M5
G0 X101.3 Y88.4
M3
G1 X102.5 Y88.5
M5
G0 X102.4 Y88.5
M3
G1 X101.2 Y88.6
M5
G0 X98.9 Y88.5
M3
G1 X97.7 Y88.6
M5
G0 X97.8 Y88.6
M3
G1 X99 Y88.7
M5
G0 X101.3 Y88.6
M3
G1 X102.5 Y88.7
M5
G0 X102.4 Y88.7
M3
G1 X101.3 Y88.8
M5
G0 X99 Y88.7
M3
G1 X97.8 Y88.8
M5
G0 X97.9 Y88.8
M3
G1 X99.1 Y88.9
M5
G0 X101.4 Y88.8
M3
G1 X102.6 Y88.9
M5
G0 X102.5 Y88.9
M3
G1 X101.3 Y89
M5
G0 X99 Y88.9
M3
G1 X97.9 Y89
M5
G0 X98 Y89
M3
G1 X99.2 Y89.1
M5
G0 X101.4 Y89
M3
G1 X102.6 Y89.1
M5
G0 X102.5 Y89.1
M3
G1 X101.4 Y89.2
M5
G0 X99.1 Y89.1
M3
G1 X97.9 Y89.2
M5
G0 X98.1 Y89.2
M3
G1 X99.2 Y89.3
M5
G0 X101.5 Y89.2
M3
G1 X102.7 Y89.3
M5
G0 X102.6 Y89.3
M3
G1 X101.4 Y89.4
M5
G0 X99.1 Y89.3
M3
G1 X98 Y89.4
M5
G0 X98.1 Y89.4
M3
G1 X99.3 Y89.5
M5
G0 X101.5 Y89.4
M3
G1 X102.7 Y89.5
M5
G0 X102.6 Y89.5
M3
G1 X101.4 Y89.6
M5
G0 X99.2 Y89.5
M3
G1 X98 Y89.6
M5
G0 X98.2 Y89.6
M3
G1 X99.3 Y89.7
M5
G0 X101.5 Y89.6
M3
G1 X102.7 Y89.7
M5
G0 X102.6 Y89.7
M3
G1 X101.4 Y89.8
M5
G0 X99.2 Y89.7
M3
G1 X98.1 Y89.8
M5
G0 X98.2 Y89.8
M3
G1 X99.3 Y89.9
M5
G0 X101.5 Y89.8
M3
G1 X102.7 Y89.9
M5
G0 X102.6 Y89.9
M3
G1 X101.5 Y90
M5
G0 X99.2 Y89.9
M3
G1 X98.1 Y90
M5
G0 X98.2 Y90
M3
G1 X99.3 Y90.1
M5
G0 X101.6 Y90
M3
G1 X102.7 Y90.1
M5
G0 X102.6 Y90.1
M3
G1 X101.5 Y90.2
M5
G0 X99.2 Y90.1
M3
G1 X98.1 Y90.2
M5
G0 X98.2 Y90.2
M3
G1 X99.4 Y90.3
M5
G0 X101.6 Y90.2
M3
G1 X102.7 Y90.3
M5
G0 X102.6 Y90.3
M3
G1 X101.4 Y90.4
M5
G0 X99.2 Y90.3
M3
G1 X98.1 Y90.4
M5
G0 X98.2 Y90.4
M3
G1 X99.3 Y90.5
M5
G0 X101.5 Y90.4
M3
G1 X102.7 Y90.5
M5
G0 X102.6 Y90.5
M3
G1 X101.4 Y90.6
M5
G0 X99.2 Y90.5
M3
G1 X98.1 Y90.6
M5
G0 X98.2 Y90.6
M3
G1 X99.3 Y90.7
M5
G0 X101.5 Y90.6
M3
G1 X102.7 Y90.7
M5
G0 X102.6 Y90.7
M3
G1 X101.4 Y90.8
M5
G0 X99.2 Y90.7
M3
G1 X98.1 Y90.8
M5
G0 X98.2 Y90.8
M3
G1 X99.3 Y90.9
M5
G0 X101.5 Y90.8
M3
G1 X102.7 Y90.9
M5
G0 X102.5 Y90.9
M3
G1 X101.4 Y91
M5
G0 X99.2 Y90.9
M3
G1 X98.1 Y91
M5
G0 X98.2 Y91
M3
G1 X99.3 Y91.1
M5
G0 X101.5 Y91
M3
G1 X102.6 Y91.1
M5
G0 X102.5 Y91.1
M3
G1 X101.3 Y91.2
M5
G0 X99.1 Y91.1
M3
G1 X98.1 Y91.2
G1 X99.2 Y91.3
M5
G0 X101.4 Y91.2
M3
G1 X102.6 Y91.3
M5
G0 X102.5 Y91.3
M3
G1 X101.3 Y91.4
M5
G0 X99.1 Y91.3
M3
G1 X98 Y91.4
M5
G0 X98.1 Y91.4
M3
G1 X99.2 Y91.5
M5
G0 X101.4 Y91.4
M3
G1 X102.5 Y91.5
M5
G0 X102.4 Y91.5
M3
G1 X101.2 Y91.6
M5
G0 X99 Y91.5
M3
G1 X98 Y91.6
G1 X99.1 Y91.7
M5
G0 X101.3 Y91.6
M3
G1 X102.5 Y91.7
M5
G0 X102.4 Y91.7
M3
G1 X101.2 Y91.8
M5
G0 X99 Y91.7
M3
G1 X97.9 Y91.8
G1 X99 Y91.9
M5
G0 X101.2 Y91.8
M3
G1 X102.4 Y91.9
M5
G0 X102.3 Y91.9
M3
G1 X101.1 Y92
M5
G0 X98.9 Y91.9
M3
G1 X97.8 Y92
G1 X98.9 Y92.1
M5
G0 X101.1 Y92
M3
G1 X102.4 Y92.1
M5
G0 X102.2 Y92.1
M3
G1 X101 Y92.2
M5
G0 X98.8 Y92.1
M3
G1 X97.7 Y92.2
G1 X98.8 Y92.3
M5
G0 X101 Y92.2
M3
G1 X102.3 Y92.3
M5
G0 X102.2 Y92.3
M3
G1 X100.9 Y92.4
M5
G0 X98.7 Y92.3
M3
G1 X97.5 Y92.4
M5
G0 X97.6 Y92.4
M3
G1 X98.7 Y92.5
M5
G0 X100.9 Y92.4
M3
G1 X102.2 Y92.5
M5
G0 X102.1 Y92.5
M3
G1 X100.8 Y92.6
M5
G0 X98.6 Y92.5
M3
G1 X97.4 Y92.6
G1 X98.6 Y92.7
M5
G0 X100.8 Y92.6
M3
G1 X102.1 Y92.7
M5
G0 X102 Y92.7
M3
G1 X100.7 Y92.8
M5
G0 X98.5 Y92.7
M3
G1 X97.2 Y92.8
G1 X98.5 Y92.9
M5
G0 X100.7 Y92.8
M3
G1 X102.1 Y92.9
M5
G0 X101.9 Y92.9
M3
G1 X100.5 Y93
M5
G0 X98.3 Y92.9
M3
G1 X97 Y93
G1 X98.4 Y93.1
M5
G0 X100.6 Y93
M3
G1 X102 Y93.1
M5
G0 X101.8 Y93.1
M3
G1 X100.4 Y93.2
M5
G0 X98.2 Y93.1
M3
G1 X96.8 Y93.2
G1 X98.2 Y93.3
M5
G0 X100.5 Y93.2
M3
G1 X101.8 Y93.3
M5
G0 X101.7 Y93.3
M3
G1 X100.3 Y93.4
M5
G0 X98 Y93.3
M3
G1 X96.5 Y93.4
G1 X98 Y93.5
M5
G0 X100.3 Y93.4
M3
G1 X101.7 Y93.5
M5
G0 X101.6 Y93.5
M3
G1 X100.2 Y93.6
M5
G0 X97.9 Y93.5
M3
G1 X96.3 Y93.6
G1 X97.9 Y93.7
M5
G0 X100.2 Y93.6
M3
G1 X101.6 Y93.7
M5
G0 X101.5 Y93.7
M3
G1 X100 Y93.8
M5
G0 X97.7 Y93.7
M3
G1 X96.1 Y93.8
M5
G0 X96 Y93.8
M3
G1 X97.7 Y93.9
M5
G0 X100.1 Y93.8
M3
G1 X101.5 Y93.9
M5
G0 X101.3 Y93.9
M3
G1 X99.9 Y94
M5
G0 X97.4 Y93.9
M3
G1 X95.8 Y94
M5
G0 X95.7 Y94
M3
G1 X97.4 Y94.1
M5
G0 X99.9 Y94
M3
G1 X101.4 Y94.1
M5
G0 X101.2 Y94.1
M3
G1 X99.7 Y94.2
M5
G0 X97.2 Y94.1
M3
G1 X95.5 Y94.2
G1 X97.2 Y94.3
M5
G0 X99.7 Y94.2
M3
G1 X101.2 Y94.3
M5
G0 X101.1 Y94.3
M3
G1 X99.5 Y94.4
M5
G0 X97 Y94.3
M3
G1 X95.2 Y94.4
G1 X96.9 Y94.5
M5
G0 X99.5 Y94.4
M3
G1 X101.1 Y94.5
M5
G0 X100.9 Y94.5
M3
G1 X99.4 Y94.6
M5
G0 X96.7 Y94.5
M3
G1 X94.9 Y94.6
G1 X96.7 Y94.7
M5
G0 X99.4 Y94.6
M3
G1 X100.9 Y94.7
M5
G0 X100.8 Y94.7
M3
G1 X99.2 Y94.8
M5
G0 X96.4 Y94.7
M3
G1 X94.6 Y94.8
M5
G0 X94.5 Y94.8
M3
G1 X96.4 Y94.9
M5
G0 X99.2 Y94.8
M3
G1 X100.8 Y94.9
M5
G0 X100.6 Y94.9
M3
G1 X99 Y95
M5
G0 X96.1 Y94.9
M3
G1 X94.3 Y95
M5
G0 X94.2 Y95
M3
G1 X96.1 Y95.1
M5
G0 X99 Y95
M3
G1 X100.6 Y95.1
M5
G0 X100.4 Y95.1
M3
G1 X98.8 Y95.2
M5
G0 X95.8 Y95.1
M3
G1 X93.9 Y95.2
G1 X95.8 Y95.3
M5
G0 X98.8 Y95.2
M3
G1 X100.5 Y95.3
M5
G0 X100.3 Y95.3
M3
G1 X98.7 Y95.4
M5
G0 X95.5 Y95.3
M3
G1 X93.6 Y95.4
G1 X95.4 Y95.5
M5
G0 X98.7 Y95.4
M3
G1 X100.3 Y95.5
M5
G0 X100.1 Y95.5
M3
G1 X98.5 Y95.6
M5
G0 X95.1 Y95.5
M3
G1 X93.3 Y95.6
M5
G0 X93.2 Y95.6
M3
G1 X95.1 Y95.7
M5
G0 X98.5 Y95.6
M3
G1 X100.1 Y95.7
M5
G0 X99.9 Y95.7
M3
G1 X98.2 Y95.8
M5
G0 X94.8 Y95.7
M3
G1 X93 Y95.8
M5
G0 X92.9 Y95.8
M3
G1 X94.7 Y95.9
M5
G0 X98.2 Y95.8
M3
G1 X99.9 Y95.9
M5
G0 X99.7 Y95.9
M3
G1 X98 Y96
M5
G0 X94.4 Y95.9
M3
G1 X92.6 Y96
G1 X94.4 Y96.1
M5
G0 X98 Y96
M3
G1 X99.7 Y96.1
M5
G0 X99.5 Y96.1
M3
G1 X97.8 Y96.2
M5
G0 X94.1 Y96.1
M3
G1 X92.3 Y96.2
G1 X94 Y96.3
M5
G0 X97.8 Y96.2
M3
G1 X99.5 Y96.3
M5
G0 X99.3 Y96.3
M3
G1 X97.6 Y96.4
M5
G0 X93.8 Y96.3
M3
G1 X92 Y96.4
G1 X93.7 Y96.5
M5
G0 X97.6 Y96.4
M3
G1 X99.3 Y96.5
M5
G0 X99.1 Y96.5
M3
G1 X97.4 Y96.6
M5
G0 X93.4 Y96.5
M3
G1 X91.7 Y96.6
M5
G0 X91.6 Y96.6
M3
G1 X93.3 Y96.7
M5
G0 X97.4 Y96.6
M3
G1 X99.1 Y96.7
M5
G0 X98.9 Y96.7
M3
G1 X97.2 Y96.8
M5
G0 X93 Y96.7
M3
G1 X91.4 Y96.8
M5
G0 X91.3 Y96.8
M3
G1 X93 Y96.9
M5
G0 X97.2 Y96.8
M3
G1 X98.8 Y96.9
M5
G0 X98.6 Y96.9
M3
G1 X97 Y97
M5
G0 X92.7 Y96.9
M3
G1 X91.1 Y97
M5
G0 X91 Y97
M3
G1 X92.7 Y97.1
M5
G0 X97 Y97
M3
G1 X98.6 Y97.1
M5
G0 X98.4 Y97.1
M3
G1 X96.8 Y97.2
M5
G0 X92.4 Y97.1
M3
G1 X90.8 Y97.2
M5
G0 X90.7 Y97.2
M3
G1 X92.4 Y97.3
M5
G0 X96.8 Y97.2
M3
G1 X98.4 Y97.3
M5
G0 X98.2 Y97.3
M3
G1 X96.7 Y97.4
M5
G0 X92.1 Y97.3
M3
G1 X90.5 Y97.4
M5
G0 X90.4 Y97.4
M3
G1 X92 Y97.5
M5
G0 X96.7 Y97.4
M3
G1 X98.2 Y97.5
M5
G0 X98 Y97.5
M3
G1 X96.5 Y97.6
M5
G0 X91.8 Y97.5
M3
G1 X90.2 Y97.6
G1 X91.7 Y97.7
M5
G0 X96.5 Y97.6
M3
G1 X98 Y97.7
M5
G0 X97.8 Y97.7
M3
G1 X96.3 Y97.8
M5
G0 X91.5 Y97.7
M3
G1 X90 Y97.8
G1 X91.5 Y97.9
M5
G0 X96.4 Y97.8
M3
G1 X97.8 Y97.9
M5
G0 X97.6 Y97.9
M3
G1 X96.2 Y98
M5
G0 X91.2 Y97.9
M3
G1 X89.7 Y98
G1 X91.2 Y98.1
M5
G0 X96.2 Y98
M3
G1 X97.6 Y98.1
M5
G0 X99.1 Y98
M3
G1 X100.2 Y98.1
M5
G0 X101 Y98.1
M3
G1 X98.1 Y98.2
M5
G0 X97.4 Y98.1
M3
G1 X96.1 Y98.2
M5
G0 X91 Y98.1
M3
G1 X89.5 Y98.2
G1 X90.9 Y98.3
M5
G0 X96.1 Y98.2
M3
G1 X101.7 Y98.3
M5
G0 X102 Y98.3
M3
G1 X96 Y98.4
M5
G0 X90.7 Y98.3
M3
G1 X89.3 Y98.4
M5
G0 X89.2 Y98.4
M3
G1 X90.7 Y98.5
M5
G0 X96 Y98.4
M3
G1 X102.5 Y98.5
M5
G0 X102.7 Y98.5
M3
G1 X95.9 Y98.6
M5
G0 X90.5 Y98.5
M3
G1 X89 Y98.6
G1 X90.4 Y98.7
M5
G0 X95.9 Y98.6
M3
G1 X103.1 Y98.7
M5
G0 X103.3 Y98.7
M3
G1 X95.8 Y98.8
M5
G0 X90.2 Y98.7
M3
G1 X88.8 Y98.8
G1 X90.2 Y98.9
M5
G0 X95.8 Y98.8
M3
G1 X103.7 Y98.9
M5
G0 X103.8 Y98.9
M3
G1 X95.7 Y99
M5
G0 X90 Y98.9
M3
G1 X88.7 Y99
G1 X90 Y99.1
M5
G0 X95.8 Y99
M3
G1 X104.2 Y99.1
M5
G0 X104.3 Y99.1
M3
G1 X95.7 Y99.2
M5
G0 X89.8 Y99.1
M3
G1 X88.5 Y99.2
G1 X89.9 Y99.3
M5
G0 X95.8 Y99.2
M3
G1 X98.7 Y99.3
M5
G0 X99.1 Y99.2
M3
G1 X104.6 Y99.3
M5
G0 X104.7 Y99.3
M3
G1 X100.1 Y99.4
M5
G0 X97.6 Y99.3
M3
G1 X95.7 Y99.4
M5
G0 X89.7 Y99.3
M3
G1 X88.3 Y99.4
M5
G0 X88.4 Y99.4
M3
G1 X89.7 Y99.5
M5
G0 X95.8 Y99.4
M3
G1 X97.1 Y99.5
M5
G0 X100.2 Y99.4
M3
G1 X105 Y99.5
M5
G0 X108.6 Y99.4
M3
G1 X108.7 Y99.5
M5
G0 X109 Y99.5
M3
G1 X108.1 Y99.6
M5
G0 X105.1 Y99.5
M3
G1 X100 Y99.6
M5
G0 X96.5 Y99.5
M3
G1 X95.8 Y99.6
M5
G0 X89.5 Y99.5
M3
G1 X88.2 Y99.6
G1 X89.5 Y99.7
M5
G0 X100.1 Y99.6
M3
G1 X105.5 Y99.7
M5
G0 X108 Y99.6
M3
G1 X109.3 Y99.7
G1 X107.7 Y99.8
M5
G0 X105.6 Y99.7
M3
G1 X100 Y99.8
M5
G0 X89.3 Y99.7
M3
G1 X88 Y99.8
M5
G0 X88.1 Y99.8
M3
G1 X89.3 Y99.9
M5
G0 X100 Y99.8
M3
G1 X105.9 Y99.9
M5
G0 X107.6 Y99.8
M3
G1 X109.5 Y99.9
M5
G0 X109.4 Y99.9
M3
G1 X107.3 Y100
M5
G0 X106 Y99.9
M3
G1 X99.8 Y100
M5
G0 X89.2 Y99.9
M3
G1 X87.9 Y100
G1 X89.2 Y100.1
M5
G0 X99.9 Y100
M3
G1 X106.6 Y100.1
M5
G0 X107 Y100
M3
G1 X109.6 Y100.1
M5
G0 X109.5 Y100.1
M3
G1 X99.7 Y100.2
M5
G0 X96.2 Y100.1
M3
G1 X95.8 Y100.2
M5
G0 X89.1 Y100.1
M3
G1 X87.8 Y100.2
G1 X89.1 Y100.3
M5
G0 X95.8 Y100.2
M3
G1 X96.4 Y100.3
M5
G0 X99.8 Y100.2
M3
G1 X109.8 Y100.3
M5
G0 X110 Y100.3
M3
G1 X99.7 Y100.4
M5
G0 X96.3 Y100.3
M3
G1 X95.6 Y100.4
M5
G0 X89 Y100.3
M3
G1 X87.7 Y100.4
G1 X89 Y100.5
M5
G0 X95.6 Y100.4
M3
G1 X96.4 Y100.5
M5
G0 X99.7 Y100.4
M3
G1 X110.3 Y100.5
M5
G0 X110.2 Y100.5
M3
G1 X99.5 Y100.6
M5
G0 X96.4 Y100.5
M3
G1 X95.1 Y100.6
M5
G0 X88.9 Y100.5
M3
G1 X87.6 Y100.6
G1 X88.9 Y100.7
M5
G0 X95 Y100.6
M3
G1 X96.4 Y100.7
M5
G0 X99.5 Y100.6
M3
G1 X110.4 Y100.7
G1 X99.4 Y100.8
M5
G0 X96.3 Y100.7
M3
G1 X94.8 Y100.8
M5
G0 X88.8 Y100.7
M3
G1 X87.5 Y100.8
G1 X88.9 Y100.9
M5
G0 X94.8 Y100.8
M3
G1 X96.4 Y100.9
M5
G0 X99.5 Y100.8
M3
G1 X110.5 Y100.9
M5
G0 X111.7 Y100.9
M3
G1 X110.9 Y101
M5
G0 X110.5 Y100.9
M3
G1 X99.3 Y101
M5
G0 X96.2 Y100.9
M3
G1 X94.7 Y101
M5
G0 X88.7 Y100.9
M3
G1 X87.4 Y101
M5
G0 X87.5 Y101
M3
G1 X88.8 Y101.1
M5
G0 X94.7 Y101
M3
G1 X96.2 Y101.1
M5
G0 X99.4 Y101
M3
G1 X112.2 Y101.1
M5
G0 X112.3 Y101.1
M3
G1 X99.3 Y101.2
M5
G0 X95.9 Y101.1
M3
G1 X94.5 Y101.2
M5
G0 X88.7 Y101.1
M3
G1 X87.3 Y101.2
M5
G0 X87.4 Y101.2
M3
G1 X88.7 Y101.3
M5
G0 X93.6 Y101.2
M3
G1 X95.6 Y101.3
M5
G0 X99.3 Y101.2
M3
G1 X112.5 Y101.3
G1 X99.2 Y101.4
M5
G0 X95.4 Y101.3
M3
G1 X93.3 Y101.4
M5
G0 X89.6 Y101.3
M3
G1 X89.2 Y101.4
M5
G0 X88.6 Y101.3
M3
G1 X87.3 Y101.4
M5
G0 X87.4 Y101.4
M3
