This is an example about how to output file.
; G-code for laser engraving
; Generated by lotmax
2019-11-28 13:44:49

G90
G21
G28 XY
; G-code START <<<
G0 F2500
M2 5
G1 F500
M5

; G-code END <<<
G0 F2500
M2 5
G1 F500
G0 X187 Y-16
M3
G1 X189 Y-15
M5
G0 X191 Y-15
M3
G1 X181 Y-14
M5
G0 X179 Y-14
M3
G1 X193 Y-13
G1 X176 Y-12
G1 X194 Y-11
M5
G0 X242 Y-12
M3
G1 X246 Y-11
G1 X240 Y-10
M5
G0 X193 Y-11
M3
G1 X174 Y-10
G1 X193 Y-9
M5
G0 X240 Y-10
M3
G1 X248 Y-9
M5
G0 X247 Y-9
M3
G1 X239 Y-8
M5
G0 X191 Y-9
M3
G1 X172 Y-8
M5
G0 X173 Y-8
M3
G1 X186 Y-7
M5
G0 X240 Y-8
M3
G1 X248 Y-7
G1 X239 Y-6
M5
G0 X182 Y-7
M3
G1 X171 Y-6
M5
G0 X172 Y-6
M3
G1 X183 Y-5
M5
G0 X239 Y-6
M3
G1 X249 Y-5
M5
G0 X248 Y-5
M3
G1 X238 Y-4
M5
G0 X190 Y-5
M3
G1 X171 Y-4
M5
G0 X165 Y-5
M3
G1 X160 Y-4
M5
G0 X157 Y-4
M3
G1 X169 Y-3
M5
G0 X172 Y-4
M3
G1 X194 Y-3
M5
G0 X239 Y-4
M3
G1 X249 Y-3
G1 X238 Y-2
M5
G0 X194 Y-3
M3
G1 X154 Y-2
G1 X196 Y-1
M5
G0 X239 Y-2
M3
G1 X250 Y-1
M5
G0 X249 Y-1
M3
G1 X237 Y0
M5
G0 X196 Y-1
M3
G1 X152 Y0
G1 X197 Y1
M5
G0 X238 Y0
M3
G1 X250 Y1
M5
G0 X249 Y1
M3
G1 X237 Y2
M5
G0 X197 Y1
M3
G1 X150 Y2
G1 X198 Y3
M5
G0 X238 Y2
M3
G1 X251 Y3
M5
G0 X250 Y3
M3
G1 X237 Y4
M5
G0 X197 Y3
M3
G1 X187 Y4
M5
G0 X175 Y3
M3
G1 X149 Y4
M5
G0 X142 Y4
M3
G1 X144 Y5
M5
G0 X149 Y4
M3
G1 X160 Y5
M5
G0 X164 Y4
M3
G1 X176 Y5
M5
G0 X188 Y4
M3
G1 X198 Y5
M5
G0 X238 Y4
M3
G1 X251 Y5
G1 X237 Y6
M5
G0 X197 Y5
M3
G1 X181 Y6
M5
G0 X175 Y5
M3
G1 X162 Y6
M5
G0 X158 Y5
M3
G1 X148 Y6
M5
G0 X145 Y5
M3
G1 X139 Y6
M5
G0 X140 Y6
M3
G1 X146 Y7
M5
G0 X148 Y6
M3
G1 X158 Y7
M5
G0 X162 Y6
M3
G1 X175 Y7
M5
G0 X180 Y6
M3
G1 X197 Y7
M5
G0 X238 Y6
M3
G1 X252 Y7
G1 X237 Y8
M5
G0 X196 Y7
M3
G1 X179 Y8
M5
G0 X174 Y7
M3
G1 X159 Y8
M5
G0 X157 Y7
M3
G1 X147 Y8
M5
G0 X146 Y7
M3
G1 X138 Y8
M5
G0 X139 Y8
M3
G1 X147 Y9
M5
G0 X148 Y8
M3
G1 X174 Y9
M5
G0 X179 Y8
M3
G1 X196 Y9
M5
G0 X238 Y8
M3
G1 X253 Y9
M5
G0 X271 Y9
M3
G1 X268 Y10
M5
G0 X252 Y9
M3
G1 X237 Y10
M5
G0 X194 Y9
M3
G1 X178 Y10
M5
G0 X172 Y9
M3
G1 X147 Y10
M5
G0 X146 Y9
M3
G1 X138 Y10
M5
G0 X139 Y10
M3
G1 X147 Y11
M5
G0 X148 Y10
M3
G1 X172 Y11
M5
G0 X180 Y10
M3
G1 X194 Y11
M5
G0 X237 Y10
M3
G1 X254 Y11
M5
G0 X268 Y10
M3
G1 X274 Y11
M5
G0 X273 Y11
M3
G1 X266 Y12
M5
G0 X253 Y11
M3
G1 X236 Y12
M5
G0 X192 Y11
M3
G1 X179 Y12
M5
G0 X172 Y11
M3
G1 X147 Y12
M5
G0 X146 Y11
M3
G1 X138 Y12
M5
G0 X139 Y12
M3
G1 X147 Y13
M5
G0 X148 Y12
M3
G1 X174 Y13
M5
G0 X182 Y12
M3
G1 X191 Y13
M5
G0 X237 Y12
M3
G1 X255 Y13
M5
G0 X266 Y12
M3
G1 X275 Y13
M5
G0 X274 Y13
M3
G1 X264 Y14
M5
G0 X254 Y13
M3
G1 X236 Y14
M5
G0 X174 Y13
M3
G1 X148 Y14
M5
G0 X146 Y13
M3
G1 X137 Y14
M5
G0 X121 Y14
M3
G1 X126 Y15
M5
G0 X138 Y14
M3
G1 X147 Y15
M5
G0 X149 Y14
M3
G1 X176 Y15
M5
G0 X237 Y14
M3
G1 X255 Y15
M5
G0 X264 Y14
M3
G1 X275 Y15
M5
G0 X273 Y15
M3
G1 X262 Y16
M5
G0 X255 Y15
M3
G1 X236 Y16
M5
G0 X175 Y15
M3
G1 X149 Y16
M5
G0 X146 Y15
M3
G1 X137 Y16
M5
G0 X127 Y15
M3
G1 X119 Y16
M5
G0 X120 Y16
M3
G1 X129 Y17
M5
G0 X138 Y16
M3
G1 X147 Y17
M5
G0 X150 Y16
M3
G1 X176 Y17
M5
G0 X228 Y16
M3
G1 X230 Y17
M5
G0 X237 Y16
M3
G1 X246 Y17
M5
G0 X247 Y16
M3
G1 X256 Y17
M5
G0 X263 Y16
M3
G1 X274 Y17
M5
G0 X273 Y17
M3
G1 X261 Y18
M5
G0 X256 Y17
M3
G1 X246 Y18
M5
G0 X245 Y17
M3
G1 X236 Y18
M5
G0 X231 Y17
M3
G1 X225 Y18
M5
G0 X174 Y17
M3
G1 X149 Y18
M5
G0 X145 Y17
M3
G1 X137 Y18
M5
G0 X130 Y17
M3
G1 X119 Y18
M5
G0 X120 Y18
M3
G1 X132 Y19
M5
G0 X138 Y18
M3
G1 X146 Y19
M5
G0 X151 Y18
M3
G1 X174 Y19
M5
G0 X225 Y18
M3
G1 X233 Y19
M5
G0 X237 Y18
M3
G1 X246 Y19
M5
G0 X248 Y18
M3
G1 X257 Y19
M5
G0 X261 Y18
M3
G1 X274 Y19
M5
G0 X272 Y19
M3
G1 X259 Y20
M5
G0 X257 Y19
M3
G1 X247 Y20
M5
G0 X244 Y19
M3
G1 X236 Y20
M5
G0 X233 Y19
M3
G1 X224 Y20
M5
G0 X172 Y19
M3
G1 X151 Y20
M5
G0 X145 Y19
M3
G1 X137 Y20
M5
G0 X132 Y19
M3
G1 X119 Y20
M5
G0 X121 Y20
M3
G1 X135 Y21
M5
G0 X138 Y20
M3
G1 X146 Y21
M5
G0 X153 Y20
M3
G1 X172 Y21
M5
G0 X225 Y20
M3
G1 X245 Y21
M5
G0 X249 Y20
M3
G1 X273 Y21
M5
G0 X272 Y21
M3
G1 X248 Y22
M5
G0 X244 Y21
M3
G1 X224 Y22
M5
G0 X169 Y21
M3
G1 X153 Y22
M5
G0 X145 Y21
M3
G1 X121 Y22
M5
G0 X124 Y22
M3
G1 X146 Y23
M5
G0 X156 Y22
M3
G1 X168 Y23
M5
G0 X225 Y22
M3
G1 X245 Y23
M5
G0 X250 Y22
M3
G1 X272 Y23
M5
G0 X271 Y23
M3
G1 X249 Y24
M5
G0 X244 Y23
M3
G1 X224 Y24
M5
G0 X164 Y23
M3
G1 X157 Y24
M5
G0 X145 Y23
M3
G1 X124 Y24
M5
G0 X126 Y24
M3
G1 X146 Y25
M5
G0 X225 Y24
M3
G1 X245 Y25
M5
G0 X251 Y24
M3
G1 X272 Y25
M5
G0 X271 Y25
M3
G1 X250 Y26
M5
G0 X244 Y25
M3
G1 X224 Y26
M5
G0 X145 Y25
M3
G1 X127 Y26
M5
G0 X129 Y26
M3
G1 X146 Y27
M5
G0 X225 Y26
M3
G1 X245 Y27
M5
G0 X252 Y26
M3
G1 X272 Y27
M5
G0 X270 Y27
M3
G1 X251 Y28
M5
G0 X244 Y27
M3
G1 X224 Y28
M5
G0 X145 Y27
M3
G1 X130 Y28
M5
G0 X132 Y28
M3
G1 X145 Y29
M5
G0 X225 Y28
M3
G1 X245 Y29
M5
G0 X252 Y28
M3
G1 X271 Y29
M5
G0 X306 Y28
M3
G1 X330 Y29
M5
G0 X333 Y29
M3
G1 X301 Y30
M5
G0 X270 Y29
M3
G1 X252 Y30
M5
G0 X244 Y29
M3
G1 X224 Y30
M5
G0 X144 Y29
M3
G1 X133 Y30
M5
G0 X135 Y30
M3
G1 X145 Y31
M5
G0 X175 Y30
M3
G1 X197 Y31
M5
G0 X226 Y30
M3
G1 X245 Y31
M5
G0 X253 Y30
M3
G1 X271 Y31
M5
G0 X299 Y30
M3
G1 X337 Y31
M5
G0 X338 Y31
M3
G1 X295 Y32
M5
G0 X270 Y31
M3
G1 X261 Y32
M5
G0 X260 Y31
M3
G1 X253 Y32
M5
G0 X243 Y31
M3
G1 X225 Y32
M5
G0 X200 Y31
M3
G1 X170 Y32
M5
G0 X144 Y31
M3
G1 X135 Y32
M5
G0 X136 Y32
M3
G1 X145 Y33
M5
G0 X168 Y32
M3
G1 X204 Y33
M5
G0 X226 Y32
M3
G1 X244 Y33
M5
G0 X255 Y32
M3
G1 X259 Y33
M5
G0 X263 Y32
M3
G1 X270 Y33
M5
G0 X294 Y32
M3
G1 X341 Y33
M5
G0 X342 Y33
M3
G1 X291 Y34
M5
G0 X269 Y33
M3
G1 X262 Y34
M5
G0 X242 Y33
M3
G1 X225 Y34
M5
G0 X205 Y33
M3
G1 X165 Y34
M5
G0 X144 Y33
M3
G1 X135 Y34
M5
G0 X136 Y34
M3
G1 X145 Y35
M5
G0 X164 Y34
M3
G1 X209 Y35
M5
G0 X226 Y34
M3
G1 X235 Y35
M5
G0 X237 Y34
M3
G1 X243 Y35
M5
G0 X263 Y34
M3
G1 X269 Y35
M5
G0 X290 Y34
M3
G1 X345 Y35
M5
G0 X346 Y35
M3
G1 X288 Y36
M5
G0 X267 Y35
M3
G1 X263 Y36
M5
G0 X234 Y35
M3
G1 X225 Y36
M5
G0 X210 Y35
M3
G1 X161 Y36
M5
G0 X143 Y35
M3
G1 X135 Y36
M5
G0 X136 Y36
M3
G1 X144 Y37
M5
G0 X160 Y36
M3
G1 X212 Y37
M5
G0 X226 Y36
M3
G1 X235 Y37
M5
G0 X287 Y36
M3
G1 X348 Y37
M5
G0 X349 Y37
M3
G1 X324 Y38
M5
G0 X310 Y37
M3
G1 X285 Y38
M5
G0 X234 Y37
M3
G1 X225 Y38
M5
G0 X213 Y37
M3
G1 X157 Y38
M5
G0 X143 Y37
M3
G1 X135 Y38
M5
G0 X136 Y38
M3
G1 X144 Y39
M5
G0 X157 Y38
M3
G1 X215 Y39
M5
G0 X227 Y38
M3
G1 X235 Y39
M5
G0 X284 Y38
M3
G1 X306 Y39
M5
G0 X329 Y38
M3
G1 X351 Y39
G1 X331 Y40
M5
G0 X302 Y39
M3
G1 X282 Y40
M5
G0 X233 Y39
M3
G1 X226 Y40
M5
G0 X216 Y39
M3
G1 X193 Y40
M5
G0 X177 Y39
M3
G1 X154 Y40
M5
G0 X143 Y39
M3
G1 X135 Y40
M5
G0 X136 Y40
M3
G1 X144 Y41
M5
G0 X154 Y40
M3
G1 X174 Y41
M5
G0 X198 Y40
M3
G1 X218 Y41
M5
G0 X228 Y40
M3
G1 X234 Y41
M5
G0 X282 Y40
M3
G1 X301 Y41
M5
G0 X335 Y40
M3
G1 X353 Y41
M5
G0 X354 Y41
M3
G1 X336 Y42
M5
G0 X297 Y41
M3
G1 X280 Y42
M5
G0 X231 Y41
M3
G1 X228 Y42
M5
G0 X218 Y41
M3
G1 X199 Y42
M5
G0 X171 Y41
M3
G1 X152 Y42
M5
G0 X143 Y41
M3
G1 X135 Y42
M5
G0 X136 Y42
M3
G1 X143 Y43
M5
G0 X152 Y42
M3
G1 X169 Y43
M5
G0 X203 Y42
M3
G1 X220 Y43
M5
G0 X280 Y42
M3
G1 X297 Y43
M5
G0 X339 Y42
M3
G1 X356 Y43
G1 X340 Y44
M5
G0 X294 Y43
M3
G1 X278 Y44
M5
G0 X220 Y43
M3
G1 X204 Y44
M5
G0 X166 Y43
M3
G1 X150 Y44
M5
G0 X142 Y43
M3
G1 X135 Y44
M5
G0 X136 Y44
M3
G1 X142 Y45
M5
G0 X150 Y44
M3
G1 X165 Y45
M5
G0 X207 Y44
M3
G1 X222 Y45
M5
G0 X278 Y44
M3
G1 X293 Y45
M5
G0 X342 Y44
M3
G1 X357 Y45
G1 X343 Y46
M5
G0 X291 Y45
M3
G1 X276 Y46
M5
G0 X222 Y45
M3
G1 X207 Y46
M5
G0 X163 Y45
M3
G1 X148 Y46
M5
G0 X140 Y45
M3
G1 X136 Y46
M5
G0 X148 Y46
M3
G1 X162 Y47
M5
G0 X210 Y46
M3
G1 X224 Y47
M5
G0 X276 Y46
M3
G1 X290 Y47
M5
G0 X345 Y46
M3
G1 X359 Y47
G1 X345 Y48
M5
G0 X288 Y47
M3
G1 X274 Y48
M5
G0 X224 Y47
M3
G1 X210 Y48
M5
G0 X160 Y47
M3
G1 X146 Y48
G1 X160 Y49
M5
G0 X213 Y48
M3
G1 X226 Y49
M5
G0 X274 Y48
M3
G1 X288 Y49
M5
G0 X348 Y48
M3
G1 X361 Y49
G1 X348 Y50
M5
G0 X286 Y49
M3
G1 X273 Y50
M5
G0 X225 Y49
M3
G1 X213 Y50
M5
G0 X157 Y49
M3
G1 X144 Y50
M5
G0 X145 Y50
M3
G1 X157 Y51
M5
G0 X215 Y50
M3
G1 X227 Y51
M5
G0 X273 Y50
M3
G1 X286 Y51
M5
G0 X350 Y50
M3
G1 X363 Y51
M5
G0 X362 Y51
M3
G1 X350 Y52
M5
G0 X284 Y51
M3
G1 X271 Y52
M5
G0 X227 Y51
M3
G1 X215 Y52
M5
G0 X155 Y51
M3
G1 X143 Y52
G1 X155 Y53
M5
G0 X217 Y52
M3
G1 X229 Y53
M5
G0 X272 Y52
M3
G1 X284 Y53
M5
G0 X351 Y52
M3
G1 X364 Y53
M5
G0 X363 Y53
M3
G1 X351 Y54
M5
G0 X282 Y53
M3
G1 X270 Y54
M5
G0 X228 Y53
M3
G1 X217 Y54
M5
G0 X153 Y53
M3
G1 X142 Y54
G1 X154 Y55
M5
G0 X218 Y54
M3
G1 X230 Y55
M5
G0 X271 Y54
M3
G1 X282 Y55
M5
G0 X353 Y54
M3
G1 X365 Y55
G1 X353 Y56
M5
G0 X281 Y55
M3
G1 X269 Y56
M5
G0 X229 Y55
M3
G1 X218 Y56
M5
G0 X152 Y55
M3
G1 X141 Y56
G1 X152 Y57
M5
G0 X217 Y56
M3
G1 X231 Y57
M5
G0 X269 Y56
M3
G1 X281 Y57
M5
G0 X354 Y56
M3
G1 X366 Y57
G1 X354 Y58
M5
G0 X279 Y57
M3
G1 X268 Y58
M5
G0 X230 Y57
M3
G1 X202 Y58
M5
G0 X183 Y57
M3
G1 X161 Y58
M5
G0 X151 Y57
M3
G1 X140 Y58
G1 X151 Y59
M5
G0 X160 Y58
M3
G1 X187 Y59
M5
G0 X200 Y58
M3
G1 X232 Y59
M5
G0 X268 Y58
M3
G1 X280 Y59
M5
G0 X356 Y58
M3
G1 X367 Y59
G1 X355 Y60
M5
G0 X278 Y59
M3
G1 X267 Y60
M5
G0 X231 Y59
M3
G1 X197 Y60
M5
G0 X187 Y59
M3
G1 X157 Y60
M5
G0 X149 Y59
M3
G1 X139 Y60
G1 X150 Y61
M5
G0 X157 Y60
M3
G1 X190 Y61
M5
G0 X197 Y60
M3
G1 X233 Y61
M5
G0 X268 Y60
M3
G1 X279 Y61
M5
G0 X357 Y60
M3
G1 X368 Y61
M5
G0 X367 Y61
M3
G1 X356 Y62
M5
G0 X277 Y61
M3
G1 X266 Y62
M5
G0 X232 Y61
M3
G1 X195 Y62
M5
G0 X190 Y61
M3
G1 X155 Y62
M5
G0 X148 Y61
M3
G1 X138 Y62
G1 X149 Y63
M5
G0 X155 Y62
M3
G1 X192 Y63
M5
G0 X195 Y62
M3
G1 X234 Y63
M5
G0 X267 Y62
M3
G1 X277 Y63
M5
G0 X358 Y62
M3
G1 X369 Y63
M5
G0 X368 Y63
M3
G1 X357 Y64
M5
G0 X276 Y63
M3
G1 X265 Y64
M5
G0 X233 Y63
M3
G1 X194 Y64
M5
G0 X192 Y63
M3
G1 X153 Y64
M5
G0 X147 Y63
M3
G1 X137 Y64
M5
G0 X138 Y64
M3
G1 X148 Y65
M5
G0 X154 Y64
M3
G1 X234 Y65
M5
G0 X266 Y64
M3
G1 X276 Y65
M5
G0 X359 Y64
M3
G1 X369 Y65
G1 X358 Y66
M5
G0 X275 Y65
M3
G1 X265 Y66
M5
G0 X234 Y65
M3
G1 X152 Y66
M5
G0 X147 Y65
M3
G1 X137 Y66
G1 X147 Y67
M5
G0 X153 Y66
M3
G1 X235 Y67
M5
G0 X266 Y66
M3
G1 X276 Y67
M5
G0 X360 Y66
M3
G1 X370 Y67
M5
G0 X369 Y67
M3
G1 X359 Y68
M5
G0 X274 Y67
M3
G1 X264 Y68
M5
G0 X234 Y67
M3
G1 X152 Y68
M5
G0 X146 Y67
M3
G1 X136 Y68
M5
G0 X137 Y68
M3
G1 X147 Y69
M5
G0 X154 Y68
M3
G1 X235 Y69
M5
G0 X265 Y68
M3
G1 X275 Y69
M5
G0 X360 Y68
M3
G1 X370 Y69
G1 X359 Y70
M5
G0 X274 Y69
M3
G1 X264 Y70
M5
G0 X235 Y69
M3
G1 X194 Y70
M5
G0 X192 Y69
M3
G1 X153 Y70
M5
G0 X145 Y69
M3
G1 X136 Y70
G1 X146 Y71
M5
G0 X155 Y70
M3
G1 X192 Y71
M5
G0 X196 Y70
M3
G1 X236 Y71
M5
G0 X265 Y70
M3
G1 X274 Y71
M5
G0 X361 Y70
M3
G1 X371 Y71
M5
G0 X370 Y71
M3
G1 X360 Y72
M5
G0 X273 Y71
M3
G1 X264 Y72
M5
G0 X235 Y71
M3
G1 X196 Y72
M5
G0 X190 Y71
M3
G1 X155 Y72
M5
G0 X145 Y71
M3
G1 X135 Y72
M5
G0 X136 Y72
M3
G1 X146 Y73
M5
G0 X157 Y72
M3
G1 X190 Y73
M5
G0 X198 Y72
M3
G1 X236 Y73
M5
G0 X264 Y72
M3
G1 X274 Y73
M5
G0 X361 Y72
M3
G1 X371 Y73
M5
G0 X370 Y73
M3
G1 X360 Y74
M5
G0 X273 Y73
M3
G1 X263 Y74
M5
G0 X235 Y73
M3
G1 X198 Y74
M5
G0 X187 Y73
M3
G1 X157 Y74
M5
G0 X144 Y73
M3
G1 X135 Y74
M5
G0 X136 Y74
M3
G1 X145 Y75
M5
G0 X161 Y74
M3
G1 X186 Y75
M5
G0 X201 Y74
M3
G1 X236 Y75
M5
G0 X264 Y74
M3
G1 X273 Y75
M5
G0 X362 Y74
M3
G1 X371 Y75
M5
G0 X370 Y75
M3
G1 X361 Y76
M5
G0 X272 Y75
M3
G1 X263 Y76
M5
G0 X235 Y75
M3
G1 X225 Y76
M5
G0 X209 Y75
M3
G1 X206 Y76
M5
G0 X144 Y75
M3
G1 X135 Y76
M5
G0 X136 Y76
M3
G1 X145 Y77
M5
G0 X227 Y76
M3
G1 X236 Y77
M5
G0 X264 Y76
M3
G1 X273 Y77
M5
G0 X362 Y76
M3
G1 X372 Y77
M5
G0 X371 Y77
M3
G1 X361 Y78
M5
G0 X272 Y77
M3
G1 X263 Y78
M5
G0 X235 Y77
M3
G1 X226 Y78
M5
G0 X144 Y77
M3
G1 X135 Y78
M5
G0 X136 Y78
M3
G1 X145 Y79
M5
G0 X227 Y78
M3
G1 X236 Y79
M5
G0 X264 Y78
M3
G1 X273 Y79
M5
G0 X362 Y78
M3
G1 X372 Y79
M5
G0 X371 Y79
M3
G1 X361 Y80
M5
G0 X272 Y79
M3
G1 X263 Y80
M5
G0 X235 Y79
M3
G1 X226 Y80
M5
G0 X144 Y79
M3
G1 X135 Y80
M5
G0 X136 Y80
M3
G1 X145 Y81
M5
G0 X227 Y80
M3
G1 X236 Y81
M5
G0 X264 Y80
M3
G1 X273 Y81
M5
G0 X362 Y80
M3
G1 X372 Y81
M5
G0 X371 Y81
M3
G1 X361 Y82
M5
G0 X272 Y81
M3
G1 X263 Y82
M5
G0 X235 Y81
M3
G1 X226 Y82
M5
G0 X144 Y81
M3
G1 X135 Y82
M5
G0 X136 Y82
M3
G1 X145 Y83
M5
G0 X227 Y82
M3
G1 X236 Y83
M5
G0 X264 Y82
M3
G1 X273 Y83
M5
G0 X362 Y82
M3
G1 X372 Y83
M5
G0 X371 Y83
M3
G1 X361 Y84
M5
G0 X272 Y83
M3
G1 X263 Y84
M5
G0 X235 Y83
M3
G1 X226 Y84
M5
G0 X144 Y83
M3
G1 X135 Y84
M5
G0 X136 Y84
M3
G1 X145 Y85
M5
G0 X227 Y84
M3
G1 X236 Y85
M5
G0 X264 Y84
M3
G1 X273 Y85
M5
G0 X362 Y84
M3
G1 X372 Y85
M5
G0 X370 Y85
M3
G1 X361 Y86
M5
G0 X272 Y85
M3
G1 X263 Y86
M5
G0 X235 Y85
M3
G1 X226 Y86
M5
G0 X144 Y85
M3
G1 X135 Y86
M5
G0 X136 Y86
M3
G1 X146 Y87
M5
G0 X179 Y86
M3
G1 X205 Y87
M5
G0 X226 Y86
M3
G1 X236 Y87
M5
G0 X264 Y86
M3
G1 X273 Y87
M5
G0 X362 Y86
M3
G1 X371 Y87
M5
G0 X370 Y87
M3
G1 X361 Y88
M5
G0 X273 Y87
M3
G1 X263 Y88
M5
G0 X235 Y87
M3
G1 X225 Y88
M5
G0 X207 Y87
M3
G1 X172 Y88
M5
G0 X145 Y87
M3
G1 X135 Y88
M5
G0 X136 Y88
M3
G1 X146 Y89
M5
G0 X171 Y88
M3
G1 X209 Y89
M5
G0 X226 Y88
M3
G1 X236 Y89
M5
G0 X264 Y88
M3
G1 X274 Y89
M5
G0 X361 Y88
M3
G1 X371 Y89
M5
G0 X370 Y89
M3
G1 X360 Y90
M5
G0 X273 Y89
M3
G1 X263 Y90
M5
G0 X234 Y89
M3
G1 X225 Y90
M5
G0 X209 Y89
M3
G1 X169 Y90
M5
G0 X145 Y89
M3
G1 X136 Y90
M5
G0 X137 Y90
M3
G1 X147 Y91
M5
G0 X170 Y90
M3
G1 X210 Y91
M5
G0 X225 Y90
M3
G1 X235 Y91
M5
G0 X265 Y90
M3
G1 X274 Y91
M5
G0 X361 Y90
M3
G1 X371 Y91
M5
G0 X370 Y91
M3
G1 X360 Y92
M5
G0 X274 Y91
M3
G1 X264 Y92
M5
G0 X253 Y91
M3
G1 X245 Y92
M5
G0 X234 Y91
M3
G1 X224 Y92
M5
G0 X209 Y91
M3
G1 X169 Y92
M5
G0 X146 Y91
M3
G1 X136 Y92
M5
G0 X137 Y92
M3
G1 X147 Y93
M5
G0 X170 Y92
M3
G1 X211 Y93
M5
G0 X225 Y92
M3
G1 X235 Y93
M5
G0 X243 Y92
M3
G1 X257 Y93
M5
G0 X265 Y92
M3
G1 X275 Y93
M5
G0 X360 Y92
M3
G1 X371 Y93
M5
G0 X369 Y93
M3
G1 X359 Y94
M5
G0 X274 Y93
M3
G1 X264 Y94
M5
G0 X258 Y93
M3
G1 X240 Y94
M5
G0 X234 Y93
M3
G1 X223 Y94
M5
G0 X210 Y93
M3
G1 X169 Y94
M5
G0 X147 Y93
M3
G1 X137 Y94
M5
G0 X138 Y94
M3
G1 X148 Y95
M5
G0 X170 Y94
M3
G1 X211 Y95
M5
G0 X224 Y94
M3
G1 X234 Y95
M5
G0 X239 Y94
M3
G1 X260 Y95
M5
G0 X266 Y94
M3
G1 X276 Y95
M5
G0 X360 Y94
M3
G1 X370 Y95
M5
G0 X369 Y95
M3
G1 X358 Y96
M5
G0 X275 Y95
M3
G1 X265 Y96
M5
G0 X260 Y95
M3
G1 X236 Y96
M5
G0 X233 Y95
M3
G1 X223 Y96
M5
G0 X209 Y95
M3
G1 X169 Y96
M5
G0 X147 Y95
M3
G1 X137 Y96
M5
G0 X139 Y96
M3
G1 X149 Y97
M5
G0 X170 Y96
M3
G1 X181 Y97
M5
G0 X200 Y96
M3
G1 X210 Y97
M5
G0 X223 Y96
M3
G1 X234 Y97
M5
G0 X235 Y96
M3
G1 X262 Y97
M5
G0 X266 Y96
M3
G1 X276 Y97
M5
G0 X359 Y96
M3
G1 X370 Y97
M5
G0 X368 Y97
M3
