This is an example about how to output file.
; G-code for laser engraving
; Generated by lotmax
2020-01-16 18:42:30

G90
G21
G28 XY
; G-code START <<<
G0 F50
M2 500
G1 F50
G0 X90.75 Y42.125
M3
G1 X88.875 Y42.125
M5
G0 X91.75 Y42.375
M3
G1 X88.375 Y42.375
M5
G0 X92.25 Y42.625
M3
G1 X88.25 Y42.625
M5
G0 X92.75 Y42.875
M3
G1 X88.25 Y42.875
M5
G0 X93.25 Y43.125
M3
G1 X88.375 Y43.125
M5
G0 X71.75 Y43.125
M3
G1 X70.75 Y43.125
M5
G0 X93.5 Y43.375
M3
G1 X88.625 Y43.375
M5
G0 X72 Y43.375
M3
G1 X70.5 Y43.375
M5
G0 X93.75 Y43.625
M3
G1 X90.875 Y43.625
M5
G0 X72.125 Y43.625
M3
G1 X70.375 Y43.625
M5
G0 X93.875 Y43.875
M3
G1 X91.375 Y43.875
M5
G0 X72.125 Y43.875
M3
G1 X70.375 Y43.875
M5
G0 X94 Y44.125
M3
G1 X91.875 Y44.125
M5
G0 X72.125 Y44.125
M3
G1 X70.25 Y44.125
M5
G0 X94.125 Y44.375
M3
G1 X92.125 Y44.375
M5
G0 X72.25 Y44.375
M3
G1 X70.25 Y44.375
M5
G0 X94.25 Y44.625
M3
G1 X92.375 Y44.625
M5
G0 X72.25 Y44.625
M3
G1 X70.25 Y44.625
M5
G0 X94.25 Y44.875
M3
G1 X92.5 Y44.875
M5
G0 X72.25 Y44.875
M3
G1 X70.125 Y44.875
M5
G0 X94.25 Y45.125
M3
G1 X92.375 Y45.125
M5
G0 X72.375 Y45.125
M3
G1 X70.125 Y45.125
M5
G0 X94.25 Y45.375
M3
G1 X92 Y45.375
M5
G0 X72.375 Y45.375
M3
G1 X70 Y45.375
M5
G0 X98.625 Y45.625
M3
G1 X96.625 Y45.625
M5
G0 X94.25 Y45.625
M3
G1 X88.625 Y45.625
M5
G0 X72.375 Y45.625
M3
G1 X70 Y45.625
M5
G0 X99.375 Y45.875
M3
G1 X96 Y45.875
M5
G0 X94.125 Y45.875
M3
G1 X87.875 Y45.875
M5
G0 X72.5 Y45.875
M3
G1 X70 Y45.875
M5
G0 X100 Y46.125
M3
G1 X95.625 Y46.125
M5
G0 X94 Y46.125
M3
G1 X87.5 Y46.125
M5
G0 X72.5 Y46.125
M3
G1 X69.875 Y46.125
M5
G0 X100.25 Y46.375
M3
G1 X95.375 Y46.375
M5
G0 X93.75 Y46.375
M3
G1 X87.25 Y46.375
M5
G0 X72.5 Y46.375
M3
G1 X69.875 Y46.375
M5
G0 X100.625 Y46.625
M3
G1 X95.125 Y46.625
M5
G0 X93.5 Y46.625
M3
G1 X87.125 Y46.625
M5
G0 X72.5 Y46.625
M3
G1 X69.75 Y46.625
M5
G0 X100.875 Y46.875
M3
G1 X94.875 Y46.875
M5
G0 X93.125 Y46.875
M3
G1 X87 Y46.875
M5
G0 X72.625 Y46.875
M3
G1 X69.75 Y46.875
M5
G0 X101.125 Y47.125
M3
G1 X94.625 Y47.125
M5
G0 X89.375 Y47.125
M3
G1 X86.875 Y47.125
M5
G0 X72.625 Y47.125
M3
G1 X69.625 Y47.125
M5
G0 X101.25 Y47.375
M3
G1 X98.75 Y47.375
M5
G0 X96.875 Y47.375
M3
G1 X94.375 Y47.375
M5
G0 X88.875 Y47.375
M3
G1 X86.875 Y47.375
M5
G0 X72.625 Y47.375
M3
G1 X69.625 Y47.375
M5
G0 X101.5 Y47.625
M3
G1 X99.25 Y47.625
M5
G0 X96.5 Y47.625
M3
G1 X94.25 Y47.625
M5
G0 X88.75 Y47.625
M3
G1 X86.875 Y47.625
M5
G0 X72.625 Y47.625
M3
G1 X69.5 Y47.625
M5
G0 X101.625 Y47.875
M3
G1 X99.625 Y47.875
M5
G0 X96.375 Y47.875
M3
G1 X94.125 Y47.875
M5
G0 X88.75 Y47.875
M3
G1 X86.875 Y47.875
M5
G0 X72.625 Y47.875
M3
G1 X69.5 Y47.875
M5
G0 X101.75 Y48.125
M3
G1 X99.875 Y48.125
M5
G0 X96.375 Y48.125
M3
G1 X94.125 Y48.125
M5
G0 X88.75 Y48.125
M3
G1 X86.875 Y48.125
M5
G0 X72.75 Y48.125
M3
G1 X69.375 Y48.125
M5
G0 X101.875 Y48.375
M3
G1 X100 Y48.375
M5
G0 X96.5 Y48.375
M3
G1 X94.125 Y48.375
M5
G0 X88.875 Y48.375
M3
G1 X86.875 Y48.375
M5
G0 X72.75 Y48.375
M3
G1 X69.25 Y48.375
M5
G0 X104.75 Y48.625
M3
G1 X104 Y48.625
M5
G0 X101.875 Y48.625
M3
G1 X100.125 Y48.625
M5
G0 X96.75 Y48.625
M3
G1 X94.25 Y48.625
M5
G0 X89.25 Y48.625
M3
G1 X87 Y48.625
M5
G0 X72.75 Y48.625
M3
G1 X69.25 Y48.625
M5
G0 X105 Y48.875
M3
G1 X103.75 Y48.875
M5
G0 X102 Y48.875
M3
G1 X100.25 Y48.875
M5
G0 X97.25 Y48.875
M3
G1 X94.375 Y48.875
M5
G0 X89.875 Y48.875
M3
G1 X87.125 Y48.875
M5
G0 X72.75 Y48.875
M3
G1 X69.125 Y48.875
M5
G0 X105.125 Y49.125
M3
G1 X103.625 Y49.125
M5
G0 X102.125 Y49.125
M3
G1 X100.25 Y49.125
M5
G0 X97.75 Y49.125
M3
G1 X94.625 Y49.125
M5
G0 X91.75 Y49.125
M3
G1 X87.25 Y49.125
M5
G0 X72.75 Y49.125
M3
G1 X69 Y49.125
M5
G0 X105.125 Y49.375
M3
G1 X103.625 Y49.375
M5
G0 X102.125 Y49.375
M3
G1 X100.25 Y49.375
M5
G0 X98.125 Y49.375
M3
G1 X95.125 Y49.375
M5
G0 X91.875 Y49.375
M3
G1 X87.5 Y49.375
M5
G0 X72.875 Y49.375
M3
G1 X71 Y49.375
M5
G0 X70.875 Y49.375
M3
G1 X68.875 Y49.375
M5
G0 X105.125 Y49.625
M3
G1 X103.625 Y49.625
M5
G0 X102.125 Y49.625
M3
G1 X100.25 Y49.625
M5
G0 X98.625 Y49.625
M3
G1 X95.5 Y49.625
M5
G0 X92 Y49.625
M3
G1 X87.875 Y49.625
M5
G0 X72.875 Y49.625
M3
G1 X71.125 Y49.625
M5
G0 X70.625 Y49.625
M3
G1 X68.75 Y49.625
M5
G0 X105.125 Y49.875
M3
G1 X103.625 Y49.875
M5
G0 X102.125 Y49.875
M3
G1 X100.25 Y49.875
M5
G0 X99 Y49.875
M3
G1 X95.875 Y49.875
M5
G0 X91.875 Y49.875
M3
G1 X88.25 Y49.875
M5
G0 X72.875 Y49.875
M3
G1 X71.25 Y49.875
M5
G0 X70.5 Y49.875
M3
G1 X68.625 Y49.875
M5
G0 X105.25 Y50.125
M3
G1 X103.625 Y50.125
M5
G0 X102.125 Y50.125
M3
G1 X100 Y50.125
M5
G0 X99.625 Y50.125
M3
G1 X96.375 Y50.125
M5
G0 X91.625 Y50.125
M3
G1 X88.75 Y50.125
M5
G0 X72.875 Y50.125
M3
G1 X71.25 Y50.125
M5
G0 X70.375 Y50.125
M3
G1 X68.5 Y50.125
M5
G0 X62.75 Y50.125
M3
G1 X62.25 Y50.125
M5
G0 X105.25 Y50.375
M3
G1 X103.625 Y50.375
M5
G0 X102 Y50.375
M3
G1 X96.875 Y50.375
M5
G0 X90.875 Y50.375
M3
G1 X89.5 Y50.375
M5
G0 X72.875 Y50.375
M3
G1 X71.25 Y50.375
M5
G0 X70.375 Y50.375
M3
G1 X68.5 Y50.375
M5
G0 X63.125 Y50.375
M3
G1 X61.875 Y50.375
M5
G0 X105.25 Y50.625
M3
G1 X103.625 Y50.625
M5
G0 X102 Y50.625
M3
G1 X97.375 Y50.625
M5
G0 X72.875 Y50.625
M3
G1 X71.25 Y50.625
M5
G0 X70.25 Y50.625
M3
G1 X68.375 Y50.625
M5
G0 X63.375 Y50.625
M3
G1 X61.75 Y50.625
M5
G0 X105.25 Y50.875
M3
G1 X103.625 Y50.875
M5
G0 X101.875 Y50.875
M3
G1 X97.875 Y50.875
M5
G0 X94.875 Y50.875
M3
G1 X94.5 Y50.875
M5
G0 X72.875 Y50.875
M3
G1 X71.25 Y50.875
M5
G0 X70.125 Y50.875
M3
G1 X68.25 Y50.875
M5
G0 X63.5 Y50.875
M3
G1 X61.75 Y50.875
M5
G0 X105.25 Y51.125
M3
G1 X103.625 Y51.125
M5
G0 X101.75 Y51.125
M3
G1 X98.25 Y51.125
M5
G0 X95.375 Y51.125
M3
G1 X94.125 Y51.125
M5
G0 X72.875 Y51.125
M3
G1 X71.25 Y51.125
M5
G0 X70 Y51.125
M3
G1 X68.125 Y51.125
M5
G0 X63.75 Y51.125
M3
G1 X61.75 Y51.125
M5
G0 X105.375 Y51.375
M3
G1 X103.625 Y51.375
M5
G0 X101.75 Y51.375
M3
G1 X98.625 Y51.375
M5
G0 X95.625 Y51.375
M3
G1 X94 Y51.375
M5
G0 X72.875 Y51.375
M3
G1 X71.375 Y51.375
M5
G0 X70 Y51.375
M3
G1 X68 Y51.375
M5
G0 X63.875 Y51.375
M3
G1 X61.75 Y51.375
M5
G0 X111 Y51.625
M3
G1 X110.5 Y51.625
M5
G0 X105.375 Y51.625
M3
G1 X103.625 Y51.625
M5
G0 X101.625 Y51.625
M3
G1 X98.875 Y51.625
M5
G0 X96 Y51.625
M3
G1 X94 Y51.625
M5
G0 X72.875 Y51.625
M3
G1 X71.375 Y51.625
M5
G0 X69.875 Y51.625
M3
G1 X67.875 Y51.625
M5
G0 X64.125 Y51.625
M3
G1 X61.875 Y51.625
M5
G0 X111.375 Y51.875
M3
G1 X110 Y51.875
M5
G0 X105.375 Y51.875
M3
G1 X103.625 Y51.875
M5
G0 X101.5 Y51.875
M3
G1 X98.875 Y51.875
M5
G0 X96.375 Y51.875
M3
G1 X94.125 Y51.875
M5
G0 X73 Y51.875
M3
G1 X71.375 Y51.875
M5
G0 X69.75 Y51.875
M3
G1 X67.75 Y51.875
M5
G0 X64.375 Y51.875
M3
G1 X61.875 Y51.875
M5
G0 X111.375 Y52.125
M3
G1 X109.625 Y52.125
M5
G0 X105.375 Y52.125
M3
G1 X103.625 Y52.125
M5
G0 X101.375 Y52.125
M3
G1 X98.5 Y52.125
M5
G0 X97.125 Y52.125
M3
G1 X94.25 Y52.125
M5
G0 X73 Y52.125
M3
G1 X71.375 Y52.125
M5
G0 X69.625 Y52.125
M3
G1 X67.75 Y52.125
M5
G0 X64.625 Y52.125
M3
G1 X62 Y52.125
M5
G0 X111.375 Y52.375
M3
G1 X109.25 Y52.375
M5
G0 X105.375 Y52.375
M3
G1 X103.625 Y52.375
M5
G0 X101.25 Y52.375
M3
G1 X94.5 Y52.375
M5
G0 X73 Y52.375
M3
G1 X71.375 Y52.375
M5
G0 X69.5 Y52.375
M3
G1 X67.625 Y52.375
M5
G0 X64.875 Y52.375
M3
G1 X62.125 Y52.375
M5
G0 X111.375 Y52.625
M3
G1 X108.875 Y52.625
M5
G0 X105.375 Y52.625
M3
G1 X103.75 Y52.625
M5
G0 X101 Y52.625
M3
G1 X94.75 Y52.625
M5
G0 X76.625 Y52.625
M3
G1 X75.5 Y52.625
M5
G0 X73 Y52.625
M3
G1 X71.375 Y52.625
M5
G0 X69.375 Y52.625
M3
G1 X67.5 Y52.625
M5
G0 X65 Y52.625
M3
G1 X62.125 Y52.625
M5
G0 X111.125 Y52.875
M3
G1 X108.5 Y52.875
M5
G0 X105.375 Y52.875
M3
G1 X103.75 Y52.875
M5
G0 X100.75 Y52.875
M3
G1 X95.125 Y52.875
M5
G0 X76.875 Y52.875
M3
G1 X75.25 Y52.875
M5
G0 X73 Y52.875
M3
G1 X71.375 Y52.875
M5
G0 X69.25 Y52.875
M3
G1 X67.375 Y52.875
M5
G0 X65.25 Y52.875
M3
G1 X62.25 Y52.875
M5
G0 X110.875 Y53.125
M3
G1 X108.125 Y53.125
M5
G0 X105.5 Y53.125
M3
G1 X103.75 Y53.125
M5
G0 X100.5 Y53.125
M3
G1 X95.5 Y53.125
M5
G0 X77 Y53.125
M3
G1 X75 Y53.125
M5
G0 X73 Y53.125
M3
G1 X71.375 Y53.125
M5
G0 X69.125 Y53.125
M3
G1 X67.25 Y53.125
M5
G0 X65.375 Y53.125
M3
G1 X62.25 Y53.125
M5
G0 X110.5 Y53.375
M3
G1 X107.875 Y53.375
M5
G0 X105.5 Y53.375
M3
G1 X103.875 Y53.375
M5
G0 X100.125 Y53.375
M3
G1 X96 Y53.375
M5
G0 X77 Y53.375
M3
G1 X74.75 Y53.375
M5
G0 X73 Y53.375
M3
G1 X71.375 Y53.375
M5
G0 X69 Y53.375
M3
G1 X67.125 Y53.375
M5
G0 X65.625 Y53.375
M3
G1 X62.375 Y53.375
M5
G0 X110.25 Y53.625
M3
G1 X107.5 Y53.625
M5
G0 X105.5 Y53.625
M3
G1 X103.875 Y53.625
M5
G0 X99.75 Y53.625
M3
G1 X96.625 Y53.625
M5
G0 X77 Y53.625
M3
G1 X74.625 Y53.625
M5
G0 X73 Y53.625
M3
G1 X71.375 Y53.625
M5
G0 X68.875 Y53.625
M3
G1 X67 Y53.625
M5
G0 X65.75 Y53.625
M3
G1 X62.375 Y53.625
M5
G0 X110 Y53.875
M3
G1 X107.25 Y53.875
M5
G0 X105.625 Y53.875
M3
G1 X103.875 Y53.875
M5
G0 X99.125 Y53.875
M3
G1 X97.375 Y53.875
M5
G0 X77 Y53.875
M3
G1 X74.375 Y53.875
M5
G0 X73 Y53.875
M3
G1 X71.375 Y53.875
M5
G0 X68.75 Y53.875
M3
G1 X66.875 Y53.875
M5
G0 X66 Y53.875
M3
G1 X62.5 Y53.875
M5
G0 X109.625 Y54.125
M3
G1 X106.875 Y54.125
M5
G0 X105.625 Y54.125
M3
G1 X104 Y54.125
M5
G0 X77 Y54.125
M3
G1 X74.125 Y54.125
M5
G0 X73 Y54.125
M3
G1 X71.375 Y54.125
M5
G0 X68.625 Y54.125
M3
G1 X66.625 Y54.125
M5
G0 X66.375 Y54.125
M3
G1 X62.5 Y54.125
M5
G0 X109.375 Y54.375
M3
G1 X106.25 Y54.375
M5
G0 X105.875 Y54.375
M3
G1 X104 Y54.375
M5
G0 X77 Y54.375
M3
G1 X74 Y54.375
M5
G0 X73.125 Y54.375
M3
G1 X71.375 Y54.375
M5
G0 X68.5 Y54.375
M3
G1 X62.625 Y54.375
M5
G0 X109 Y54.625
M3
G1 X104 Y54.625
M5
G0 X77 Y54.625
M3
G1 X73.625 Y54.625
M5
G0 X73.25 Y54.625
M3
G1 X71.375 Y54.625
M5
G0 X68.375 Y54.625
M3
G1 X62.625 Y54.625
M5
G0 X108.625 Y54.875
M3
G1 X104 Y54.875
M5
G0 X76.875 Y54.875
M3
G1 X71.375 Y54.875
M5
G0 X68.25 Y54.875
M3
G1 X62.75 Y54.875
M5
G0 X108.25 Y55.125
M3
G1 X104 Y55.125
M5
G0 X76.875 Y55.125
M3
G1 X71.5 Y55.125
M5
G0 X68.125 Y55.125
M3
G1 X64.875 Y55.125
M5
G0 X64.625 Y55.125
M3
G1 X62.75 Y55.125
M5
G0 X107.875 Y55.375
M3
G1 X104.125 Y55.375
M5
G0 X76.875 Y55.375
M3
G1 X71.5 Y55.375
M5
G0 X68.125 Y55.375
M3
G1 X65.125 Y55.375
M5
G0 X64.5 Y55.375
M3
G1 X62.75 Y55.375
M5
G0 X107.5 Y55.625
M3
G1 X104.125 Y55.625
M5
G0 X76.875 Y55.625
M3
G1 X71.5 Y55.625
M5
G0 X68 Y55.625
M3
G1 X65.375 Y55.625
M5
G0 X64.625 Y55.625
M3
G1 X62.875 Y55.625
M5
G0 X107.125 Y55.875
M3
G1 X104.125 Y55.875
M5
G0 X76.875 Y55.875
M3
G1 X71.5 Y55.875
M5
G0 X68 Y55.875
M3
G1 X65.625 Y55.875
M5
G0 X64.625 Y55.875
M3
G1 X62.875 Y55.875
M5
G0 X106.75 Y56.125
M3
G1 X104.125 Y56.125
M5
G0 X76.75 Y56.125
M3
G1 X71.5 Y56.125
M5
G0 X67.875 Y56.125
M3
G1 X65.75 Y56.125
M5
G0 X64.625 Y56.125
M3
G1 X62.875 Y56.125
M5
G0 X106.375 Y56.375
M3
G1 X104.125 Y56.375
M5
G0 X76.75 Y56.375
M3
G1 X74.75 Y56.375
M5
G0 X74.5 Y56.375
M3
G1 X71.625 Y56.375
M5
G0 X67.875 Y56.375
M3
G1 X66 Y56.375
M5
G0 X64.625 Y56.375
M3
G1 X63 Y56.375
M5
G0 X50 Y56.375
M3
G1 X44.125 Y56.375
M5
G0 X106.125 Y56.625
M3
G1 X104.25 Y56.625
M5
G0 X76.75 Y56.625
M3
G1 X74.875 Y56.625
M5
G0 X74.25 Y56.625
M3
G1 X71.625 Y56.625
M5
G0 X67.75 Y56.625
M3
G1 X66.25 Y56.625
M5
G0 X64.75 Y56.625
M3
G1 X63 Y56.625
M5
G0 X51.375 Y56.625
M3
G1 X42.75 Y56.625
M5
G0 X106 Y56.875
M3
G1 X104.25 Y56.875
M5
G0 X76.75 Y56.875
M3
G1 X74.875 Y56.875
M5
G0 X74 Y56.875
M3
G1 X71.625 Y56.875
M5
G0 X67.375 Y56.875
M3
G1 X66.75 Y56.875
M5
G0 X64.75 Y56.875
M3
G1 X63 Y56.875
M5
G0 X52.375 Y56.875
M3
G1 X41.875 Y56.875
M5
G0 X106 Y57.125
M3
G1 X104.25 Y57.125
M5
G0 X93.625 Y57.125
M3
G1 X86.875 Y57.125
M5
G0 X76.625 Y57.125
M3
G1 X74.875 Y57.125
M5
G0 X73.75 Y57.125
M3
G1 X71.75 Y57.125
M5
G0 X64.75 Y57.125
M3
G1 X63.125 Y57.125
M5
G0 X53.125 Y57.125
M3
G1 X41.125 Y57.125
M5
G0 X105.875 Y57.375
M3
G1 X104.25 Y57.375
M5
G0 X94.625 Y57.375
M3
G1 X85.875 Y57.375
M5
G0 X76.625 Y57.375
M3
G1 X74.875 Y57.375
M5
G0 X73.375 Y57.375
M3
G1 X71.875 Y57.375
M5
G0 X64.625 Y57.375
M3
G1 X63.125 Y57.375
M5
G0 X53.75 Y57.375
M3
G1 X40.375 Y57.375
M5
G0 X106 Y57.625
M3
G1 X104.375 Y57.625
M5
G0 X95.5 Y57.625
M3
G1 X84.875 Y57.625
M5
G0 X76.625 Y57.625
M3
G1 X74.875 Y57.625
M5
G0 X73 Y57.625
M3
G1 X72.125 Y57.625
M5
G0 X64.5 Y57.625
M3
G1 X63.375 Y57.625
M5
G0 X54.375 Y57.625
M3
G1 X39.75 Y57.625
M5
G0 X106 Y57.875
M3
G1 X104.375 Y57.875
M5
G0 X96.25 Y57.875
M3
G1 X84.25 Y57.875
M5
G0 X76.625 Y57.875
M3
G1 X74.75 Y57.875
M5
G0 X64.25 Y57.875
M3
G1 X63.625 Y57.875
M5
G0 X55 Y57.875
M3
G1 X39.25 Y57.875
M5
G0 X106 Y58.125
M3
G1 X104.375 Y58.125
M5
G0 X96.75 Y58.125
M3
G1 X83.75 Y58.125
M5
G0 X76.625 Y58.125
M3
G1 X74.75 Y58.125
M5
G0 X55.375 Y58.125
M3
G1 X38.875 Y58.125
M5
G0 X106 Y58.375
M3
G1 X104.375 Y58.375
M5
G0 X97.125 Y58.375
M3
G1 X83.25 Y58.375
M5
G0 X76.5 Y58.375
M3
G1 X74.75 Y58.375
M5
G0 X55.75 Y58.375
M3
G1 X49.5 Y58.375
M5
G0 X44.75 Y58.375
M3
G1 X38.5 Y58.375
M5
G0 X106 Y58.625
M3
G1 X104.5 Y58.625
M5
G0 X97.75 Y58.625
M3
G1 X82.75 Y58.625
M5
G0 X76.5 Y58.625
M3
G1 X74.75 Y58.625
M5
G0 X56.125 Y58.625
M3
G1 X50.25 Y58.625
M5
G0 X43.875 Y58.625
M3
G1 X38 Y58.625
M5
G0 X106.125 Y58.875
M3
G1 X104.5 Y58.875
M5
G0 X98.25 Y58.875
M3
G1 X91.25 Y58.875
M5
G0 X89.25 Y58.875
M3
G1 X82.25 Y58.875
M5
G0 X76.5 Y58.875
M3
G1 X74.875 Y58.875
M5
G0 X56.5 Y58.875
M3
G1 X51.25 Y58.875
M5
G0 X43 Y58.875
M3
G1 X37.625 Y58.875
M5
G0 X106.125 Y59.125
M3
G1 X104.5 Y59.125
M5
G0 X98.625 Y59.125
M3
G1 X93 Y59.125
M5
G0 X87.5 Y59.125
M3
G1 X81.875 Y59.125
M5
G0 X76.5 Y59.125
M3
G1 X74.875 Y59.125
M5
G0 X56.875 Y59.125
M3
G1 X52 Y59.125
M5
G0 X42.125 Y59.125
M3
G1 X37.25 Y59.125
M5
G0 X106.125 Y59.375
M3
G1 X104.5 Y59.375
M5
G0 X99 Y59.375
M3
G1 X94 Y59.375
M5
G0 X86.375 Y59.375
M3
G1 X81.5 Y59.375
M5
G0 X76.375 Y59.375
M3
G1 X75 Y59.375
M5
G0 X57.25 Y59.375
M3
G1 X52.75 Y59.375
M5
G0 X41.5 Y59.375
M3
G1 X36.875 Y59.375
M5
G0 X106.125 Y59.625
M3
G1 X104.625 Y59.625
M5
G0 X99.375 Y59.625
M3
G1 X94.875 Y59.625
M5
G0 X85.625 Y59.625
M3
G1 X81.125 Y59.625
M5
G0 X76.125 Y59.625
M3
G1 X75.125 Y59.625
M5
G0 X57.625 Y59.625
M3
G1 X53.375 Y59.625
M5
G0 X40.875 Y59.625
M3
G1 X36.625 Y59.625
M5
G0 X106.125 Y59.875
M3
G1 X104.625 Y59.875
M5
G0 X99.75 Y59.875
M3
G1 X95.5 Y59.875
M5
G0 X85 Y59.875
M3
G1 X80.75 Y59.875
M5
G0 X58 Y59.875
M3
G1 X53.875 Y59.875
M5
G0 X40.375 Y59.875
M3
G1 X36.25 Y59.875
M5
G0 X106.25 Y60.125
M3
G1 X104.625 Y60.125
M5
G0 X100.125 Y60.125
M3
G1 X96.125 Y60.125
M5
G0 X84.375 Y60.125
M3
G1 X80.375 Y60.125
M5
G0 X58.25 Y60.125
M3
G1 X54.375 Y60.125
M5
G0 X39.875 Y60.125
M3
G1 X36 Y60.125
M5
G0 X106.25 Y60.375
M3
G1 X104.75 Y60.375
M5
G0 X100.375 Y60.375
M3
G1 X96.625 Y60.375
M5
G0 X83.875 Y60.375
M3
G1 X80 Y60.375
M5
G0 X58.5 Y60.375
M3
G1 X54.875 Y60.375
M5
G0 X39.375 Y60.375
M3
G1 X35.625 Y60.375
M5
G0 X106.25 Y60.625
M3
G1 X104.75 Y60.625
M5
G0 X100.625 Y60.625
M3
G1 X97.125 Y60.625
M5
G0 X83.375 Y60.625
M3
G1 X79.75 Y60.625
M5
G0 X58.75 Y60.625
M3
G1 X55.25 Y60.625
M5
G0 X39 Y60.625
M3
G1 X35.375 Y60.625
M5
