; G-code for laser engraving
; Generated by lotmax
2019-11-04 16:51:34

G90
G21
G28 XY
; G-code START <<<
G0 F2500
G1 F500
G0 X85 Y81.7
M3
G1 X115 Y81.7
M5
G0 X84.8 Y81.8
M3
G1 X115.2 Y81.8
M5
G0 X84.8 Y81.9
M3
G1 X115.2 Y81.9
M5
G0 X84.7 Y82
M3
G1 X115.3 Y82
M5
G0 X84.7 Y82.1
M3
G1 X115.3 Y82.1
M5
G0 X84.7 Y82.2
M3
G1 X115.3 Y82.2
M5
G0 X84.7 Y82.3
M3
G1 X115.3 Y82.3
M5
G0 X84.7 Y82.4
M3
G1 X115.3 Y82.4
M5
G0 X84.7 Y82.5
M3
G1 X115.3 Y82.5
M5
G0 X84.7 Y82.6
M3
G1 X115.3 Y82.6
M5
G0 X84.7 Y82.7
M3
G1 X115.3 Y82.7
M5
G0 X84.7 Y82.8
M3
G1 X115.3 Y82.8
M5
G0 X84.7 Y82.9
M3
G1 X115.3 Y82.9
M5
G0 X84.7 Y83
M3
G1 X115.3 Y83
M5
G0 X84.7 Y83.1
M3
G1 X115.3 Y83.1
M5
G0 X84.7 Y83.2
M3
G1 X115.3 Y83.2
M5
G0 X84.7 Y83.3
M3
G1 X115.3 Y83.3
M5
G0 X84.7 Y83.4
M3
G1 X115.3 Y83.4
M5
G0 X84.7 Y83.5
M3
G1 X115.3 Y83.5
M5
G0 X84.7 Y83.6
M3
G1 X115.3 Y83.6
M5
G0 X84.7 Y83.7
M3
G1 X115.3 Y83.7
M5
G0 X84.7 Y83.8
M3
G1 X115.3 Y83.8
M5
G0 X84.7 Y83.9
M3
G1 X115.3 Y83.9
M5
G0 X84.7 Y84
M3
G1 X115.3 Y84
M5
G0 X84.7 Y84.1
M3
G1 X115.3 Y84.1
M5
G0 X84.7 Y84.2
M3
G1 X115.3 Y84.2
M5
G0 X84.7 Y84.3
M3
G1 X115.3 Y84.3
M5
G0 X84.7 Y84.4
M3
G1 X115.3 Y84.4
M5
G0 X84.7 Y84.5
M3
G1 X115.3 Y84.5
M5
G0 X84.7 Y84.6
M3
G1 X115.3 Y84.6
M5
G0 X84.7 Y84.7
M3
G1 X115.3 Y84.7
M5
G0 X84.7 Y84.8
M3
G1 X115.3 Y84.8
M5
G0 X84.7 Y84.9
M3
G1 X115.3 Y84.9
M5
G0 X84.7 Y85
M3
G1 X115.3 Y85
M5
G0 X84.7 Y85.1
M3
G1 X115.3 Y85.1
M5
G0 X84.7 Y85.2
M3
G1 X115.3 Y85.2
M5
G0 X84.7 Y85.3
M3
G1 X115.3 Y85.3
M5
G0 X84.7 Y85.4
M3
G1 X115.3 Y85.4
M5
G0 X84.7 Y85.5
M3
G1 X115.3 Y85.5
M5
G0 X84.7 Y85.6
M3
G1 X115.3 Y85.6
M5
G0 X84.7 Y85.7
M3
G1 X115.3 Y85.7
M5
G0 X84.6 Y85.8
M3
G1 X115.3 Y85.8
M5
G0 X84.6 Y85.9
M3
G1 X115.4 Y85.9
M5
G0 X84.6 Y86
M3
G1 X115.4 Y86
M5
G0 X84.6 Y86.1
M3
G1 X115.4 Y86.1
M5
G0 X84.6 Y86.2
M3
G1 X115.3 Y86.2
M5
G0 X84.7 Y86.3
M3
G1 X115.3 Y86.3
M5
G0 X84.7 Y86.4
M3
G1 X115.3 Y86.4
M5
G0 X84.7 Y86.5
M3
G1 X115.3 Y86.5
M5
G0 X84.7 Y86.6
M3
G1 X115.3 Y86.6
M5
G0 X84.7 Y86.7
M3
G1 X115.3 Y86.7
M5
G0 X84.7 Y86.8
M3
G1 X115.3 Y86.8
M5
G0 X84.7 Y86.9
M3
G1 X115.3 Y86.9
M5
G0 X84.7 Y87
M3
G1 X115.3 Y87
M5
G0 X84.7 Y87.1
M3
G1 X115.3 Y87.1
M5
G0 X84.7 Y87.2
M3
G1 X115.3 Y87.2
M5
G0 X84.7 Y87.3
M3
G1 X115.3 Y87.3
M5
G0 X84.7 Y87.4
M3
G1 X115.3 Y87.4
M5
G0 X84.7 Y87.5
M3
G1 X115.3 Y87.5
M5
G0 X84.7 Y87.6
M3
G1 X115.3 Y87.6
M5
G0 X84.7 Y87.7
M3
G1 X115.3 Y87.7
M5
G0 X84.7 Y87.8
M3
G1 X115.3 Y87.8
M5
G0 X84.7 Y87.9
M3
G1 X115.3 Y87.9
M5
G0 X84.7 Y88
M3
G1 X115.3 Y88
M5
G0 X84.7 Y88.1
M3
G1 X115.3 Y88.1
M5
G0 X84.7 Y88.2
M3
G1 X115.3 Y88.2
M5
G0 X84.7 Y88.3
M3
G1 X115.3 Y88.3
M5
G0 X84.7 Y88.4
M3
G1 X115.3 Y88.4
M5
G0 X84.7 Y88.5
M3
G1 X115.3 Y88.5
M5
G0 X84.7 Y88.6
M3
G1 X115.3 Y88.6
M5
G0 X84.7 Y88.7
M3
G1 X115.3 Y88.7
M5
G0 X84.7 Y88.8
M3
G1 X115.3 Y88.8
M5
G0 X84.7 Y88.9
M3
G1 X115.3 Y88.9
M5
G0 X84.7 Y89
M3
G1 X115.3 Y89
M5
G0 X84.7 Y89.1
M3
G1 X115.3 Y89.1
M5
G0 X84.7 Y89.2
M3
G1 X115.3 Y89.2
M5
G0 X84.7 Y89.3
M3
G1 X115.3 Y89.3
M5
G0 X84.7 Y89.4
M3
G1 X115.3 Y89.4
M5
G0 X84.7 Y89.5
M3
G1 X115.3 Y89.5
M5
G0 X84.7 Y89.6
M3
G1 X115.3 Y89.6
M5
G0 X84.7 Y89.7
M3
G1 X115.3 Y89.7
M5
G0 X84.7 Y89.8
M3
G1 X115.3 Y89.8
M5
G0 X84.7 Y89.9
M3
G1 X115.3 Y89.9
M5
G0 X84.7 Y90
M3
G1 X115.3 Y90
M5
G0 X84.7 Y90.1
M3
G1 X115.3 Y90.1
M5
G0 X84.7 Y90.2
M3
G1 X115.3 Y90.2
M5
G0 X84.7 Y90.3
M3
G1 X115.3 Y90.3
M5
G0 X84.7 Y90.4
M3
G1 X115.3 Y90.4
M5
G0 X84.7 Y90.5
M3
G1 X115.3 Y90.5
M5
G0 X84.7 Y90.6
M3
G1 X115.3 Y90.6
M5
G0 X84.7 Y90.7
M3
G1 X115.3 Y90.7
M5
G0 X84.7 Y90.8
M3
G1 X115.3 Y90.8
M5
G0 X84.7 Y90.9
M3
G1 X115.3 Y90.9
M5
G0 X84.7 Y91
M3
G1 X115.3 Y91
M5
G0 X84.7 Y91.1
M3
G1 X115.3 Y91.1
M5
G0 X84.7 Y91.2
M3
G1 X115.3 Y91.2
M5
G0 X84.7 Y91.3
M3
G1 X115.3 Y91.3
M5
G0 X84.7 Y91.4
M3
G1 X115.3 Y91.4
M5
G0 X84.7 Y91.5
M3
G1 X115.3 Y91.5
M5
G0 X84.7 Y91.6
M3
G1 X115.3 Y91.6
M5
G0 X84.7 Y91.7
M3
G1 X115.3 Y91.7
M5
G0 X84.7 Y91.8
M3
G1 X115.3 Y91.8
M5
G0 X84.7 Y91.9
M3
G1 X115.3 Y91.9
M5
G0 X84.7 Y92
M3
G1 X115.3 Y92
M5
G0 X84.7 Y92.1
M3
G1 X115.3 Y92.1
M5
G0 X84.7 Y92.2
M3
G1 X115.3 Y92.2
M5
G0 X84.7 Y92.3
M3
G1 X115.3 Y92.3
M5
G0 X84.7 Y92.4
M3
G1 X115.3 Y92.4
M5
G0 X84.7 Y92.5
M3
G1 X115.3 Y92.5
M5
G0 X84.7 Y92.6
M3
G1 X115.3 Y92.6
M5
G0 X84.7 Y92.7
M3
G1 X115.3 Y92.7
M5
G0 X84.7 Y92.8
M3
G1 X115.3 Y92.8
M5
G0 X84.7 Y92.9
M3
G1 X115.3 Y92.9
M5
G0 X84.7 Y93
M3
G1 X115.3 Y93
M5
G0 X84.7 Y93.1
M3
G1 X115.3 Y93.1
M5
G0 X84.7 Y93.2
M3
G1 X115.3 Y93.2
M5
G0 X84.7 Y93.3
M3
G1 X115.3 Y93.3
M5
G0 X84.7 Y93.4
M3
G1 X115.3 Y93.4
M5
G0 X84.7 Y93.5
M3
G1 X115.3 Y93.5
M5
G0 X84.7 Y93.6
M3
G1 X115.3 Y93.6
M5
G0 X84.7 Y93.7
M3
G1 X115.3 Y93.7
M5
G0 X84.7 Y93.8
M3
G1 X115.3 Y93.8
M5
G0 X84.7 Y93.9
M3
G1 X115.3 Y93.9
M5
G0 X84.7 Y94
M3
G1 X115.3 Y94
M5
G0 X84.7 Y94.1
M3
G1 X115.3 Y94.1
M5
G0 X84.7 Y94.2
M3
G1 X115.3 Y94.2
M5
G0 X84.7 Y94.3
M3
G1 X115.3 Y94.3
M5
G0 X84.7 Y94.4
M3
G1 X115.3 Y94.4
M5
G0 X84.7 Y94.5
M3
G1 X115.3 Y94.5
M5
G0 X84.7 Y94.6
M3
G1 X115.3 Y94.6
M5
G0 X84.7 Y94.7
M3
G1 X115.3 Y94.7
M5
G0 X84.7 Y94.8
M3
G1 X115.3 Y94.8
M5
G0 X84.7 Y94.9
M3
G1 X115.3 Y94.9
M5
G0 X84.7 Y95
M3
G1 X115.3 Y95
M5
G0 X84.7 Y95.1
M3
G1 X115.3 Y95.1
M5
G0 X84.7 Y95.2
M3
G1 X115.3 Y95.2
M5
G0 X84.7 Y95.3
M3
G1 X115.3 Y95.3
M5
G0 X84.7 Y95.4
M3
G1 X115.3 Y95.4
M5
G0 X84.7 Y95.5
M3
G1 X115.3 Y95.5
M5
G0 X84.7 Y95.6
M3
G1 X115.3 Y95.6
M5
G0 X84.7 Y95.7
M3
G1 X115.3 Y95.7
M5
G0 X84.7 Y95.8
M3
G1 X115.3 Y95.8
M5
G0 X84.7 Y95.9
M3
G1 X115.3 Y95.9
M5
G0 X84.7 Y96
M3
G1 X115.3 Y96
M5
G0 X84.7 Y96.1
M3
G1 X115.3 Y96.1
M5
G0 X84.7 Y96.2
M3
G1 X115.3 Y96.2
M5
G0 X84.7 Y96.3
M3
G1 X115.3 Y96.3
M5
G0 X84.7 Y96.4
M3
G1 X115.3 Y96.4
M5
G0 X84.7 Y96.5
M3
G1 X115.3 Y96.5
M5
G0 X84.7 Y96.6
M3
G1 X115.3 Y96.6
M5
G0 X84.7 Y96.7
M3
G1 X115.3 Y96.7
M5
G0 X84.7 Y96.8
M3
G1 X115.3 Y96.8
M5
G0 X84.7 Y96.9
M3
G1 X115.3 Y96.9
M5
G0 X84.7 Y97
M3
G1 X115.3 Y97
M5
G0 X84.7 Y97.1
M3
G1 X115.3 Y97.1
M5
G0 X84.7 Y97.2
M3
G1 X115.3 Y97.2
M5
G0 X84.7 Y97.3
M3
G1 X115.3 Y97.3
M5
G0 X84.7 Y97.4
M3
G1 X115.3 Y97.4
M5
G0 X84.7 Y97.5
M3
G1 X115.3 Y97.5
M5
G0 X84.7 Y97.6
M3
G1 X115.3 Y97.6
M5
G0 X84.7 Y97.7
M3
G1 X115.3 Y97.7
M5
G0 X84.7 Y97.8
M3
G1 X115.3 Y97.8
M5
G0 X84.7 Y97.9
M3
G1 X115.3 Y97.9
M5
G0 X84.7 Y98
M3
G1 X115.3 Y98
M5
G0 X84.7 Y98.1
M3
G1 X115.3 Y98.1
M5
G0 X84.7 Y98.2
M3
G1 X115.3 Y98.2
M5
G0 X84.7 Y98.3
M3
G1 X115.3 Y98.3
M5
G0 X84.7 Y98.4
M3
G1 X115.3 Y98.4
M5
G0 X84.7 Y98.5
M3
G1 X115.3 Y98.5
M5
G0 X84.7 Y98.6
M3
G1 X115.3 Y98.6
M5
G0 X84.7 Y98.7
M3
G1 X115.3 Y98.7
M5
G0 X84.7 Y98.8
M3
G1 X115.3 Y98.8
M5
G0 X84.7 Y98.9
M3
G1 X115.3 Y98.9
M5
G0 X84.7 Y99
M3
G1 X115.3 Y99
M5
G0 X84.7 Y99.1
M3
G1 X115.3 Y99.1
M5
G0 X84.7 Y99.2
M3
G1 X115.3 Y99.2
M5
G0 X84.7 Y99.3
M3
G1 X115.3 Y99.3
M5
G0 X84.7 Y99.4
M3
G1 X115.3 Y99.4
M5
G0 X84.7 Y99.5
M3
G1 X115.3 Y99.5
M5
G0 X84.7 Y99.6
M3
G1 X115.3 Y99.6
M5
G0 X84.7 Y99.7
M3
G1 X115.3 Y99.7
M5
G0 X84.7 Y99.8
M3
G1 X115.3 Y99.8
M5
G0 X84.7 Y99.9
M3
G1 X115.3 Y99.9
M5
G0 X84.7 Y100
M3
G1 X115.3 Y100
M5
G0 X84.7 Y100.1
M3
G1 X115.3 Y100.1
M5
G0 X84.7 Y100.2
M3
G1 X115.3 Y100.2
M5
G0 X84.7 Y100.3
M3
G1 X115.3 Y100.3
M5
G0 X84.7 Y100.4
M3
G1 X115.3 Y100.4
M5
G0 X84.7 Y100.5
M3
G1 X115.3 Y100.5
M5
G0 X84.7 Y100.6
M3
G1 X115.3 Y100.6
M5
G0 X84.7 Y100.7
M3
G1 X115.3 Y100.7
M5
G0 X84.7 Y100.8
M3
G1 X115.3 Y100.8
M5
G0 X84.7 Y100.9
M3
G1 X115.3 Y100.9
M5
G0 X84.7 Y101
M3
G1 X115.3 Y101
M5
G0 X84.7 Y101.1
M3
G1 X115.3 Y101.1
M5
G0 X84.7 Y101.2
M3
G1 X115.3 Y101.2
M5
G0 X84.7 Y101.3
M3
G1 X115.3 Y101.3
M5
G0 X84.7 Y101.4
M3
G1 X115.3 Y101.4
M5
G0 X84.7 Y101.5
M3
G1 X115.3 Y101.5
M5
G0 X84.7 Y101.6
M3
G1 X115.3 Y101.6
M5
G0 X84.7 Y101.7
M3
G1 X115.3 Y101.7
M5
G0 X84.7 Y101.8
M3
G1 X115.3 Y101.8
M5
G0 X84.7 Y101.9
M3
G1 X115.3 Y101.9
M5
G0 X84.7 Y102
M3
G1 X115.3 Y102
M5
G0 X84.7 Y102.1
M3
G1 X115.3 Y102.1
M5
G0 X84.7 Y102.2
M3
G1 X115.3 Y102.2
M5
G0 X84.7 Y102.3
M3
G1 X115.3 Y102.3
M5
G0 X84.7 Y102.4
M3
G1 X115.3 Y102.4
M5
G0 X84.7 Y102.5
M3
G1 X115.3 Y102.5
M5
G0 X84.7 Y102.6
M3
G1 X115.3 Y102.6
M5
G0 X84.7 Y102.7
M3
G1 X115.3 Y102.7
M5
G0 X84.7 Y102.8
M3
G1 X115.3 Y102.8
M5
G0 X84.7 Y102.9
M3
G1 X115.3 Y102.9
M5
G0 X84.7 Y103
M3
G1 X115.3 Y103
M5
G0 X84.7 Y103.1
M3
G1 X115.3 Y103.1
M5
G0 X84.7 Y103.2
M3
G1 X115.3 Y103.2
M5
G0 X84.7 Y103.3
M3
G1 X115.3 Y103.3
M5
G0 X84.7 Y103.4
M3
G1 X115.3 Y103.4
M5
G0 X84.7 Y103.5
M3
G1 X115.3 Y103.5
M5
G0 X84.7 Y103.6
M3
G1 X115.3 Y103.6
M5
G0 X84.7 Y103.7
M3
G1 X115.3 Y103.7
M5
G0 X84.7 Y103.8
M3
G1 X115.3 Y103.8
M5
G0 X84.7 Y103.9
M3
G1 X115.3 Y103.9
M5
G0 X84.7 Y104
M3
G1 X115.3 Y104
M5
G0 X84.7 Y104.1
M3
G1 X115.3 Y104.1
M5
G0 X84.7 Y104.2
M3
G1 X115.3 Y104.2
M5
G0 X84.7 Y104.3
M3
G1 X115.3 Y104.3
M5
G0 X84.7 Y104.4
M3
G1 X115.3 Y104.4
M5
G0 X84.7 Y104.5
M3
G1 X115.3 Y104.5
M5
G0 X84.7 Y104.6
M3
G1 X115.3 Y104.6
M5
G0 X84.7 Y104.7
M3
G1 X115.3 Y104.7
M5
G0 X84.7 Y104.8
M3
G1 X115.3 Y104.8
M5
G0 X84.7 Y104.9
M3
G1 X115.3 Y104.9
M5
G0 X84.7 Y105
M3
G1 X115.3 Y105
M5
G0 X84.7 Y105.1
M3
G1 X115.3 Y105.1
M5
G0 X84.7 Y105.2
M3
G1 X115.3 Y105.2
M5
G0 X84.7 Y105.3
M3
G1 X115.3 Y105.3
M5
G0 X84.7 Y105.4
M3
G1 X115.3 Y105.4
M5
G0 X84.7 Y105.5
M3
G1 X115.3 Y105.5
M5
G0 X84.7 Y105.6
M3
G1 X115.3 Y105.6
M5
G0 X84.7 Y105.7
M3
G1 X115.3 Y105.7
M5
G0 X84.7 Y105.8
M3
G1 X115.3 Y105.8
M5
G0 X84.7 Y105.9
M3
G1 X115.3 Y105.9
M5
G0 X84.7 Y106
M3
G1 X115.3 Y106
M5
G0 X84.7 Y106.1
M3
G1 X115.3 Y106.1
M5
G0 X84.7 Y106.2
M3
G1 X115.3 Y106.2
M5
G0 X84.7 Y106.3
M3
G1 X115.3 Y106.3
M5
G0 X84.7 Y106.4
M3
G1 X115.3 Y106.4
M5
G0 X84.7 Y106.5
M3
G1 X115.3 Y106.5
M5
G0 X84.7 Y106.6
M3
G1 X115.3 Y106.6
M5
G0 X84.7 Y106.7
M3
G1 X115.3 Y106.7
M5
G0 X84.7 Y106.8
M3
G1 X115.3 Y106.8
M5
G0 X84.7 Y106.9
M3
G1 X115.3 Y106.9
M5
G0 X84.7 Y107
M3
G1 X115.3 Y107
M5
G0 X84.7 Y107.1
M3
G1 X115.3 Y107.1
M5
G0 X84.7 Y107.2
M3
G1 X115.3 Y107.2
M5
G0 X84.7 Y107.3
M3
G1 X115.3 Y107.3
M5
G0 X84.7 Y107.4
M3
G1 X115.3 Y107.4
M5
G0 X84.7 Y107.5
M3
G1 X115.3 Y107.5
M5
G0 X84.7 Y107.6
M3
G1 X115.3 Y107.6
M5
G0 X84.7 Y107.7
M3
G1 X115.3 Y107.7
M5
G0 X84.7 Y107.8
M3
G1 X115.3 Y107.8
M5
G0 X84.7 Y107.9
M3
G1 X115.3 Y107.9
M5
G0 X84.8 Y108
M3
G1 X115.2 Y108
M5
G0 X84.8 Y108.1
M3
G1 X115.2 Y108.1
M5

; G-code END <<<
