; G-code for laser engraving
; Generated by lotmax
2019-10-31 16:00:47

G90
G21
G28 XY
; G-code START <<<
G0 F2500
G1 F500
G0 X97.7 Y90.9
M3
G1 X97.7 Y90.9
M5
G0 X97.4 Y91
M3
G1 X98 Y91
M5
G0 X97.2 Y91.1
M3
G1 X98.1 Y91.1
M5
G0 X99.8 Y91.1
M3
G1 X100.1 Y91.1
M5
G0 X97.1 Y91.2
M3
G1 X98.2 Y91.2
M5
G0 X99.7 Y91.2
M3
G1 X100.2 Y91.2
M5
G0 X97 Y91.3
M3
G1 X98.2 Y91.3
M5
G0 X99.6 Y91.3
M3
G1 X100.3 Y91.3
M5
G0 X97 Y91.4
M3
G1 X98.2 Y91.4
M5
G0 X99.6 Y91.4
M3
G1 X100.3 Y91.4
M5
G0 X96.6 Y91.5
M3
G1 X98.2 Y91.5
M5
G0 X99.6 Y91.5
M3
G1 X100.3 Y91.5
M5
G0 X96.4 Y91.6
M3
G1 X98.2 Y91.6
M5
G0 X99.5 Y91.6
M3
G1 X100.4 Y91.6
M5
G0 X96.3 Y91.7
M3
G1 X98.3 Y91.7
M5
G0 X99.5 Y91.7
M3
G1 X100.4 Y91.7
M5
G0 X96.2 Y91.8
M3
G1 X98.3 Y91.8
M5
G0 X99.5 Y91.8
M3
G1 X100.4 Y91.8
M5
G0 X96.1 Y91.9
M3
G1 X98.3 Y91.9
M5
G0 X99.5 Y91.9
M3
G1 X100.4 Y91.9
M5
G0 X95.9 Y92
M3
G1 X98.4 Y92
M5
G0 X99.5 Y92
M3
G1 X100.4 Y92
M5
G0 X95.8 Y92.1
M3
G1 X98.4 Y92.1
M5
G0 X99.5 Y92.1
M3
G1 X100.5 Y92.1
M5
G0 X95.7 Y92.2
M3
G1 X98.4 Y92.2
M5
G0 X99.5 Y92.2
M3
G1 X100.5 Y92.2
M5
G0 X100.9 Y92.2
M3
G1 X101.1 Y92.2
M5
G0 X95.7 Y92.3
M3
G1 X98.3 Y92.3
M5
G0 X99.5 Y92.3
M3
G1 X101.2 Y92.3
M5
G0 X95.6 Y92.4
M3
G1 X98.3 Y92.4
M5
G0 X99.4 Y92.4
M3
G1 X101.3 Y92.4
M5
G0 X95.2 Y92.5
M3
G1 X98.3 Y92.5
M5
G0 X99.4 Y92.5
M3
G1 X101.3 Y92.5
M5
G0 X95 Y92.6
M3
G1 X98.2 Y92.6
M5
G0 X99.2 Y92.6
M3
G1 X101.4 Y92.6
M5
G0 X95 Y92.7
M3
G1 X98.1 Y92.7
M5
G0 X99.1 Y92.7
M3
G1 X101.4 Y92.7
M5
G0 X95 Y92.8
M3
G1 X98 Y92.8
M5
G0 X99 Y92.8
M3
G1 X101.3 Y92.8
M5
G0 X95 Y92.9
M3
G1 X97.6 Y92.9
M5
G0 X99 Y92.9
M3
G1 X101.3 Y92.9
M5
G0 X95 Y93
M3
G1 X97.5 Y93
M5
G0 X99 Y93
M3
G1 X101.3 Y93
M5
G0 X95 Y93.1
M3
G1 X97.4 Y93.1
M5
G0 X99 Y93.1
M3
G1 X101.3 Y93.1
M5
G0 X102.7 Y93.1
M3
G1 X102.9 Y93.1
M5
G0 X95.1 Y93.2
M3
G1 X97.8 Y93.2
M5
G0 X99 Y93.2
M3
G1 X101.3 Y93.2
M5
G0 X102.3 Y93.2
M3
G1 X103.4 Y93.2
M5
G0 X95.2 Y93.3
M3
G1 X98.2 Y93.3
M5
G0 X99 Y93.3
M3
G1 X101.3 Y93.3
M5
G0 X102 Y93.3
M3
G1 X103.6 Y93.3
M5
G0 X95.3 Y93.4
M3
G1 X96.4 Y93.4
M5
G0 X96.7 Y93.4
M3
G1 X98.4 Y93.4
M5
G0 X99 Y93.4
M3
G1 X101.3 Y93.4
M5
G0 X101.8 Y93.4
M3
G1 X103.8 Y93.4
M5
G0 X95.4 Y93.5
M3
G1 X96.4 Y93.5
M5
G0 X96.8 Y93.5
M3
G1 X98.6 Y93.5
M5
G0 X99 Y93.5
M3
G1 X101.2 Y93.5
M5
G0 X101.7 Y93.5
M3
G1 X104 Y93.5
M5
G0 X95.5 Y93.6
M3
G1 X96.4 Y93.6
M5
G0 X96.6 Y93.6
M3
G1 X98.8 Y93.6
M5
G0 X99 Y93.6
M3
G1 X101.2 Y93.6
M5
G0 X101.5 Y93.6
M3
G1 X104.1 Y93.6
M5
G0 X95.5 Y93.7
M3
G1 X101.2 Y93.7
M5
G0 X101.4 Y93.7
M3
G1 X104.2 Y93.7
M5
G0 X95.5 Y93.8
M3
G1 X104.3 Y93.8
M5
G0 X95.5 Y93.9
M3
G1 X100 Y93.9
M5
G0 X100.5 Y93.9
M3
G1 X104.4 Y93.9
M5
G0 X95.5 Y94
M3
G1 X99.9 Y94
M5
G0 X100.7 Y94
M3
G1 X100.9 Y94
M5
G0 X101.1 Y94
M3
G1 X104.5 Y94
M5
G0 X95.6 Y94.1
M3
G1 X99.8 Y94.1
M5
G0 X101.1 Y94.1
M3
G1 X104.5 Y94.1
M5
G0 X95.6 Y94.2
M3
G1 X99.7 Y94.2
M5
G0 X101 Y94.2
M3
G1 X102.4 Y94.2
M5
G0 X103.2 Y94.2
M3
G1 X104.6 Y94.2
M5
G0 X95.6 Y94.3
M3
G1 X97.3 Y94.3
M5
G0 X98.1 Y94.3
M3
G1 X99.6 Y94.3
M5
G0 X101 Y94.3
M3
G1 X102.2 Y94.3
M5
G0 X103.4 Y94.3
M3
G1 X104.7 Y94.3
M5
G0 X95.7 Y94.4
M3
G1 X97.1 Y94.4
M5
G0 X98.3 Y94.4
M3
G1 X99.5 Y94.4
M5
G0 X100.9 Y94.4
M3
G1 X102 Y94.4
M5
G0 X103.6 Y94.4
M3
G1 X104.7 Y94.4
M5
G0 X95.8 Y94.5
M3
G1 X97 Y94.5
M5
G0 X98.4 Y94.5
M3
G1 X99.5 Y94.5
M5
G0 X100.9 Y94.5
M3
G1 X101.9 Y94.5
M5
G0 X103.7 Y94.5
M3
G1 X104.8 Y94.5
M5
G0 X95.8 Y94.6
M3
G1 X97 Y94.6
M5
G0 X98.5 Y94.6
M3
G1 X99.6 Y94.6
M5
G0 X100.8 Y94.6
M3
G1 X101.8 Y94.6
M5
G0 X103.8 Y94.6
M3
G1 X104.8 Y94.6
M5
G0 X95.8 Y94.7
M3
G1 X97.7 Y94.7
M5
G0 X98.3 Y94.7
M3
G1 X99.6 Y94.7
M5
G0 X100.8 Y94.7
M3
G1 X101.7 Y94.7
M5
G0 X103.9 Y94.7
M3
G1 X104.9 Y94.7
M5
G0 X95.7 Y94.8
M3
G1 X97.9 Y94.8
M5
G0 X98.1 Y94.8
M3
G1 X99.7 Y94.8
M5
G0 X100.7 Y94.8
M3
G1 X101.7 Y94.8
M5
G0 X103.9 Y94.8
M3
G1 X104.9 Y94.8
M5
G0 X95.7 Y94.9
M3
G1 X99.7 Y94.9
M5
G0 X100.7 Y94.9
M3
G1 X101.6 Y94.9
M5
G0 X104 Y94.9
M3
G1 X104.9 Y94.9
M5
G0 X95.7 Y95
M3
G1 X99.7 Y95
M5
G0 X100.7 Y95
M3
G1 X101.6 Y95
M5
G0 X104 Y95
M3
G1 X105 Y95
M5
G0 X95.7 Y95.1
M3
G1 X99.8 Y95.1
M5
G0 X100.6 Y95.1
M3
G1 X101.5 Y95.1
M5
G0 X104.1 Y95.1
M3
G1 X105 Y95.1
M5
G0 X95.6 Y95.2
M3
G1 X99.8 Y95.2
M5
G0 X100.6 Y95.2
M3
G1 X101.5 Y95.2
M5
G0 X104.1 Y95.2
M3
G1 X105 Y95.2
M5
G0 X95.6 Y95.3
M3
G1 X99.8 Y95.3
M5
G0 X100.6 Y95.3
M3
G1 X101.5 Y95.3
M5
G0 X104.2 Y95.3
M3
G1 X105 Y95.3
M5
G0 X95.6 Y95.4
M3
G1 X99.8 Y95.4
M5
G0 X100.6 Y95.4
M3
G1 X101.4 Y95.4
M5
G0 X104.2 Y95.4
M3
G1 X105.1 Y95.4
M5
G0 X95.6 Y95.5
M3
G1 X99.8 Y95.5
M5
G0 X100.5 Y95.5
M3
G1 X101.4 Y95.5
M5
G0 X104.2 Y95.5
M3
G1 X105.1 Y95.5
M5
G0 X95.6 Y95.6
M3
G1 X99.9 Y95.6
M5
G0 X100.5 Y95.6
M3
G1 X101.4 Y95.6
M5
G0 X104.2 Y95.6
M3
G1 X105.1 Y95.6
M5
G0 X95.5 Y95.7
M3
G1 X99.9 Y95.7
M5
G0 X100.5 Y95.7
M3
G1 X101.3 Y95.7
M5
G0 X104.2 Y95.7
M3
G1 X105.1 Y95.7
M5
G0 X95.5 Y95.8
M3
G1 X99.9 Y95.8
M5
G0 X100.5 Y95.8
M3
G1 X101.3 Y95.8
M5
G0 X104.3 Y95.8
M3
G1 X105.1 Y95.8
M5
G0 X95.5 Y95.9
M3
G1 X99.9 Y95.9
M5
G0 X100.5 Y95.9
M3
G1 X101.3 Y95.9
M5
G0 X104.3 Y95.9
M3
G1 X105.1 Y95.9
M5
G0 X95.5 Y96
M3
G1 X96.4 Y96
M5
G0 X96.6 Y96
M3
G1 X97.9 Y96
M5
G0 X98.1 Y96
M3
G1 X99.9 Y96
M5
G0 X100.5 Y96
M3
G1 X101.3 Y96
M5
G0 X104.3 Y96
M3
G1 X105.1 Y96
M5
G0 X95.5 Y96.1
M3
G1 X96.4 Y96.1
M5
G0 X96.9 Y96.1
M3
G1 X97.5 Y96.1
M5
G0 X98.4 Y96.1
M3
G1 X99.9 Y96.1
M5
G0 X100.5 Y96.1
M3
G1 X101.3 Y96.1
M5
G0 X104.3 Y96.1
M3
G1 X105.2 Y96.1
M5
G0 X95.5 Y96.2
M3
G1 X96.4 Y96.2
M5
G0 X97.5 Y96.2
M3
G1 X98.4 Y96.2
M5
G0 X99 Y96.2
M3
G1 X99.9 Y96.2
M5
G0 X100.5 Y96.2
M3
G1 X101.3 Y96.2
M5
G0 X104.3 Y96.2
M3
G1 X105.2 Y96.2
M5
G0 X95.5 Y96.3
M3
G1 X96.4 Y96.3
M5
G0 X97.1 Y96.3
M3
G1 X98.7 Y96.3
M5
G0 X99 Y96.3
M3
G1 X99.9 Y96.3
M5
G0 X100.5 Y96.3
M3
G1 X101.3 Y96.3
M5
G0 X104.3 Y96.3
M3
G1 X105.1 Y96.3
M5
G0 X95.5 Y96.4
M3
G1 X96.4 Y96.4
M5
G0 X97 Y96.4
M3
G1 X98.8 Y96.4
M5
G0 X99 Y96.4
M3
G1 X99.9 Y96.4
M5
G0 X100.5 Y96.4
M3
G1 X101.3 Y96.4
M5
G0 X104.3 Y96.4
M3
G1 X105.1 Y96.4
M5
G0 X95.6 Y96.5
M3
G1 X96.4 Y96.5
M5
G0 X96.9 Y96.5
M3
G1 X98.8 Y96.5
M5
G0 X99 Y96.5
M3
G1 X101.3 Y96.5
M5
G0 X104.3 Y96.5
M3
G1 X105.1 Y96.5
M5
G0 X95.6 Y96.6
M3
G1 X96.4 Y96.6
M5
G0 X96.9 Y96.6
M3
G1 X101.4 Y96.6
M5
G0 X104.2 Y96.6
M3
G1 X105.1 Y96.6
M5
G0 X95.6 Y96.7
M3
G1 X96.4 Y96.7
M5
G0 X96.8 Y96.7
M3
G1 X101.4 Y96.7
M5
G0 X104.2 Y96.7
M3
G1 X105.1 Y96.7
M5
G0 X95.6 Y96.8
M3
G1 X96.5 Y96.8
M5
G0 X96.8 Y96.8
M3
G1 X101.4 Y96.8
M5
G0 X104.2 Y96.8
M3
G1 X105.1 Y96.8
M5
G0 X95.6 Y96.9
M3
G1 X96.5 Y96.9
M5
G0 X96.9 Y96.9
M3
G1 X101.4 Y96.9
M5
G0 X104.2 Y96.9
M3
G1 X105.1 Y96.9
M5
G0 X95.6 Y97
M3
G1 X96.5 Y97
M5
G0 X96.9 Y97
M3
G1 X101.5 Y97
M5
G0 X104.1 Y97
M3
G1 X105 Y97
M5
G0 X95.7 Y97.1
M3
G1 X96.6 Y97.1
M5
G0 X96.9 Y97.1
M3
G1 X101.5 Y97.1
M5
G0 X104.1 Y97.1
M3
G1 X105 Y97.1
M5
G0 X95.7 Y97.2
M3
G1 X96.6 Y97.2
M5
G0 X96.9 Y97.2
M3
G1 X101.6 Y97.2
M5
G0 X104.1 Y97.2
M3
G1 X105 Y97.2
M5
G0 X95.7 Y97.3
M3
G1 X96.7 Y97.3
M5
G0 X97 Y97.3
M3
G1 X101.6 Y97.3
M5
G0 X104 Y97.3
M3
G1 X105 Y97.3
M5
G0 X95.8 Y97.4
M3
G1 X96.7 Y97.4
M5
G0 X97 Y97.4
M3
G1 X101.6 Y97.4
M5
G0 X104 Y97.4
M3
G1 X104.9 Y97.4
M5
G0 X95.8 Y97.5
M3
G1 X96.8 Y97.5
M5
G0 X97.1 Y97.5
M3
G1 X101.7 Y97.5
M5
G0 X103.9 Y97.5
M3
G1 X104.9 Y97.5
M5
G0 X95.9 Y97.6
M3
G1 X96.8 Y97.6
M5
G0 X97.1 Y97.6
M3
G1 X101.8 Y97.6
M5
G0 X103.9 Y97.6
M3
G1 X104.8 Y97.6
M5
G0 X95.9 Y97.7
M3
G1 X96.8 Y97.7
M5
G0 X97.2 Y97.7
M3
G1 X100.2 Y97.7
M5
G0 X100.5 Y97.7
M3
G1 X101.9 Y97.7
M5
G0 X103.8 Y97.7
M3
G1 X104.8 Y97.7
M5
G0 X95.9 Y97.8
M3
G1 X96.8 Y97.8
M5
G0 X97.3 Y97.8
M3
G1 X100.2 Y97.8
M5
G0 X100.6 Y97.8
M3
G1 X102 Y97.8
M5
G0 X103.8 Y97.8
M3
G1 X104.8 Y97.8
M5
G0 X95.9 Y97.9
M3
G1 X96.8 Y97.9
M5
G0 X97.4 Y97.9
M3
G1 X100.3 Y97.9
M5
G0 X100.7 Y97.9
M3
G1 X102 Y97.9
M5
G0 X103.8 Y97.9
M3
G1 X104.7 Y97.9
M5
G0 X95.8 Y98
M3
G1 X96.7 Y98
M5
G0 X97.5 Y98
M3
G1 X100.4 Y98
M5
G0 X100.8 Y98
M3
G1 X102 Y98
M5
G0 X103.8 Y98
M3
G1 X104.7 Y98
M5
G0 X95.8 Y98.1
M3
G1 X96.7 Y98.1
M5
G0 X98.5 Y98.1
M3
G1 X99.2 Y98.1
M5
G0 X99.5 Y98.1
M3
G1 X100.5 Y98.1
M5
G0 X100.9 Y98.1
M3
G1 X102 Y98.1
M5
G0 X103.8 Y98.1
M3
G1 X104.7 Y98.1
M5
G0 X95.7 Y98.2
M3
G1 X96.6 Y98.2
M5
G0 X98.7 Y98.2
M3
G1 X99 Y98.2
M5
G0 X99.5 Y98.2
M3
G1 X100.5 Y98.2
M5
G0 X101.1 Y98.2
M3
G1 X102 Y98.2
M5
G0 X103.9 Y98.2
M3
G1 X104.8 Y98.2
M5
G0 X95.7 Y98.3
M3
G1 X96.6 Y98.3
M5
G0 X99.5 Y98.3
M3
G1 X100.6 Y98.3
M5
G0 X101.3 Y98.3
M3
G1 X101.9 Y98.3
M5
G0 X103.9 Y98.3
M3
G1 X104.8 Y98.3
M5
G0 X95.7 Y98.4
M3
G1 X96.5 Y98.4
M5
G0 X99.4 Y98.4
M3
G1 X100.7 Y98.4
M5
G0 X101.5 Y98.4
M3
G1 X101.8 Y98.4
M5
G0 X104 Y98.4
M3
G1 X104.9 Y98.4
M5
G0 X95.7 Y98.5
M3
G1 X96.5 Y98.5
M5
G0 X99.3 Y98.5
M3
G1 X100.8 Y98.5
M5
G0 X104 Y98.5
M3
G1 X104.9 Y98.5
M5
G0 X95.6 Y98.6
M3
G1 X96.4 Y98.6
M5
G0 X99.3 Y98.6
M3
G1 X100.9 Y98.6
M5
G0 X104.1 Y98.6
M3
G1 X104.9 Y98.6
M5
G0 X95.6 Y98.7
M3
G1 X96.4 Y98.7
M5
G0 X99.2 Y98.7
M3
G1 X101 Y98.7
M5
G0 X104.1 Y98.7
M3
G1 X105 Y98.7
M5
G0 X95.6 Y98.8
M3
G1 X96.4 Y98.8
M5
G0 X99.1 Y98.8
M3
G1 X101.1 Y98.8
M5
G0 X104.2 Y98.8
M3
G1 X105 Y98.8
M5
G0 X95.6 Y98.9
M3
G1 X96.4 Y98.9
M5
G0 X99.1 Y98.9
M3
G1 X101.1 Y98.9
M5
G0 X104.2 Y98.9
M3
G1 X105 Y98.9
M5
G0 X95.6 Y99
M3
G1 X96.4 Y99
M5
G0 X99.1 Y99
M3
G1 X101.2 Y99
M5
G0 X104.2 Y99
M3
G1 X105.1 Y99
M5
G0 X95.6 Y99.1
M3
G1 X96.3 Y99.1
M5
G0 X99.1 Y99.1
M3
G1 X99.9 Y99.1
M5
G0 X100.2 Y99.1
M3
G1 X101.3 Y99.1
M5
G0 X104.3 Y99.1
M3
G1 X105.1 Y99.1
M5
G0 X95.6 Y99.2
M3
G1 X96.3 Y99.2
M5
G0 X99.1 Y99.2
M3
G1 X99.8 Y99.2
M5
G0 X100.3 Y99.2
M3
G1 X101.3 Y99.2
M5
G0 X104.3 Y99.2
M3
G1 X105.1 Y99.2
M5
G0 X95.7 Y99.3
M3
G1 X96.2 Y99.3
M5
G0 X99.2 Y99.3
M3
G1 X99.7 Y99.3
M5
G0 X100.4 Y99.3
M3
G1 X101.3 Y99.3
M5
G0 X104.3 Y99.3
M3
G1 X105.1 Y99.3
M5
G0 X95.8 Y99.4
M3
G1 X96.1 Y99.4
M5
G0 X99.3 Y99.4
M3
G1 X99.6 Y99.4
M5
G0 X100.5 Y99.4
M3
G1 X101.3 Y99.4
M5
G0 X104.3 Y99.4
M3
G1 X105 Y99.4
M5
G0 X100.5 Y99.5
M3
G1 X101.3 Y99.5
M5
G0 X104.4 Y99.5
M3
G1 X105 Y99.5
M5
G0 X100.6 Y99.6
M3
G1 X101.2 Y99.6
M5
G0 X104.5 Y99.6
M3
G1 X104.9 Y99.6
M5
G0 X100.8 Y99.7
M3
G1 X101.1 Y99.7
M5

; G-code END <<<
