; G-code for laser engraving
; Generated by lotmax
2019-11-06 16:05:40

G90
G21
G28 XY
; G-code START <<<
G0 F2500
G1 F500
G0 X80 Y80
M3
G1 X80.3 Y80
M5
G0 X80 Y80.1
M3
G1 X159.9 Y80.1
M5
G0 X80 Y80.2
M3
G1 X159.9 Y80.2
M5
G0 X80 Y80.3
M3
G1 X159.9 Y80.3
M5
G0 X80 Y80.4
M3
G1 X159.6 Y80.4
M5
G0 X159.9 Y80.4
M3
G1 X159.9 Y80.4
M5
G0 X80 Y80.5
M3
G1 X159.9 Y80.5
M5
G0 X80 Y80.6
M3
G1 X80.3 Y80.6
M5
G0 X80 Y80.7
M3
G1 X159.9 Y80.7
M5
G0 X80 Y80.8
M3
G1 X159.5 Y80.8
M5
G0 X80 Y80.9
M3
G1 X159.9 Y80.9
M5
G0 X80 Y81
M3
G1 X159.9 Y81
M5
G0 X80 Y81.1
M3
G1 X159.9 Y81.1
M5
G0 X80 Y81.2
M3
G1 X80.3 Y81.2
M5
G0 X159.2 Y81.2
M3
G1 X159.2 Y81.2
M5
G0 X159.5 Y81.2
M3
G1 X159.6 Y81.2
M5
G0 X159.9 Y81.2
M3
G1 X159.9 Y81.2
M5
G0 X80 Y81.3
M3
G1 X159.9 Y81.3
M5
G0 X80 Y81.4
M3
G1 X159.2 Y81.4
M5
G0 X159.5 Y81.4
M3
G1 X159.5 Y81.4
M5
G0 X80 Y81.5
M3
G1 X159.9 Y81.5
M5
G0 X80 Y81.6
M3
G1 X158.7 Y81.6
M5
G0 X158.9 Y81.6
M3
G1 X158.9 Y81.6
M5
G0 X159.1 Y81.6
M3
G1 X159.1 Y81.6
M5
G0 X80 Y81.7
M3
G1 X159.9 Y81.7
M5
G0 X80 Y81.8
M3
G1 X80.3 Y81.8
M5
G0 X159.2 Y81.8
M3
G1 X159.9 Y81.8
M5
G0 X80 Y81.9
M3
G1 X159.9 Y81.9
M5
G0 X80 Y82
M3
G1 X158.7 Y82
M5
G0 X159.2 Y82
M3
G1 X159.2 Y82
M5
G0 X159.5 Y82
M3
G1 X159.6 Y82
M5
G0 X159.9 Y82
M3
G1 X159.9 Y82
M5
G0 X80 Y82.1
M3
G1 X159.9 Y82.1
M5
G0 X80 Y82.2
M3
G1 X159.2 Y82.2
M5
G0 X159.5 Y82.2
M3
G1 X159.5 Y82.2
M5
G0 X80 Y82.3
M3
G1 X159.9 Y82.3
M5
G0 X80 Y82.4
M3
G1 X80.3 Y82.4
M5
G0 X158.4 Y82.4
M3
G1 X158.4 Y82.4
M5
G0 X158.7 Y82.4
M3
G1 X158.7 Y82.4
M5
G0 X158.9 Y82.4
M3
G1 X158.9 Y82.4
M5
G0 X159.1 Y82.4
M3
G1 X159.1 Y82.4
M5
G0 X80 Y82.5
M3
G1 X159.9 Y82.5
M5
G0 X80 Y82.6
M3
G1 X158.4 Y82.6
M5
G0 X158.7 Y82.6
M3
G1 X158.7 Y82.6
M5
G0 X159.2 Y82.6
M3
G1 X159.9 Y82.6
M5
G0 X80 Y82.7
M3
G1 X159.9 Y82.7
M5
G0 X80 Y82.8
M3
G1 X157.9 Y82.8
M5
G0 X158.1 Y82.8
M3
G1 X158.1 Y82.8
M5
G0 X158.3 Y82.8
M3
G1 X158.3 Y82.8
M5
G0 X159.2 Y82.8
M3
G1 X159.2 Y82.8
M5
G0 X159.5 Y82.8
M3
G1 X159.6 Y82.8
M5
G0 X159.9 Y82.8
M3
G1 X159.9 Y82.8
M5
G0 X80 Y82.9
M3
G1 X159.9 Y82.9
M5
G0 X80 Y83
M3
G1 X80.3 Y83
M5
G0 X158.4 Y83
M3
G1 X159.2 Y83
M5
G0 X159.5 Y83
M3
G1 X159.5 Y83
M5
G0 X80 Y83.1
M3
G1 X159.9 Y83.1
M5
G0 X80 Y83.2
M3
G1 X157.9 Y83.2
M5
G0 X158.4 Y83.2
M3
G1 X158.4 Y83.2
M5
G0 X158.7 Y83.2
M3
G1 X158.7 Y83.2
M5
G0 X158.9 Y83.2
M3
G1 X158.9 Y83.2
M5
G0 X159.1 Y83.2
M3
G1 X159.1 Y83.2
M5
G0 X80 Y83.3
M3
G1 X159.9 Y83.3
M5
G0 X80 Y83.4
M3
G1 X158.4 Y83.4
M5
G0 X158.7 Y83.4
M3
G1 X158.7 Y83.4
M5
G0 X159.2 Y83.4
M3
G1 X159.9 Y83.4
M5
G0 X80 Y83.5
M3
G1 X159.9 Y83.5
M5
G0 X80 Y83.6
M3
G1 X80.3 Y83.6
M5
G0 X157.6 Y83.6
M3
G1 X157.6 Y83.6
M5
G0 X157.9 Y83.6
M3
G1 X157.9 Y83.6
M5
G0 X158.1 Y83.6
M3
G1 X158.1 Y83.6
M5
G0 X158.3 Y83.6
M3
G1 X158.3 Y83.6
M5
G0 X159.2 Y83.6
M3
G1 X159.2 Y83.6
M5
G0 X159.5 Y83.6
M3
G1 X159.6 Y83.6
M5
G0 X159.9 Y83.6
M3
G1 X159.9 Y83.6
M5
G0 X80 Y83.7
M3
G1 X159.9 Y83.7
M5
G0 X80 Y83.8
M3
G1 X157.6 Y83.8
M5
G0 X157.9 Y83.8
M3
G1 X157.9 Y83.8
M5
G0 X158.4 Y83.8
M3
G1 X159.2 Y83.8
M5
G0 X159.5 Y83.8
M3
G1 X159.5 Y83.8
M5
G0 X80 Y83.9
M3
G1 X159.9 Y83.9
M5
G0 X80 Y84
M3
G1 X157.1 Y84
M5
G0 X157.3 Y84
M3
G1 X157.3 Y84
M5
G0 X157.5 Y84
M3
G1 X157.5 Y84
M5
G0 X158.4 Y84
M3
G1 X158.4 Y84
M5
G0 X158.7 Y84
M3
G1 X158.7 Y84
M5
G0 X158.9 Y84
M3
G1 X158.9 Y84
M5
G0 X159.1 Y84
M3
G1 X159.1 Y84
M5
G0 X80 Y84.1
M3
G1 X159.9 Y84.1
M5
G0 X80 Y84.2
M3
G1 X80.3 Y84.2
M5
G0 X157.6 Y84.2
M3
G1 X158.4 Y84.2
M5
G0 X158.7 Y84.2
M3
G1 X158.7 Y84.2
M5
G0 X159.2 Y84.2
M3
G1 X159.9 Y84.2
M5
G0 X80 Y84.3
M3
G1 X159.9 Y84.3
M5
G0 X80 Y84.4
M3
G1 X157.1 Y84.4
M5
G0 X157.6 Y84.4
M3
G1 X157.6 Y84.4
M5
G0 X157.9 Y84.4
M3
G1 X157.9 Y84.4
M5
G0 X158.1 Y84.4
M3
G1 X158.1 Y84.4
M5
G0 X158.3 Y84.4
M3
G1 X158.3 Y84.4
M5
G0 X159.2 Y84.4
M3
G1 X159.2 Y84.4
M5
G0 X159.5 Y84.4
M3
G1 X159.6 Y84.4
M5
G0 X159.9 Y84.4
M3
G1 X159.9 Y84.4
M5
G0 X80 Y84.5
M3
G1 X159.9 Y84.5
M5
G0 X80 Y84.6
M3
G1 X157.6 Y84.6
M5
G0 X157.9 Y84.6
M3
G1 X157.9 Y84.6
M5
G0 X158.4 Y84.6
M3
G1 X159.2 Y84.6
M5
G0 X159.5 Y84.6
M3
G1 X159.5 Y84.6
M5
G0 X80 Y84.7
M3
G1 X159.9 Y84.7
M5
G0 X80 Y84.8
M3
G1 X80.3 Y84.8
M5
G0 X156.8 Y84.8
M3
G1 X156.8 Y84.8
M5
G0 X157.1 Y84.8
M3
G1 X157.1 Y84.8
M5
G0 X157.3 Y84.8
M3
G1 X157.3 Y84.8
M5
G0 X157.5 Y84.8
M3
G1 X157.5 Y84.8
M5
G0 X158.4 Y84.8
M3
G1 X158.4 Y84.8
M5
G0 X158.7 Y84.8
M3
G1 X158.7 Y84.8
M5
G0 X158.9 Y84.8
M3
G1 X158.9 Y84.8
M5
G0 X159.1 Y84.8
M3
G1 X159.1 Y84.8
M5
G0 X80 Y84.9
M3
G1 X159.9 Y84.9
M5
G0 X80 Y85
M3
G1 X95.1 Y85
M5
G0 X95.5 Y85
M3
G1 X95.5 Y85
M5
G0 X95.9 Y85
M3
G1 X95.9 Y85
M5
G0 X96.3 Y85
M3
G1 X96.3 Y85
M5
G0 X96.7 Y85
M3
G1 X96.7 Y85
M5
G0 X97.1 Y85
M3
G1 X97.1 Y85
M5
G0 X97.5 Y85
M3
G1 X97.5 Y85
M5
G0 X97.9 Y85
M3
G1 X97.9 Y85
M5
G0 X98.3 Y85
M3
G1 X98.3 Y85
M5
G0 X98.7 Y85
M3
G1 X98.7 Y85
M5
G0 X99.1 Y85
M3
G1 X99.1 Y85
M5
G0 X99.5 Y85
M3
G1 X99.5 Y85
M5
G0 X99.9 Y85
M3
G1 X99.9 Y85
M5
G0 X100.3 Y85
M3
G1 X100.3 Y85
M5
G0 X100.7 Y85
M3
G1 X100.8 Y85
M5
G0 X101.1 Y85
M3
G1 X101.1 Y85
M5
G0 X101.3 Y85
M3
G1 X101.3 Y85
M5
G0 X101.5 Y85
M3
G1 X101.5 Y85
M5
G0 X101.7 Y85
M3
G1 X101.7 Y85
M5
G0 X101.9 Y85
M3
G1 X101.9 Y85
M5
G0 X102.1 Y85
M3
G1 X102.1 Y85
M5
G0 X102.3 Y85
M3
G1 X102.3 Y85
M5
G0 X102.5 Y85
M3
G1 X102.5 Y85
M5
G0 X102.7 Y85
M3
G1 X102.7 Y85
M5
G0 X102.9 Y85
M3
G1 X102.9 Y85
M5
G0 X103.1 Y85
M3
G1 X103.1 Y85
M5
G0 X103.3 Y85
M3
G1 X103.3 Y85
M5
G0 X103.5 Y85
M3
G1 X103.5 Y85
M5
G0 X103.7 Y85
M3
G1 X103.7 Y85
M5
G0 X103.9 Y85
M3
G1 X103.9 Y85
M5
G0 X104.1 Y85
M3
G1 X104.1 Y85
M5
G0 X104.3 Y85
M3
G1 X104.3 Y85
M5
G0 X104.5 Y85
M3
G1 X104.5 Y85
M5
G0 X104.7 Y85
M3
G1 X104.7 Y85
M5
G0 X104.9 Y85
M3
G1 X104.9 Y85
M5
G0 X105.1 Y85
M3
G1 X105.1 Y85
M5
G0 X105.3 Y85
M3
G1 X105.3 Y85
M5
G0 X105.5 Y85
M3
G1 X105.5 Y85
M5
G0 X105.7 Y85
M3
G1 X105.7 Y85
M5
G0 X105.9 Y85
M3
G1 X106 Y85
M5
G0 X106.3 Y85
M3
G1 X106.4 Y85
M5
G0 X106.7 Y85
M3
G1 X106.8 Y85
M5
G0 X107.1 Y85
M3
G1 X107.2 Y85
M5
G0 X107.5 Y85
M3
G1 X107.6 Y85
M5
G0 X107.9 Y85
M3
G1 X108 Y85
M5
G0 X108.3 Y85
M3
G1 X108.4 Y85
M5
G0 X108.7 Y85
M3
G1 X108.8 Y85
M5
G0 X109.1 Y85
M3
G1 X109.2 Y85
M5
G0 X109.5 Y85
M3
G1 X109.6 Y85
M5
G0 X109.9 Y85
M3
G1 X110 Y85
M5
G0 X110.3 Y85
M3
G1 X110.4 Y85
M5
G0 X110.7 Y85
M3
G1 X110.8 Y85
M5
G0 X111.1 Y85
M3
G1 X111.2 Y85
M5
G0 X111.5 Y85
M3
G1 X111.6 Y85
M5
G0 X111.9 Y85
M3
G1 X112 Y85
M5
G0 X112.3 Y85
M3
G1 X112.4 Y85
M5
G0 X112.7 Y85
M3
G1 X112.8 Y85
M5
G0 X113.1 Y85
M3
G1 X113.2 Y85
M5
G0 X113.5 Y85
M3
G1 X113.6 Y85
M5
G0 X113.9 Y85
M3
G1 X114 Y85
M5
G0 X114.3 Y85
M3
G1 X114.4 Y85
M5
G0 X114.7 Y85
M3
G1 X114.8 Y85
M5
G0 X115.1 Y85
M3
G1 X115.2 Y85
M5
G0 X115.5 Y85
M3
G1 X115.6 Y85
M5
G0 X115.9 Y85
M3
G1 X116 Y85
M5
G0 X116.3 Y85
M3
G1 X116.4 Y85
M5
G0 X116.7 Y85
M3
G1 X116.8 Y85
M5
G0 X117.1 Y85
M3
G1 X117.2 Y85
M5
G0 X117.5 Y85
M3
G1 X117.6 Y85
M5
G0 X117.9 Y85
M3
G1 X118 Y85
M5
G0 X118.3 Y85
M3
G1 X118.4 Y85
M5
G0 X118.7 Y85
M3
G1 X118.8 Y85
M5
G0 X119.1 Y85
M3
G1 X119.2 Y85
M5
G0 X119.5 Y85
M3
G1 X119.6 Y85
M5
G0 X119.9 Y85
M3
G1 X120 Y85
M5
G0 X120.3 Y85
M3
G1 X120.4 Y85
M5
G0 X120.7 Y85
M3
G1 X120.8 Y85
M5
G0 X121.1 Y85
M3
G1 X121.2 Y85
M5
G0 X121.5 Y85
M3
G1 X121.6 Y85
M5
G0 X121.9 Y85
M3
G1 X122 Y85
M5
G0 X122.3 Y85
M3
G1 X122.4 Y85
M5
G0 X122.7 Y85
M3
G1 X122.8 Y85
M5
G0 X123.1 Y85
M3
G1 X123.2 Y85
M5
G0 X123.5 Y85
M3
G1 X123.6 Y85
M5
G0 X123.9 Y85
M3
G1 X124 Y85
M5
G0 X124.3 Y85
M3
G1 X124.4 Y85
M5
G0 X124.7 Y85
M3
G1 X124.8 Y85
M5
G0 X125.1 Y85
M3
G1 X125.2 Y85
M5
G0 X125.5 Y85
M3
G1 X125.5 Y85
M5
G0 X125.7 Y85
M3
G1 X125.7 Y85
M5
G0 X125.9 Y85
M3
G1 X125.9 Y85
M5
G0 X126.1 Y85
M3
G1 X126.1 Y85
M5
G0 X126.3 Y85
M3
G1 X126.3 Y85
M5
G0 X126.5 Y85
M3
G1 X126.5 Y85
M5
G0 X126.7 Y85
M3
G1 X126.8 Y85
M5
G0 X127.1 Y85
M3
G1 X127.2 Y85
M5
G0 X127.5 Y85
M3
G1 X127.5 Y85
M5
G0 X127.9 Y85
M3
G1 X127.9 Y85
M5
G0 X128.3 Y85
M3
G1 X128.3 Y85
M5
G0 X128.7 Y85
M3
G1 X128.7 Y85
M5
G0 X129.1 Y85
M3
G1 X129.1 Y85
M5
G0 X129.5 Y85
M3
G1 X129.5 Y85
M5
G0 X129.9 Y85
M3
G1 X129.9 Y85
M5
G0 X130.3 Y85
M3
G1 X130.3 Y85
M5
G0 X130.7 Y85
M3
G1 X130.7 Y85
M5
G0 X131.1 Y85
M3
G1 X131.1 Y85
M5
G0 X131.5 Y85
M3
G1 X131.5 Y85
M5
G0 X131.9 Y85
M3
G1 X131.9 Y85
M5
G0 X132.3 Y85
M3
G1 X132.3 Y85
M5
G0 X132.7 Y85
M3
G1 X132.7 Y85
M5
G0 X133.1 Y85
M3
G1 X133.1 Y85
M5
G0 X133.5 Y85
M3
G1 X133.5 Y85
M5
G0 X133.9 Y85
M3
G1 X133.9 Y85
M5
G0 X134.3 Y85
M3
G1 X134.3 Y85
M5
G0 X134.7 Y85
M3
G1 X134.8 Y85
M5
G0 X136 Y85
M3
G1 X136 Y85
M5
G0 X136.4 Y85
M3
G1 X136.4 Y85
M5
G0 X136.7 Y85
M3
G1 X136.7 Y85
M5
G0 X136.9 Y85
M3
G1 X136.9 Y85
M5
G0 X137.1 Y85
M3
G1 X137.1 Y85
M5
G0 X137.3 Y85
M3
G1 X137.3 Y85
M5
G0 X137.5 Y85
M3
G1 X137.6 Y85
M5
G0 X137.9 Y85
M3
G1 X138 Y85
M5
G0 X138.3 Y85
M3
G1 X138.4 Y85
M5
G0 X138.7 Y85
M3
G1 X138.8 Y85
M5
G0 X139.1 Y85
M3
G1 X139.2 Y85
M5
G0 X139.5 Y85
M3
G1 X139.6 Y85
M5
G0 X139.9 Y85
M3
G1 X140 Y85
M5
G0 X140.3 Y85
M3
G1 X140.4 Y85
M5
G0 X140.7 Y85
M3
G1 X140.8 Y85
M5
G0 X141.1 Y85
M3
G1 X141.2 Y85
M5
G0 X141.5 Y85
M3
G1 X141.6 Y85
M5
G0 X141.9 Y85
M3
G1 X142 Y85
M5
G0 X142.3 Y85
M3
G1 X142.4 Y85
M5
G0 X142.7 Y85
M3
G1 X142.8 Y85
M5
G0 X143.1 Y85
M3
G1 X143.2 Y85
M5
G0 X143.5 Y85
M3
G1 X143.5 Y85
M5
G0 X143.7 Y85
M3
G1 X143.7 Y85
M5
G0 X143.9 Y85
M3
G1 X144 Y85
M5
G0 X144.3 Y85
M3
G1 X144.3 Y85
M5
G0 X144.7 Y85
M3
G1 X144.7 Y85
M5
G0 X145.1 Y85
M3
G1 X156.8 Y85
M5
G0 X157.1 Y85
M3
G1 X157.1 Y85
M5
G0 X157.6 Y85
M3
G1 X158.4 Y85
M5
G0 X158.7 Y85
M3
G1 X158.7 Y85
M5
G0 X159.2 Y85
M3
G1 X159.9 Y85
M5
G0 X80 Y85.1
M3
G1 X159.9 Y85.1
M5
G0 X80 Y85.2
M3
G1 X95.1 Y85.2
M5
G0 X95.5 Y85.2
M3
G1 X95.5 Y85.2
M5
G0 X95.9 Y85.2
M3
G1 X95.9 Y85.2
M5
G0 X96.3 Y85.2
M3
G1 X96.3 Y85.2
M5
G0 X96.7 Y85.2
M3
G1 X96.7 Y85.2
M5
G0 X97.1 Y85.2
M3
G1 X97.2 Y85.2
M5
G0 X97.5 Y85.2
M3
G1 X97.6 Y85.2
M5
G0 X97.9 Y85.2
M3
G1 X98 Y85.2
M5
G0 X98.3 Y85.2
M3
G1 X98.3 Y85.2
M5
G0 X98.7 Y85.2
M3
G1 X98.7 Y85.2
M5
G0 X99.1 Y85.2
M3
G1 X99.1 Y85.2
M5
G0 X99.5 Y85.2
M3
G1 X99.5 Y85.2
M5
G0 X99.9 Y85.2
M3
G1 X99.9 Y85.2
M5
G0 X100.3 Y85.2
M3
G1 X100.3 Y85.2
M5
G0 X100.7 Y85.2
M3
G1 X100.8 Y85.2
M5
G0 X101.1 Y85.2
M3
G1 X101.1 Y85.2
M5
G0 X101.3 Y85.2
M3
G1 X101.3 Y85.2
M5
G0 X101.5 Y85.2
M3
G1 X101.7 Y85.2
M5
G0 X101.9 Y85.2
M3
G1 X101.9 Y85.2
M5
G0 X102.1 Y85.2
M3
G1 X102.1 Y85.2
M5
G0 X102.3 Y85.2
M3
G1 X102.3 Y85.2
M5
G0 X102.5 Y85.2
M3
G1 X102.5 Y85.2
M5
G0 X102.7 Y85.2
M3
G1 X102.7 Y85.2
M5
G0 X102.9 Y85.2
M3
G1 X102.9 Y85.2
M5
G0 X103.1 Y85.2
M3
G1 X103.1 Y85.2
M5
G0 X103.3 Y85.2
M3
G1 X103.3 Y85.2
M5
G0 X103.5 Y85.2
M3
G1 X103.5 Y85.2
M5
G0 X103.7 Y85.2
M3
G1 X103.7 Y85.2
M5
G0 X103.9 Y85.2
M3
G1 X103.9 Y85.2
M5
G0 X104.1 Y85.2
M3
G1 X104.1 Y85.2
M5
G0 X104.3 Y85.2
M3
G1 X104.3 Y85.2
M5
G0 X104.5 Y85.2
M3
G1 X104.5 Y85.2
M5
G0 X104.7 Y85.2
M3
G1 X104.7 Y85.2
M5
G0 X104.9 Y85.2
M3
G1 X104.9 Y85.2
M5
G0 X105.1 Y85.2
M3
G1 X105.1 Y85.2
M5
G0 X105.3 Y85.2
M3
G1 X105.3 Y85.2
M5
G0 X105.5 Y85.2
M3
G1 X105.5 Y85.2
M5
G0 X105.7 Y85.2
M3
G1 X105.7 Y85.2
M5
G0 X105.9 Y85.2
M3
G1 X105.9 Y85.2
M5
G0 X106.1 Y85.2
M3
G1 X106.1 Y85.2
M5
G0 X106.3 Y85.2
M3
G1 X106.3 Y85.2
M5
G0 X106.5 Y85.2
M3
G1 X106.5 Y85.2
M5
G0 X106.7 Y85.2
M3
G1 X106.8 Y85.2
M5
G0 X107.1 Y85.2
M3
G1 X107.2 Y85.2
M5
G0 X107.5 Y85.2
M3
G1 X107.6 Y85.2
M5
G0 X107.9 Y85.2
M3
G1 X108 Y85.2
M5
G0 X108.3 Y85.2
M3
G1 X108.4 Y85.2
M5
G0 X108.7 Y85.2
M3
G1 X108.8 Y85.2
M5
G0 X109.1 Y85.2
M3
G1 X109.2 Y85.2
M5
G0 X109.5 Y85.2
M3
G1 X109.6 Y85.2
M5
G0 X109.9 Y85.2
M3
G1 X110 Y85.2
M5
G0 X110.3 Y85.2
M3
G1 X110.4 Y85.2
M5
G0 X110.7 Y85.2
M3
G1 X110.8 Y85.2
M5
G0 X111.1 Y85.2
M3
G1 X111.2 Y85.2
M5
G0 X111.5 Y85.2
M3
G1 X111.6 Y85.2
M5
G0 X111.9 Y85.2
M3
G1 X112 Y85.2
M5
G0 X112.3 Y85.2
M3
G1 X112.4 Y85.2
M5
G0 X112.7 Y85.2
M3
G1 X112.8 Y85.2
M5
G0 X113.1 Y85.2
M3
G1 X113.2 Y85.2
M5
G0 X113.5 Y85.2
M3
G1 X113.6 Y85.2
M5
G0 X113.9 Y85.2
M3
G1 X114 Y85.2
M5
G0 X114.3 Y85.2
M3
G1 X114.4 Y85.2
M5
G0 X114.7 Y85.2
M3
G1 X114.8 Y85.2
M5
G0 X115.1 Y85.2
M3
G1 X115.2 Y85.2
M5
G0 X115.5 Y85.2
M3
G1 X115.6 Y85.2
M5
G0 X115.9 Y85.2
M3
G1 X116 Y85.2
M5
G0 X116.3 Y85.2
M3
G1 X116.4 Y85.2
M5
G0 X116.7 Y85.2
M3
G1 X116.8 Y85.2
M5
G0 X117.1 Y85.2
M3
G1 X117.2 Y85.2
M5
G0 X117.5 Y85.2
M3
G1 X117.6 Y85.2
M5
G0 X117.9 Y85.2
M3
G1 X118 Y85.2
M5
G0 X118.3 Y85.2
M3
G1 X118.4 Y85.2
M5
G0 X118.7 Y85.2
M3
G1 X118.8 Y85.2
M5
G0 X119.1 Y85.2
M3
G1 X119.2 Y85.2
M5
G0 X119.5 Y85.2
M3
G1 X119.6 Y85.2
M5
G0 X119.9 Y85.2
M3
G1 X120 Y85.2
M5
G0 X120.3 Y85.2
M3
G1 X120.4 Y85.2
M5
G0 X120.7 Y85.2
M3
G1 X120.8 Y85.2
M5
G0 X121.1 Y85.2
M3
G1 X121.2 Y85.2
M5
G0 X121.5 Y85.2
M3
G1 X121.6 Y85.2
M5
G0 X121.9 Y85.2
M3
G1 X122 Y85.2
M5
G0 X122.3 Y85.2
M3
G1 X122.4 Y85.2
M5
G0 X122.7 Y85.2
M3
G1 X122.8 Y85.2
M5
G0 X123.1 Y85.2
M3
G1 X123.2 Y85.2
M5
G0 X123.5 Y85.2
M3
G1 X123.6 Y85.2
M5
G0 X123.9 Y85.2
M3
G1 X124 Y85.2
M5
G0 X124.3 Y85.2
M3
G1 X124.4 Y85.2
M5
G0 X124.7 Y85.2
M3
G1 X124.7 Y85.2
M5
G0 X124.9 Y85.2
M3
G1 X124.9 Y85.2
M5
G0 X125.1 Y85.2
M3
G1 X125.1 Y85.2
M5
G0 X125.3 Y85.2
M3
G1 X125.3 Y85.2
M5
G0 X125.5 Y85.2
M3
G1 X125.5 Y85.2
M5
G0 X125.7 Y85.2
M3
G1 X125.7 Y85.2
M5
G0 X125.9 Y85.2
M3
G1 X125.9 Y85.2
M5
G0 X126.1 Y85.2
M3
G1 X126.1 Y85.2
M5
G0 X126.3 Y85.2
M3
G1 X126.3 Y85.2
M5
G0 X126.5 Y85.2
M3
G1 X126.5 Y85.2
M5
G0 X126.7 Y85.2
M3
G1 X126.8 Y85.2
M5
G0 X127.1 Y85.2
M3
G1 X127.2 Y85.2
M5
G0 X127.5 Y85.2
M3
G1 X127.6 Y85.2
M5
G0 X127.9 Y85.2
M3
G1 X127.9 Y85.2
M5
G0 X128.3 Y85.2
M3
G1 X128.3 Y85.2
M5
G0 X128.7 Y85.2
M3
G1 X128.8 Y85.2
M5
G0 X129.1 Y85.2
M3
G1 X129.2 Y85.2
M5
G0 X129.5 Y85.2
M3
G1 X129.6 Y85.2
M5
G0 X129.9 Y85.2
M3
G1 X130 Y85.2
M5
G0 X130.3 Y85.2
M3
G1 X130.3 Y85.2
M5
G0 X130.7 Y85.2
M3
G1 X130.8 Y85.2
M5
G0 X131.1 Y85.2
M3
G1 X131.2 Y85.2
M5
G0 X131.5 Y85.2
M3
G1 X131.6 Y85.2
M5
G0 X131.9 Y85.2
M3
G1 X132 Y85.2
M5
G0 X132.3 Y85.2
M3
G1 X132.4 Y85.2
M5
G0 X132.7 Y85.2
M3
G1 X132.8 Y85.2
M5
G0 X133.1 Y85.2
M3
G1 X133.2 Y85.2
M5
G0 X133.5 Y85.2
M3
G1 X133.5 Y85.2
M5
G0 X133.9 Y85.2
M3
G1 X134 Y85.2
M5
G0 X134.3 Y85.2
M3
G1 X134.3 Y85.2
M5
G0 X134.7 Y85.2
M3
G1 X134.8 Y85.2
M5
G0 X135.2 Y85.2
M3
G1 X135.2 Y85.2
M5
G0 X135.6 Y85.2
M3
G1 X135.6 Y85.2
M5
G0 X136 Y85.2
M3
G1 X136 Y85.2
M5
G0 X136.4 Y85.2
M3
G1 X136.4 Y85.2
M5
G0 X136.7 Y85.2
M3
G1 X136.7 Y85.2
M5
G0 X136.9 Y85.2
M3
G1 X136.9 Y85.2
M5
G0 X137.1 Y85.2
M3
G1 X137.1 Y85.2
M5
G0 X137.3 Y85.2
M3
G1 X137.3 Y85.2
M5
G0 X137.5 Y85.2
M3
G1 X137.5 Y85.2
M5
G0 X137.7 Y85.2
M3
G1 X137.7 Y85.2
M5
G0 X137.9 Y85.2
M3
G1 X137.9 Y85.2
M5
G0 X138.1 Y85.2
M3
G1 X138.1 Y85.2
M5
G0 X138.3 Y85.2
M3
G1 X138.3 Y85.2
M5
G0 X138.5 Y85.2
M3
G1 X138.5 Y85.2
M5
G0 X138.7 Y85.2
M3
G1 X138.7 Y85.2
M5
G0 X138.9 Y85.2
M3
G1 X138.9 Y85.2
M5
G0 X139.1 Y85.2
M3
